;(.../Electronics/Eagle/pcb-gcode/pcb-gcode.ulp)
;(Copyright 2005 - 2012 by John Johnson)
;(See readme.txt for licensing terms.)
;(This file generated from the board:)
;(.../RepRap-Distributed-Controller/Eagle/STEP-CON Mk 03.brd)
;(Current profile is .../pcb-gcode/profiles/generic.pp  )
;(This file generated 17/09/2016 12:48)
;(Settings from pcb-machine.h)
;(spindle on time = 1000.0000)
;(spindle speed = 20000.0000)
;(tool change at 0.0000 0.0000 5.0000 )
;(feed rate xy = F0.00  )
;(feed rate z  = F500.00 )
;(Z Axis Settings)
;(  High     Up        Down     Drill)
;(5.0000 	2.0000 	-0.2000 	-2.0000 )
;(Settings from pcb-defaults.h)
;(isolate min = 0.0250)
;(isolate max = 0.5000)
;(isolate step = 0.0800)
;(Generated bottom outlines, bottom drill, )
;(Unit of measure: mm)
;( Tool|       Size       |  Min Sub |  Max Sub |   Count )
;( T01  0.600mm 0.0236in 0.0000in 0.0000in )
;( T02  0.800mm 0.0315in 0.0000in 0.0000in )
;( T03  0.813mm 0.0320in 0.0000in 0.0000in )
;( T04  1.016mm 0.0400in 0.0000in 0.0000in )
;( T05  1.700mm 0.0669in 0.0000in 0.0000in )
;(Metric Mode)
G21
;(Absolute Coordinates)
G90
;S20000
G00 Z5.0000  F3000
G00 X0.0000 Y0.0000  F3000
;M03 S1
G04 P1000.000000
;M03 S0
;M06 T01  ; 0.6000 
G01 Z0.0000 F500.00 
;M06 
G00 Z2.0000  F3000
;M03 S1
G04 P1000.000000
G00 X-2.0000 Y12.2500  F3000
G01 Z-2.0000 F500.00 
G00 Z2.0000  F3000
G00 X-7.0000 Y15.2500  F3000
G01 Z-2.0000 F500.00 
G00 Z2.0000  F3000
G00 X-11.6250 Y18.1250  F3000
G01 Z-2.0000 F500.00 
G00 Z2.0000  F3000
G00 X-9.2500 Y23.0000  F3000
G01 Z-2.0000 F500.00 
G00 Z2.0000  F3000
G00 X-20.7500 Y23.0000  F3000
G01 Z-2.0000 F500.00 
G00 Z2.0000  F3000
G00 X-21.0000 Y14.2500  F3000
G01 Z-2.0000 F500.00 
G00 Z2.0000  F3000
G00 X-21.2500 Y9.7500  F3000
G01 Z-2.0000 F500.00 
G00 Z2.0000  F3000
G00 X-20.2500 Y3.7500  F3000
G01 Z-2.0000 F500.00 
G00 Z2.0000  F3000
G00 X-15.7500 Y6.5000  F3000
G01 Z-2.0000 F500.00 
G00 Z2.0000  F3000
G00 X-5.5000 Y5.5000  F3000
G01 Z-2.0000 F500.00 
G00 Z2.0000  F3000
G00 X-27.0000 Y3.7500  F3000
G01 Z-2.0000 F500.00 
G00 Z2.0000  F3000
G00 X-32.0000 Y4.0000  F3000
G01 Z-2.0000 F500.00 
G00 Z2.0000  F3000
G00 X-36.5000 Y5.5000  F3000
G01 Z-2.0000 F500.00 
G00 Z2.0000  F3000
G00 X-36.5000 Y36.5000  F3000
G01 Z-2.0000 F500.00 
G00 Z2.0000  F3000
G00 X-20.2500 Y32.2500  F3000
G01 Z-2.0000 F500.00 
G00 Z2.0000  F3000
G00 X-5.2500 Y37.0000  F3000
G01 Z-2.0000 F500.00 
G00 Z2.0000  F3000
;M03 S0
G00 Z5.0000  F3000
G00 X0.0000 Y0.0000  F3000
;M06 T02  ; 0.8000 
G01 Z0.0000 F500.00 
;M06 
G00 Z2.0000  F3000
;M03 S1
G04 P1000.000000
G00 X-23.8100 Y13.5400  F3000
G01 Z-2.0000 F500.00 
G00 Z2.0000  F3000
G00 X-23.8100 Y16.0800  F3000
G01 Z-2.0000 F500.00 
G00 Z2.0000  F3000
G00 X-23.8100 Y18.6200  F3000
G01 Z-2.0000 F500.00 
G00 Z2.0000  F3000
G00 X-23.8100 Y21.1600  F3000
G01 Z-2.0000 F500.00 
G00 Z2.0000  F3000
G00 X-23.8100 Y23.7000  F3000
G01 Z-2.0000 F500.00 
G00 Z2.0000  F3000
G00 X-23.8100 Y26.2400  F3000
G01 Z-2.0000 F500.00 
G00 Z2.0000  F3000
G00 X-23.8100 Y28.7800  F3000
G01 Z-2.0000 F500.00 
G00 Z2.0000  F3000
G00 X-23.8100 Y31.3200  F3000
G01 Z-2.0000 F500.00 
G00 Z2.0000  F3000
G00 X-36.5100 Y31.3200  F3000
G01 Z-2.0000 F500.00 
G00 Z2.0000  F3000
G00 X-36.5100 Y28.7800  F3000
G01 Z-2.0000 F500.00 
G00 Z2.0000  F3000
G00 X-36.5100 Y26.2400  F3000
G01 Z-2.0000 F500.00 
G00 Z2.0000  F3000
G00 X-36.5100 Y23.7000  F3000
G01 Z-2.0000 F500.00 
G00 Z2.0000  F3000
G00 X-36.5100 Y21.1600  F3000
G01 Z-2.0000 F500.00 
G00 Z2.0000  F3000
G00 X-36.5100 Y18.6200  F3000
G01 Z-2.0000 F500.00 
G00 Z2.0000  F3000
G00 X-36.5100 Y16.0800  F3000
G01 Z-2.0000 F500.00 
G00 Z2.0000  F3000
G00 X-36.5100 Y13.5400  F3000
G01 Z-2.0000 F500.00 
G00 Z2.0000  F3000
G00 X-28.6360 Y19.2550  F3000
G01 Z-2.0000 F500.00 
G00 Z2.0000  F3000
;M03 S0
G00 Z5.0000  F3000
G00 X0.0000 Y0.0000  F3000
;M06 T03  ; 0.8128 
G01 Z0.0000 F500.00 
;M06 
G00 Z2.0000  F3000
;M03 S1
G04 P1000.000000
G00 X-6.7900 Y21.5000  F3000
G01 Z-2.0000 F500.00 
G00 Z2.0000  F3000
G00 X-6.7900 Y24.0400  F3000
G01 Z-2.0000 F500.00 
G00 Z2.0000  F3000
G00 X-6.7900 Y26.5800  F3000
G01 Z-2.0000 F500.00 
G00 Z2.0000  F3000
G00 X-6.7900 Y29.1200  F3000
G01 Z-2.0000 F500.00 
G00 Z2.0000  F3000
G00 X-14.4100 Y29.1200  F3000
G01 Z-2.0000 F500.00 
G00 Z2.0000  F3000
G00 X-14.4100 Y26.5800  F3000
G01 Z-2.0000 F500.00 
G00 Z2.0000  F3000
G00 X-14.4100 Y24.0400  F3000
G01 Z-2.0000 F500.00 
G00 Z2.0000  F3000
G00 X-14.4100 Y21.5000  F3000
G01 Z-2.0000 F500.00 
G00 Z2.0000  F3000
;M03 S0
G00 Z5.0000  F3000
G00 X0.0000 Y0.0000  F3000
;M06 T04  ; 1.0160 
G01 Z0.0000 F500.00 
;M06 
G00 Z2.0000  F3000
;M03 S1
G04 P1000.000000
G00 X-11.4800 Y3.9600  F3000
G01 Z-2.0000 F500.00 
G00 Z2.0000  F3000
G00 X-14.0200 Y3.9600  F3000
G01 Z-2.0000 F500.00 
G00 Z2.0000  F3000
G00 X-14.0200 Y6.5000  F3000
G01 Z-2.0000 F500.00 
G00 Z2.0000  F3000
G00 X-11.4800 Y6.5000  F3000
G01 Z-2.0000 F500.00 
G00 Z2.0000  F3000
G00 X-11.4800 Y9.0400  F3000
G01 Z-2.0000 F500.00 
G00 Z2.0000  F3000
G00 X-14.0200 Y9.0400  F3000
G01 Z-2.0000 F500.00 
G00 Z2.0000  F3000
G00 X-21.2100 Y6.7500  F3000
G01 Z-2.0000 F500.00 
G00 Z2.0000  F3000
G00 X-23.7500 Y6.7500  F3000
G01 Z-2.0000 F500.00 
G00 Z2.0000  F3000
G00 X-26.2900 Y6.7500  F3000
G01 Z-2.0000 F500.00 
G00 Z2.0000  F3000
G00 X-39.7500 Y18.6900  F3000
G01 Z-2.0000 F500.00 
G00 Z2.0000  F3000
G00 X-39.7500 Y21.2300  F3000
G01 Z-2.0000 F500.00 
G00 Z2.0000  F3000
G00 X-39.7500 Y23.7700  F3000
G01 Z-2.0000 F500.00 
G00 Z2.0000  F3000
G00 X-39.7500 Y26.3100  F3000
G01 Z-2.0000 F500.00 
G00 Z2.0000  F3000
;M03 S0
G00 Z5.0000  F3000
G00 X0.0000 Y0.0000  F3000
;M06 T05  ; 1.7000 
G01 Z0.0000 F500.00 
;M06 
G00 Z2.0000  F3000
;M03 S1
G04 P1000.000000
G00 X-16.2500 Y36.2700  F3000
G01 Z-2.0000 F500.00 
G00 Z2.0000  F3000
G00 X-16.2500 Y40.2300  F3000
G01 Z-2.0000 F500.00 
G00 Z2.0000  F3000
G00 X-26.2500 Y40.2300  F3000
G01 Z-2.0000 F500.00 
G00 Z2.0000  F3000
G00 X-26.2500 Y36.2700  F3000
G01 Z-2.0000 F500.00 
G00 Z2.0000  F3000
;T01 
G00 Z5.0000  F3000
;M03 S0
M0
