;(.../Electronics/Eagle/pcb-gcode/pcb-gcode.ulp)
;(Copyright 2005 - 2012 by John Johnson)
;(See readme.txt for licensing terms.)
;(This file generated from the board:)
;(.../RepRap-Distributed-Controller/Eagle/STEP-CON Mk 03.brd)
;(Current profile is .../pcb-gcode/profiles/generic.pp  )
;(This file generated 17/09/2016 12:48)
;(Settings from pcb-machine.h)
;(spindle on time = 1000.0000)
;(  Tool Size)
;(0.1778 )
;(spindle speed = 30000.0000)
;(tool change at 0.0000 0.0000 5.0000 )
;(feed rate xy = F500.00 )
;(feed rate z  = F200.00 )
;(Z Axis Settings)
;(  High     Up        Down     Drill)
;(5.0000 	2.0000 	-0.2000 	-2.0000 )
;(Settings from pcb-defaults.h)
;(isolate min = 0.0250)
;(isolate max = 0.5000)
;(isolate step = 0.0800)
;(Generated bottom outlines, bottom drill, )
;(Unit of measure: mm)
;(Metric Mode)
G21
;(Absolute Coordinates)
G90
;S30000
G00 Z5.0000  F3000
G00 X0.0000 Y0.0000  F3000
;M03 S1
G04 P1000.000000
G00 Z2.0000  F3000
G00 X0.1360 Y-0.1360  F3000
G01 Z-0.2000 F200.00 
G01 X0.1360 Y3.8539 F500.00 
G01 X0.0817 Y3.7726 
G01 X-0.0226 Y3.6683 
G01 X-3.7726 Y-0.0817 
G01 X-3.8539 Y-0.1360 
G01 X0.1360 Y-0.1360 
G00 Z2.0000  F3000
G00 X-1.0800 Y11.4643  F3000
G01 Z-0.2000 F200.00 
G01 X-1.2143 Y11.3300 F500.00 
G01 X-1.3679 Y11.2185 
G01 X-1.5370 Y11.1323 
G01 X-1.7176 Y11.0736 
G01 X-1.9051 Y11.0439 
G01 X-2.0949 Y11.0439 
G01 X-2.2824 Y11.0736 
G01 X-2.4630 Y11.1323 
G01 X-2.6321 Y11.2185 
G01 X-2.7857 Y11.3300 
G01 X-2.9200 Y11.4643 
G01 X-3.0315 Y11.6179 
G01 X-3.1177 Y11.7870 
G01 X-3.1764 Y11.9676 
G01 X-3.2061 Y12.1551 
G01 X-3.2061 Y12.3449 
G01 X-3.1764 Y12.5324 
G01 X-3.1177 Y12.7130 
G01 X-3.0315 Y12.8821 
G01 X-2.9200 Y13.0357 
G01 X-2.7857 Y13.1700 
G01 X-2.6321 Y13.2815 
G01 X-2.4630 Y13.3677 
G01 X-2.2824 Y13.4264 
G01 X-2.0949 Y13.4561 
G01 X-1.9051 Y13.4561 
G01 X-1.8601 Y13.4490 
G01 X-1.7489 Y13.5602 
G01 X-1.7489 Y28.3711 
G01 X-5.9257 Y28.3711 
G01 X-6.0533 Y28.3457 
G01 X-7.5267 Y28.3457 
G01 X-7.6763 Y28.3755 
G01 X-7.8172 Y28.4338 
G01 X-7.9440 Y28.5186 
G01 X-8.0518 Y28.6264 
G01 X-8.1366 Y28.7532 
G01 X-8.1949 Y28.8941 
G01 X-8.2247 Y29.0437 
G01 X-8.2247 Y29.1963 
G01 X-8.1949 Y29.3459 
G01 X-8.1366 Y29.4868 
G01 X-8.0518 Y29.6136 
G01 X-7.9440 Y29.7214 
G01 X-7.8172 Y29.8062 
G01 X-7.6763 Y29.8645 
G01 X-7.5267 Y29.8943 
G01 X-6.0533 Y29.8943 
G01 X-5.9257 Y29.8689 
G01 X-1.2962 Y29.8689 
G01 X-1.1516 Y29.8401 
G01 X-1.0153 Y29.7837 
G01 X-0.8926 Y29.7017 
G01 X-0.5226 Y29.3317 
G01 X-0.4183 Y29.2274 
G01 X-0.3363 Y29.1047 
G01 X-0.2799 Y28.9684 
G01 X-0.2511 Y28.8238 
G01 X-0.2511 Y13.1762 
G01 X-0.2799 Y13.0316 
G01 X-0.3363 Y12.8953 
G01 X-0.4183 Y12.7726 
G01 X-0.8010 Y12.3899 
G01 X-0.7939 Y12.3449 
G01 X-0.7939 Y12.1551 
G01 X-0.8236 Y11.9676 
G01 X-0.8823 Y11.7870 
G01 X-0.9685 Y11.6179 
G01 X-1.0800 Y11.4643 
G00 Z2.0000  F3000
G00 X-6.0800 Y14.4643  F3000
G01 Z-0.2000 F200.00 
G01 X-6.2143 Y14.3300 F500.00 
G01 X-6.3679 Y14.2185 
G01 X-6.5370 Y14.1323 
G01 X-6.7176 Y14.0736 
G01 X-6.9051 Y14.0439 
G01 X-7.0949 Y14.0439 
G01 X-7.2824 Y14.0736 
G01 X-7.4630 Y14.1323 
G01 X-7.6321 Y14.2185 
G01 X-7.7857 Y14.3300 
G01 X-7.9200 Y14.4643 
G01 X-8.0315 Y14.6179 
G01 X-8.1177 Y14.7870 
G01 X-8.1764 Y14.9676 
G01 X-8.2061 Y15.1551 
G01 X-8.2061 Y15.3449 
G01 X-8.1764 Y15.5324 
G01 X-8.1177 Y15.7130 
G01 X-8.0315 Y15.8821 
G01 X-7.9200 Y16.0357 
G01 X-7.7857 Y16.1700 
G01 X-7.7489 Y16.1967 
G01 X-7.7489 Y17.8238 
G01 X-7.7201 Y17.9684 
G01 X-7.6637 Y18.1047 
G01 X-7.5817 Y18.2274 
G01 X-7.4774 Y18.3317 
G01 X-7.3547 Y18.4137 
G01 X-7.2184 Y18.4701 
G01 X-7.0738 Y18.4989 
G01 X-6.8102 Y18.4989 
G01 X-5.2489 Y20.0602 
G01 X-5.2489 Y23.2911 
G01 X-5.9257 Y23.2911 
G01 X-6.0533 Y23.2657 
G01 X-7.5267 Y23.2657 
G01 X-7.6763 Y23.2955 
G01 X-7.8172 Y23.3538 
G01 X-7.9440 Y23.4386 
G01 X-8.0518 Y23.5464 
G01 X-8.1366 Y23.6732 
G01 X-8.1949 Y23.8141 
G01 X-8.2247 Y23.9637 
G01 X-8.2247 Y24.1163 
G01 X-8.1949 Y24.2659 
G01 X-8.1366 Y24.4068 
G01 X-8.0518 Y24.5336 
G01 X-7.9440 Y24.6414 
G01 X-7.8172 Y24.7262 
G01 X-7.6763 Y24.7845 
G01 X-7.5267 Y24.8143 
G01 X-6.0533 Y24.8143 
G01 X-5.9257 Y24.7889 
G01 X-4.4662 Y24.7889 
G01 X-4.3216 Y24.7601 
G01 X-4.1853 Y24.7037 
G01 X-4.0626 Y24.6217 
G01 X-4.0226 Y24.5817 
G01 X-3.9183 Y24.4774 
G01 X-3.8363 Y24.3547 
G01 X-3.7799 Y24.2184 
G01 X-3.7511 Y24.0738 
G01 X-3.7511 Y19.6762 
G01 X-3.7799 Y19.5316 
G01 X-3.8363 Y19.3953 
G01 X-3.9183 Y19.2726 
G01 X-4.0226 Y19.1683 
G01 X-6.0226 Y17.1683 
G01 X-6.1453 Y17.0863 
G01 X-6.2511 Y17.0425 
G01 X-6.2511 Y16.1967 
G01 X-6.2143 Y16.1700 
G01 X-6.0800 Y16.0357 
G01 X-5.9684 Y15.8821 
G01 X-5.8823 Y15.7130 
G01 X-5.8236 Y15.5324 
G01 X-5.7939 Y15.3449 
G01 X-5.7939 Y15.1551 
G01 X-5.8236 Y14.9676 
G01 X-5.8823 Y14.7870 
G01 X-5.9684 Y14.6179 
G01 X-6.0800 Y14.4643 
G00 Z2.0000  F3000
G00 X-8.2967 Y15.5681  F3000
G01 Z-0.2000 F200.00 
G01 X-8.3853 Y15.5314 F500.00 
G01 X-8.4811 Y15.5314 
G01 X-8.5671 Y15.5671 
G01 X-8.5697 Y15.5681 
G01 X-8.6374 Y15.6359 
G01 X-8.6741 Y15.7244 
G01 X-8.6741 Y19.9143 
G01 X-8.7998 Y20.2178 
G01 X-9.0999 Y20.5179 
G01 X-10.6374 Y22.0554 
G01 X-10.6741 Y22.1440 
G01 X-10.6741 Y25.6643 
G01 X-10.7998 Y25.9678 
G01 X-11.0999 Y26.2679 
G01 X-12.1122 Y27.2802 
G01 X-12.4157 Y27.4059 
G01 X-13.5190 Y27.4059 
G01 X-13.5803 Y27.4313 
G01 X-15.2397 Y27.4313 
G01 X-15.5526 Y27.3017 
G01 X-15.5817 Y27.2726 
G01 X-15.6111 Y27.2604 
G01 X-15.6703 Y27.2359 
G01 X-15.7177 Y27.2359 
G01 X-15.7661 Y27.2359 
G01 X-18.0341 Y27.2359 
G01 X-18.0366 Y27.2369 
G01 X-18.1226 Y27.2726 
G01 X-18.2509 Y27.4009 
G01 X-19.7548 Y27.4009 
G01 X-19.7652 Y27.3966 
G01 X-19.8130 Y27.3966 
G01 X-19.8610 Y27.3965 
G01 X-19.9020 Y27.4135 
G01 X-19.9496 Y27.4332 
G01 X-19.9811 Y27.4647 
G01 X-20.0174 Y27.5009 
G01 X-20.0371 Y27.5485 
G01 X-20.0541 Y27.5894 
G01 X-20.0541 Y27.6373 
G01 X-20.0541 Y27.6853 
G01 X-20.0541 Y28.1011 
G01 X-20.0174 Y28.1897 
G01 X-19.9497 Y28.2574 
G01 X-19.8611 Y28.2941 
G01 X-15.3011 Y28.2941 
G01 X-15.2905 Y28.2897 
G01 X-15.2397 Y28.2687 
G01 X-13.5803 Y28.2687 
G01 X-13.2674 Y28.3983 
G01 X-13.0279 Y28.6378 
G01 X-12.8983 Y28.9507 
G01 X-12.8983 Y29.2893 
G01 X-13.0279 Y29.6022 
G01 X-13.2674 Y29.8417 
G01 X-13.5711 Y29.9675 
G01 X-13.6579 Y30.0035 
G01 X-13.7274 Y30.0719 
G01 X-13.7641 Y30.1605 
G01 X-13.7641 Y31.3141 
G01 X-13.7274 Y31.4026 
G01 X-13.6597 Y31.4704 
G01 X-13.5991 Y31.5309 
G01 X-13.5991 Y33.4891 
G01 X-13.7109 Y33.6009 
G01 X-15.4691 Y33.6009 
G01 X-15.5809 Y33.4891 
G01 X-15.5809 Y31.5309 
G01 X-15.4526 Y31.4026 
G01 X-15.4159 Y31.3141 
G01 X-15.4159 Y30.1389 
G01 X-15.4526 Y30.0503 
G01 X-15.5203 Y29.9826 
G01 X-15.6089 Y29.9459 
G01 X-17.2894 Y29.9459 
G01 X-17.3640 Y29.9768 
G01 X-17.6757 Y30.1059 
G01 X-18.0043 Y30.1059 
G01 X-18.3201 Y29.9751 
G01 X-18.3906 Y29.9459 
G01 X-23.6343 Y29.9459 
G01 X-23.9378 Y29.8202 
G01 X-24.0964 Y29.6616 
G01 X-24.1850 Y29.6249 
G01 X-24.6321 Y29.6249 
G01 X-24.9426 Y29.4963 
G01 X-25.1803 Y29.2586 
G01 X-25.3089 Y28.9481 
G01 X-25.3089 Y28.6119 
G01 X-25.1803 Y28.3014 
G01 X-24.9426 Y28.0637 
G01 X-24.7403 Y27.9799 
G01 X-24.6726 Y27.9122 
G01 X-24.6715 Y27.9097 
G01 X-24.6359 Y27.8236 
G01 X-24.6359 Y27.1963 
G01 X-24.6726 Y27.1078 
G01 X-24.7403 Y27.0400 
G01 X-24.9426 Y26.9563 
G01 X-25.1803 Y26.7186 
G01 X-25.3089 Y26.4081 
G01 X-25.3089 Y26.0719 
G01 X-25.1803 Y25.7614 
G01 X-24.9426 Y25.5237 
G01 X-24.8289 Y25.4766 
G01 X-24.8228 Y25.4741 
G01 X-24.7403 Y25.4399 
G01 X-24.6769 Y25.3765 
G01 X-24.6726 Y25.3722 
G01 X-24.6359 Y25.2836 
G01 X-24.6359 Y24.7189 
G01 X-24.6726 Y24.6303 
G01 X-24.7403 Y24.5626 
G01 X-24.8289 Y24.5259 
G01 X-25.9643 Y24.5259 
G01 X-26.2678 Y24.4002 
G01 X-26.7178 Y23.9502 
G01 X-26.9502 Y23.7178 
G01 X-27.0759 Y23.4143 
G01 X-27.0759 Y20.0774 
G01 X-27.1059 Y20.0051 
G01 X-27.1126 Y19.9889 
G01 X-27.1793 Y19.9222 
G01 X-27.2229 Y19.9035 
G01 X-27.2689 Y19.8844 
G01 X-27.3647 Y19.8844 
G01 X-27.4370 Y19.9144 
G01 X-27.4533 Y19.9211 
G01 X-27.5034 Y19.9713 
G01 X-27.7057 Y20.0550 
G01 X-27.7734 Y20.1228 
G01 X-27.8101 Y20.2113 
G01 X-27.8101 Y29.9700 
G01 X-27.7734 Y30.0586 
G01 X-27.7057 Y30.1263 
G01 X-25.1946 Y32.6374 
G01 X-25.1060 Y32.6741 
G01 X-21.8940 Y32.6741 
G01 X-21.8054 Y32.6374 
G01 X-21.7377 Y32.5697 
G01 X-21.5698 Y32.4018 
G01 X-21.5331 Y32.3132 
G01 X-21.5331 Y31.9948 
G01 X-21.3378 Y31.5232 
G01 X-20.9768 Y31.1622 
G01 X-20.5052 Y30.9669 
G01 X-19.9948 Y30.9669 
G01 X-19.5232 Y31.1622 
G01 X-19.1622 Y31.5232 
G01 X-18.9669 Y31.9948 
G01 X-18.9669 Y32.5052 
G01 X-19.1622 Y32.9768 
G01 X-19.5232 Y33.3378 
G01 X-19.9948 Y33.5331 
G01 X-20.3132 Y33.5331 
G01 X-20.4018 Y33.5698 
G01 X-20.4695 Y33.6375 
G01 X-20.7998 Y33.9678 
G01 X-21.0322 Y34.2002 
G01 X-21.3357 Y34.3259 
G01 X-25.6643 Y34.3259 
G01 X-25.9678 Y34.2002 
G01 X-26.2679 Y33.9001 
G01 X-29.3362 Y30.8318 
G01 X-29.4619 Y30.5283 
G01 X-29.4619 Y20.2113 
G01 X-29.4986 Y20.1228 
G01 X-29.5663 Y20.0550 
G01 X-29.7686 Y19.9713 
G01 X-30.0063 Y19.7336 
G01 X-30.1349 Y19.4231 
G01 X-30.1349 Y19.0869 
G01 X-30.0063 Y18.7764 
G01 X-29.7686 Y18.5387 
G01 X-29.4581 Y18.4101 
G01 X-27.8139 Y18.4101 
G01 X-27.5034 Y18.5387 
G01 X-27.4533 Y18.5889 
G01 X-27.4391 Y18.5947 
G01 X-27.3647 Y18.6256 
G01 X-27.2689 Y18.6256 
G01 X-27.2237 Y18.6069 
G01 X-27.1803 Y18.5889 
G01 X-27.1126 Y18.5211 
G01 X-27.1067 Y18.5070 
G01 X-27.0759 Y18.4326 
G01 X-27.0759 Y11.2689 
G01 X-27.1126 Y11.1803 
G01 X-27.1803 Y11.1126 
G01 X-27.2689 Y11.0759 
G01 X-29.9143 Y11.0759 
G01 X-30.2178 Y10.9502 
G01 X-30.4502 Y10.7178 
G01 X-30.5759 Y10.4143 
G01 X-30.5759 Y2.2689 
G01 X-30.6126 Y2.1803 
G01 X-30.6803 Y2.1126 
G01 X-30.7689 Y2.0759 
G01 X-37.1060 Y2.0759 
G01 X-37.1946 Y2.1126 
G01 X-37.2623 Y2.1803 
G01 X-40.1374 Y5.0554 
G01 X-40.1741 Y5.1440 
G01 X-40.1741 Y9.7161 
G01 X-40.1374 Y9.8047 
G01 X-40.0697 Y9.8724 
G01 X-39.9811 Y9.9091 
G01 X-39.2709 Y9.9091 
G01 X-39.1591 Y10.0209 
G01 X-39.1591 Y11.9791 
G01 X-39.2709 Y12.0909 
G01 X-39.9811 Y12.0909 
G01 X-40.0697 Y12.1276 
G01 X-40.1374 Y12.1953 
G01 X-40.1741 Y12.2839 
G01 X-40.1741 Y14.3560 
G01 X-40.1374 Y14.4446 
G01 X-40.0697 Y14.5123 
G01 X-39.3646 Y15.2174 
G01 X-39.2760 Y15.2541 
G01 X-37.3779 Y15.2541 
G01 X-37.3748 Y15.2528 
G01 X-37.3321 Y15.2351 
G01 X-35.6879 Y15.2351 
G01 X-35.4489 Y15.3341 
G01 X-34.8939 Y15.3341 
G01 X-34.8053 Y15.2974 
G01 X-34.7376 Y15.2297 
G01 X-34.7290 Y15.2091 
G01 X-34.5891 Y15.0691 
G01 X-32.8309 Y15.0691 
G01 X-32.7191 Y15.1809 
G01 X-32.7191 Y17.1391 
G01 X-32.8309 Y17.2509 
G01 X-34.5891 Y17.2509 
G01 X-34.7290 Y17.1109 
G01 X-34.7376 Y17.0903 
G01 X-34.8053 Y17.0226 
G01 X-34.8939 Y16.9859 
G01 X-35.9390 Y16.9859 
G01 X-35.9415 Y16.9869 
G01 X-36.0275 Y17.0226 
G01 X-36.0953 Y17.0903 
G01 X-36.1209 Y17.1522 
G01 X-36.1320 Y17.1789 
G01 X-36.1320 Y17.2747 
G01 X-36.1309 Y17.2772 
G01 X-36.0953 Y17.3633 
G01 X-36.0275 Y17.4310 
G01 X-35.7832 Y17.5322 
G01 X-35.5037 Y17.8117 
G01 X-35.4878 Y17.8276 
G01 X-35.4359 Y17.8795 
G01 X-35.4205 Y17.8859 
G01 X-35.3774 Y17.9037 
G01 X-35.1397 Y18.1414 
G01 X-35.0111 Y18.4519 
G01 X-35.0111 Y18.7881 
G01 X-35.1397 Y19.0986 
G01 X-35.3774 Y19.3363 
G01 X-35.4182 Y19.3532 
G01 X-35.4359 Y19.3605 
G01 X-35.4856 Y19.4101 
G01 X-35.5037 Y19.4283 
G01 X-35.8290 Y19.7535 
G01 X-35.8300 Y19.7561 
G01 X-35.8656 Y19.8421 
G01 X-35.8656 Y19.9379 
G01 X-35.8290 Y20.0265 
G01 X-35.7612 Y20.0942 
G01 X-35.5037 Y20.3517 
G01 X-35.4370 Y20.4184 
G01 X-35.3977 Y20.4353 
G01 X-35.3774 Y20.4437 
G01 X-35.1397 Y20.6814 
G01 X-35.0111 Y20.9919 
G01 X-35.0111 Y21.3281 
G01 X-35.1397 Y21.6386 
G01 X-35.3774 Y21.8763 
G01 X-35.4182 Y21.8932 
G01 X-35.4359 Y21.9005 
G01 X-35.4856 Y21.9501 
G01 X-35.5037 Y21.9683 
G01 X-35.8290 Y22.2935 
G01 X-35.8300 Y22.2961 
G01 X-35.8656 Y22.3821 
G01 X-35.8656 Y22.4779 
G01 X-35.8290 Y22.5665 
G01 X-35.7612 Y22.6342 
G01 X-35.5037 Y22.8917 
G01 X-35.4370 Y22.9584 
G01 X-35.3977 Y22.9753 
G01 X-35.3774 Y22.9837 
G01 X-35.1397 Y23.2214 
G01 X-35.0111 Y23.5319 
G01 X-35.0111 Y23.8681 
G01 X-35.1397 Y24.1786 
G01 X-35.3774 Y24.4163 
G01 X-35.4182 Y24.4332 
G01 X-35.4359 Y24.4405 
G01 X-35.4856 Y24.4901 
G01 X-35.5037 Y24.5083 
G01 X-35.8290 Y24.8335 
G01 X-35.8300 Y24.8361 
G01 X-35.8656 Y24.9221 
G01 X-35.8656 Y25.0179 
G01 X-35.8290 Y25.1065 
G01 X-35.7612 Y25.1742 
G01 X-35.5037 Y25.4317 
G01 X-35.4370 Y25.4984 
G01 X-35.3977 Y25.5153 
G01 X-35.3774 Y25.5237 
G01 X-35.1397 Y25.7614 
G01 X-35.0111 Y26.0719 
G01 X-35.0111 Y26.4081 
G01 X-35.1397 Y26.7186 
G01 X-35.3774 Y26.9563 
G01 X-35.4338 Y26.9796 
G01 X-35.4359 Y26.9805 
G01 X-35.5037 Y27.0483 
G01 X-35.8532 Y27.3978 
G01 X-36.1099 Y27.5041 
G01 X-36.1966 Y27.5400 
G01 X-36.2316 Y27.5739 
G01 X-36.6049 Y27.5739 
G01 X-36.7924 Y27.6036 
G01 X-36.9730 Y27.6623 
G01 X-37.1421 Y27.7484 
G01 X-37.2957 Y27.8600 
G01 X-37.3647 Y27.9291 
G01 X-37.3610 Y27.9174 
G01 X-37.3462 Y27.8819 
G01 X-37.3462 Y27.8722 
G01 X-37.3432 Y27.8629 
G01 X-37.3462 Y27.8245 
G01 X-37.3462 Y27.7861 
G01 X-37.3500 Y27.7771 
G01 X-37.3507 Y27.7673 
G01 X-37.3682 Y27.7330 
G01 X-37.3829 Y27.6975 
G01 X-37.3898 Y27.6906 
G01 X-37.3942 Y27.6819 
G01 X-37.4235 Y27.6569 
G01 X-37.4507 Y27.6298 
G01 X-37.4597 Y27.6260 
G01 X-37.4671 Y27.6197 
G01 X-37.5037 Y27.6078 
G01 X-37.5392 Y27.5931 
G01 X-37.5490 Y27.5931 
G01 X-37.5583 Y27.5901 
G01 X-37.5966 Y27.5931 
G01 X-40.0052 Y27.5931 
G01 X-40.4768 Y27.3978 
G01 X-40.5750 Y27.2996 
G01 X-40.6635 Y27.2629 
G01 X-40.7015 Y27.2629 
G01 X-40.8091 Y27.2184 
G01 X-40.9049 Y27.2184 
G01 X-40.9909 Y27.2540 
G01 X-40.9935 Y27.2550 
G01 X-41.0612 Y27.3228 
G01 X-41.0979 Y27.4113 
G01 X-41.0979 Y29.9408 
G01 X-41.0969 Y29.9433 
G01 X-41.0612 Y30.0293 
G01 X-40.9945 Y30.0960 
G01 X-40.9049 Y30.1338 
G01 X-40.8091 Y30.1338 
G01 X-40.8064 Y30.1326 
G01 X-40.5752 Y30.0369 
G01 X-37.3843 Y30.0369 
G01 X-37.3557 Y30.0414 
G01 X-37.3369 Y30.0369 
G01 X-37.3175 Y30.0369 
G01 X-37.2907 Y30.0258 
G01 X-37.2625 Y30.0191 
G01 X-37.2468 Y30.0076 
G01 X-37.2289 Y30.0002 
G01 X-37.2085 Y29.9797 
G01 X-37.1850 Y29.9627 
G01 X-37.1749 Y29.9462 
G01 X-37.1612 Y29.9325 
G01 X-37.1501 Y29.9057 
G01 X-37.1349 Y29.8810 
G01 X-37.1319 Y29.8618 
G01 X-37.1245 Y29.8439 
G01 X-37.1245 Y29.8205 
G01 X-36.9730 Y29.8977 
G01 X-36.7924 Y29.9564 
G01 X-36.6049 Y29.9861 
G01 X-36.3306 Y29.9861 
G01 X-36.2975 Y30.0192 
G01 X-36.2089 Y30.0559 
G01 X-35.7832 Y30.2322 
G01 X-35.5037 Y30.5117 
G01 X-35.4946 Y30.5208 
G01 X-35.4359 Y30.5795 
G01 X-35.4128 Y30.5891 
G01 X-35.3774 Y30.6037 
G01 X-35.1397 Y30.8414 
G01 X-35.0111 Y31.1519 
G01 X-35.0111 Y31.4881 
G01 X-35.1397 Y31.7986 
G01 X-35.3774 Y32.0363 
G01 X-35.4111 Y32.0502 
G01 X-35.4359 Y32.0605 
G01 X-35.4937 Y32.1183 
G01 X-35.5037 Y32.1283 
G01 X-35.7832 Y32.4078 
G01 X-36.2548 Y32.6031 
G01 X-39.5239 Y32.6031 
G01 X-39.6125 Y32.6398 
G01 X-39.6802 Y32.7075 
G01 X-39.7169 Y32.7961 
G01 X-39.7169 Y36.9167 
G01 X-39.6802 Y37.0052 
G01 X-39.6125 Y37.0730 
G01 X-37.0052 Y39.6802 
G01 X-36.9167 Y39.7169 
G01 X-31.2261 Y39.7169 
G01 X-31.1375 Y39.6802 
G01 X-31.0698 Y39.6125 
G01 X-31.0331 Y39.5239 
G01 X-31.0331 Y39.3948 
G01 X-30.8409 Y38.9308 
G01 X-30.8409 Y38.7709 
G01 X-30.7291 Y38.6591 
G01 X-30.6255 Y38.6591 
G01 X-30.5370 Y38.6224 
G01 X-30.4768 Y38.5622 
G01 X-30.0052 Y38.3669 
G01 X-29.4948 Y38.3669 
G01 X-29.0232 Y38.5622 
G01 X-28.9630 Y38.6224 
G01 X-28.8745 Y38.6591 
G01 X-28.7709 Y38.6591 
G01 X-28.6591 Y38.7709 
G01 X-28.6591 Y38.7739 
G01 X-28.6224 Y38.8625 
G01 X-28.5547 Y38.9302 
G01 X-28.4661 Y38.9669 
G01 X-28.3062 Y38.9669 
G01 X-28.3034 Y38.9657 
G01 X-27.8166 Y38.7641 
G01 X-24.6834 Y38.7641 
G01 X-24.2421 Y38.9469 
G01 X-18.2579 Y38.9469 
G01 X-18.2550 Y38.9457 
G01 X-17.8166 Y38.7641 
G01 X-14.6834 Y38.7641 
G01 X-14.3641 Y38.8964 
G01 X-14.2682 Y38.8964 
G01 X-14.2326 Y38.8816 
G01 X-14.1797 Y38.8597 
G01 X-14.1119 Y38.7919 
G01 X-13.9791 Y38.6591 
G01 X-13.9132 Y38.6591 
G01 X-13.8788 Y38.6629 
G01 X-13.8656 Y38.6591 
G01 X-13.8519 Y38.6591 
G01 X-13.8200 Y38.6459 
G01 X-13.7868 Y38.6362 
G01 X-13.7760 Y38.6277 
G01 X-13.7634 Y38.6224 
G01 X-13.7389 Y38.5980 
G01 X-13.6022 Y38.4886 
G01 X-13.1120 Y38.3466 
G01 X-12.6046 Y38.4029 
G01 X-12.2237 Y38.6127 
G01 X-12.2140 Y38.6224 
G01 X-12.1820 Y38.6357 
G01 X-12.1517 Y38.6523 
G01 X-12.1381 Y38.6538 
G01 X-12.1254 Y38.6591 
G01 X-12.0908 Y38.6591 
G01 X-12.0565 Y38.6629 
G01 X-12.0433 Y38.6591 
G01 X-12.0209 Y38.6591 
G01 X-11.9091 Y38.7709 
G01 X-11.9091 Y38.8618 
G01 X-11.9129 Y38.8962 
G01 X-11.9091 Y38.9094 
G01 X-11.9091 Y38.9231 
G01 X-11.8959 Y38.9550 
G01 X-11.8862 Y38.9882 
G01 X-11.8777 Y38.9989 
G01 X-11.8724 Y39.0116 
G01 X-11.8480 Y39.0361 
G01 X-11.8386 Y39.0477 
G01 X-11.6966 Y39.5380 
G01 X-11.7529 Y40.0454 
G01 X-11.8627 Y40.2447 
G01 X-11.8724 Y40.2544 
G01 X-11.8857 Y40.2864 
G01 X-11.9023 Y40.3167 
G01 X-11.9038 Y40.3303 
G01 X-11.9091 Y40.3430 
G01 X-11.9091 Y40.3775 
G01 X-11.9129 Y40.4119 
G01 X-11.9091 Y40.4251 
G01 X-11.9091 Y40.5291 
G01 X-12.1006 Y40.7205 
G01 X-12.1372 Y40.8091 
G01 X-12.1372 Y40.9049 
G01 X-12.1268 Y40.9301 
G01 X-12.1006 Y40.9935 
G01 X-12.0328 Y41.0612 
G01 X-11.9443 Y41.0979 
G01 X-3.8206 Y41.0979 
G01 X-3.4890 Y41.2352 
G01 X-3.4614 Y41.2628 
G01 X-3.4311 Y41.2951 
G01 X-3.4276 Y41.2966 
G01 X-3.4250 Y41.2993 
G01 X-3.3841 Y41.3162 
G01 X-3.3437 Y41.3344 
G01 X-3.3399 Y41.3345 
G01 X-3.3364 Y41.3360 
G01 X-3.2921 Y41.3360 
G01 X-3.2479 Y41.3373 
G01 X-3.2444 Y41.3360 
G01 X-3.2406 Y41.3360 
G01 X-3.1997 Y41.3190 
G01 X-3.1583 Y41.3033 
G01 X-3.1555 Y41.3007 
G01 X-3.1520 Y41.2993 
G01 X-3.1208 Y41.2680 
G01 X-0.6997 Y38.9894 
G01 X-0.6963 Y38.9879 
G01 X-0.6650 Y38.9567 
G01 X-0.6327 Y38.9263 
G01 X-0.6312 Y38.9229 
G01 X-0.6285 Y38.9202 
G01 X-0.6115 Y38.8793 
G01 X-0.5934 Y38.8389 
G01 X-0.5933 Y38.8351 
G01 X-0.5918 Y38.8316 
G01 X-0.5918 Y38.7874 
G01 X-0.5905 Y38.7431 
G01 X-0.5918 Y38.7396 
G01 X-0.5918 Y38.7358 
G01 X-0.6088 Y38.6949 
G01 X-0.6244 Y38.6535 
G01 X-0.6270 Y38.6508 
G01 X-0.6285 Y38.6473 
G01 X-0.6598 Y38.6160 
G01 X-0.6901 Y38.5837 
G01 X-0.6936 Y38.5822 
G01 X-0.7648 Y38.5110 
G01 X-0.9021 Y38.1794 
G01 X-0.9021 Y30.2286 
G01 X-0.9021 Y30.1812 
G01 X-0.9021 Y30.1327 
G01 X-0.9258 Y30.0756 
G01 X-0.9388 Y30.0442 
G01 X-0.9836 Y29.9994 
G01 X-1.0065 Y29.9764 
G01 X-1.0532 Y29.9571 
G01 X-1.0951 Y29.9398 
G01 X-1.1425 Y29.9398 
G01 X-1.1909 Y29.9398 
G01 X-1.2057 Y29.9459 
G01 X-5.8990 Y29.9459 
G01 X-5.9603 Y29.9713 
G01 X-7.6197 Y29.9713 
G01 X-7.9326 Y29.8417 
G01 X-8.1721 Y29.6022 
G01 X-8.3017 Y29.2893 
G01 X-8.3017 Y28.9507 
G01 X-8.1721 Y28.6378 
G01 X-7.9326 Y28.3983 
G01 X-7.6197 Y28.2687 
G01 X-5.9603 Y28.2687 
G01 X-5.8990 Y28.2941 
G01 X-2.0189 Y28.2941 
G01 X-1.9303 Y28.2574 
G01 X-1.8626 Y28.1897 
G01 X-1.8259 Y28.1011 
G01 X-1.8259 Y27.2776 
G01 X-1.8511 Y27.2167 
G01 X-1.8626 Y27.1890 
G01 X-1.9293 Y27.1223 
G01 X-1.9663 Y27.1064 
G01 X-2.0189 Y27.0846 
G01 X-2.1147 Y27.0846 
G01 X-2.1755 Y27.1098 
G01 X-2.2033 Y27.1212 
G01 X-2.2822 Y27.2002 
G01 X-2.3622 Y27.2802 
G01 X-2.6657 Y27.4059 
G01 X-5.8989 Y27.4059 
G01 X-5.9603 Y27.4313 
G01 X-7.6197 Y27.4313 
G01 X-7.9326 Y27.3017 
G01 X-8.1721 Y27.0622 
G01 X-8.3017 Y26.7493 
G01 X-8.3017 Y26.4107 
G01 X-8.1721 Y26.0978 
G01 X-7.9326 Y25.8583 
G01 X-7.6197 Y25.7287 
G01 X-5.9603 Y25.7287 
G01 X-5.8989 Y25.7541 
G01 X-3.7689 Y25.7541 
G01 X-3.6803 Y25.7174 
G01 X-3.6126 Y25.6497 
G01 X-3.5759 Y25.5611 
G01 X-3.5759 Y24.7776 
G01 X-3.6011 Y24.7167 
G01 X-3.6126 Y24.6890 
G01 X-3.6793 Y24.6223 
G01 X-3.7163 Y24.6064 
G01 X-3.7689 Y24.5846 
G01 X-3.8647 Y24.5846 
G01 X-3.9255 Y24.6098 
G01 X-3.9533 Y24.6212 
G01 X-4.0722 Y24.7402 
G01 X-4.3757 Y24.8659 
G01 X-5.8990 Y24.8659 
G01 X-5.9603 Y24.8913 
G01 X-7.6197 Y24.8913 
G01 X-7.9326 Y24.7617 
G01 X-8.1721 Y24.5222 
G01 X-8.3017 Y24.2093 
G01 X-8.3017 Y23.8707 
G01 X-8.1721 Y23.5578 
G01 X-7.9326 Y23.3183 
G01 X-7.6197 Y23.1887 
G01 X-5.9603 Y23.1887 
G01 X-5.8990 Y23.2141 
G01 X-5.5189 Y23.2141 
G01 X-5.4303 Y23.1774 
G01 X-5.3626 Y23.1097 
G01 X-5.3259 Y23.0211 
G01 X-5.3259 Y22.3973 
G01 X-5.3214 Y22.3687 
G01 X-5.3259 Y22.3498 
G01 X-5.3259 Y22.3304 
G01 X-5.3370 Y22.3036 
G01 X-5.3438 Y22.2755 
G01 X-5.3552 Y22.2598 
G01 X-5.3626 Y22.2419 
G01 X-5.3831 Y22.2214 
G01 X-5.4001 Y22.1980 
G01 X-5.4166 Y22.1878 
G01 X-5.4303 Y22.1741 
G01 X-5.4571 Y22.1630 
G01 X-5.4818 Y22.1479 
G01 X-5.5010 Y22.1449 
G01 X-5.5189 Y22.1374 
G01 X-5.5479 Y22.1374 
G01 X-5.5765 Y22.1329 
G01 X-5.5953 Y22.1374 
G01 X-5.6147 Y22.1374 
G01 X-5.6415 Y22.1485 
G01 X-5.6696 Y22.1553 
G01 X-5.6853 Y22.1667 
G01 X-5.7033 Y22.1741 
G01 X-5.7177 Y22.1885 
G01 X-5.8223 Y22.2418 
G01 X-5.9421 Y22.2808 
G01 X-6.0666 Y22.3005 
G01 X-6.4729 Y22.3005 
G01 X-6.4729 Y22.2743 
G01 X-6.0533 Y22.2743 
G01 X-5.9037 Y22.2445 
G01 X-5.7628 Y22.1862 
G01 X-5.6360 Y22.1014 
G01 X-5.5282 Y21.9936 
G01 X-5.4434 Y21.8668 
G01 X-5.3851 Y21.7259 
G01 X-5.3553 Y21.5763 
G01 X-5.3553 Y21.4237 
G01 X-5.3851 Y21.2741 
G01 X-5.4434 Y21.1332 
G01 X-5.5282 Y21.0064 
G01 X-5.6360 Y20.8986 
G01 X-5.7628 Y20.8138 
G01 X-5.9037 Y20.7555 
G01 X-6.0533 Y20.7257 
G01 X-6.4729 Y20.7257 
G01 X-6.4729 Y20.6995 
G01 X-6.0666 Y20.6995 
G01 X-5.9421 Y20.7192 
G01 X-5.8223 Y20.7581 
G01 X-5.7177 Y20.8115 
G01 X-5.7033 Y20.8259 
G01 X-5.6853 Y20.8333 
G01 X-5.6696 Y20.8447 
G01 X-5.6415 Y20.8515 
G01 X-5.6147 Y20.8626 
G01 X-5.5953 Y20.8626 
G01 X-5.5765 Y20.8671 
G01 X-5.5479 Y20.8626 
G01 X-5.5189 Y20.8626 
G01 X-5.5010 Y20.8551 
G01 X-5.4818 Y20.8521 
G01 X-5.4571 Y20.8370 
G01 X-5.4303 Y20.8259 
G01 X-5.4166 Y20.8122 
G01 X-5.4001 Y20.8020 
G01 X-5.3831 Y20.7786 
G01 X-5.3626 Y20.7581 
G01 X-5.3552 Y20.7402 
G01 X-5.3438 Y20.7245 
G01 X-5.3370 Y20.6964 
G01 X-5.3259 Y20.6696 
G01 X-5.3259 Y20.6502 
G01 X-5.3214 Y20.6313 
G01 X-5.3259 Y20.6027 
G01 X-5.3259 Y20.1440 
G01 X-5.3626 Y20.0554 
G01 X-5.4303 Y19.9877 
G01 X-6.8054 Y18.6126 
G01 X-6.8940 Y18.5759 
G01 X-7.1643 Y18.5759 
G01 X-7.4678 Y18.4502 
G01 X-7.7002 Y18.2178 
G01 X-7.8259 Y17.9143 
G01 X-7.8259 Y16.2905 
G01 X-7.8626 Y16.2020 
G01 X-7.9303 Y16.1342 
G01 X-8.0878 Y15.9768 
G01 X-8.1923 Y15.7244 
G01 X-8.2283 Y15.6375 
G01 X-8.2967 Y15.5681 
G00 Z2.0000  F3000
G00 X-8.7511 Y19.8238  F3000
G01 Z-0.2000 F200.00 
G01 X-8.7511 Y7.1762 F500.00 
G01 X-8.7799 Y7.0316 
G01 X-8.8363 Y6.8953 
G01 X-8.9183 Y6.7726 
G01 X-9.0226 Y6.6683 
G01 X-9.7726 Y5.9183 
G01 X-9.8953 Y5.8363 
G01 X-10.0316 Y5.7799 
G01 X-10.1762 Y5.7511 
G01 X-10.2622 Y5.7511 
G01 X-10.3031 Y5.7238 
G01 X-10.4625 Y5.6578 
G01 X-10.6317 Y5.6241 
G01 X-12.3283 Y5.6241 
G01 X-12.4975 Y5.6578 
G01 X-12.6569 Y5.7238 
G01 X-12.8004 Y5.8196 
G01 X-12.9224 Y5.9416 
G01 X-13.0182 Y6.0851 
G01 X-13.0842 Y6.2445 
G01 X-13.1179 Y6.4137 
G01 X-13.1179 Y6.5863 
G01 X-13.0842 Y6.7555 
G01 X-13.0182 Y6.9149 
G01 X-12.9224 Y7.0584 
G01 X-12.8004 Y7.1804 
G01 X-12.6569 Y7.2762 
G01 X-12.4975 Y7.3422 
G01 X-12.3283 Y7.3759 
G01 X-10.6317 Y7.3759 
G01 X-10.4661 Y7.3430 
G01 X-10.2489 Y7.5602 
G01 X-10.2489 Y19.4398 
G01 X-12.0817 Y21.2726 
G01 X-12.1637 Y21.3953 
G01 X-12.2201 Y21.5316 
G01 X-12.2489 Y21.6762 
G01 X-12.2489 Y25.1898 
G01 X-12.8902 Y25.8311 
G01 X-13.5456 Y25.8311 
G01 X-13.6733 Y25.8057 
G01 X-14.1364 Y25.8057 
G01 X-14.2253 Y25.7463 
G01 X-14.3616 Y25.6899 
G01 X-14.5062 Y25.6611 
G01 X-18.2161 Y25.6611 
G01 X-18.2161 Y25.5873 
G01 X-18.2334 Y25.5455 
G01 X-18.2655 Y25.5134 
G01 X-18.3073 Y25.4961 
G01 X-19.6527 Y25.4961 
G01 X-19.6945 Y25.5134 
G01 X-19.7266 Y25.5455 
G01 X-19.7439 Y25.5873 
G01 X-19.7439 Y27.2327 
G01 X-19.7266 Y27.2745 
G01 X-19.6945 Y27.3066 
G01 X-19.6527 Y27.3239 
G01 X-18.3073 Y27.3239 
G01 X-18.2655 Y27.3066 
G01 X-18.2334 Y27.2745 
G01 X-18.2161 Y27.2327 
G01 X-18.2161 Y27.1589 
G01 X-15.5865 Y27.1589 
G01 X-15.5640 Y27.1814 
G01 X-15.4372 Y27.2662 
G01 X-15.2963 Y27.3245 
G01 X-15.1467 Y27.3543 
G01 X-13.6733 Y27.3543 
G01 X-13.5456 Y27.3289 
G01 X-12.5062 Y27.3289 
G01 X-12.3616 Y27.3001 
G01 X-12.2253 Y27.2437 
G01 X-12.1026 Y27.1617 
G01 X-11.0226 Y26.0817 
G01 X-10.9183 Y25.9774 
G01 X-10.8363 Y25.8547 
G01 X-10.7799 Y25.7184 
G01 X-10.7511 Y25.5738 
G01 X-10.7511 Y22.0602 
G01 X-9.0226 Y20.3317 
G01 X-8.9183 Y20.2274 
G01 X-8.8363 Y20.1047 
G01 X-8.7799 Y19.9684 
G01 X-8.7511 Y19.8238 
G00 Z2.0000  F3000
G00 X-7.7360 Y20.7511  F3000
G01 Z-0.2000 F200.00 
G01 X-7.6379 Y20.7192 F500.00 
G01 X-7.5134 Y20.6995 
G01 X-7.1071 Y20.6995 
G01 X-7.1071 Y20.7257 
G01 X-7.5267 Y20.7257 
G01 X-7.6543 Y20.7511 
G01 X-7.7360 Y20.7511 
G00 Z2.0000  F3000
G00 X-7.7011 Y22.2602  F3000
G01 Z-0.2000 F200.00 
G01 X-7.6898 Y22.2489 F500.00 
G01 X-7.6543 Y22.2489 
G01 X-7.5267 Y22.2743 
G01 X-7.1071 Y22.2743 
G01 X-7.1071 Y22.3005 
G01 X-7.5134 Y22.3005 
G01 X-7.6379 Y22.2808 
G01 X-7.7011 Y22.2602 
G00 Z2.0000  F3000
G00 X-12.3259 Y21.5857  F3000
G01 Z-0.2000 F200.00 
G01 X-12.2002 Y21.2822 F500.00 
G01 X-10.3626 Y19.4446 
G01 X-10.3259 Y19.3560 
G01 X-10.3259 Y10.5182 
G01 X-10.3214 Y10.4993 
G01 X-10.3259 Y10.4707 
G01 X-10.3259 Y10.4417 
G01 X-10.3333 Y10.4238 
G01 X-10.3364 Y10.4046 
G01 X-10.3515 Y10.3800 
G01 X-10.3626 Y10.3532 
G01 X-10.3763 Y10.3395 
G01 X-10.3864 Y10.3229 
G01 X-10.4099 Y10.3059 
G01 X-10.4303 Y10.2854 
G01 X-10.4483 Y10.2780 
G01 X-10.4640 Y10.2666 
G01 X-10.4921 Y10.2599 
G01 X-10.5189 Y10.2488 
G01 X-10.5383 Y10.2488 
G01 X-10.5572 Y10.2442 
G01 X-10.5858 Y10.2488 
G01 X-10.6147 Y10.2488 
G01 X-10.6326 Y10.2562 
G01 X-10.6518 Y10.2592 
G01 X-10.6765 Y10.2744 
G01 X-10.7033 Y10.2854 
G01 X-10.7170 Y10.2992 
G01 X-10.7311 Y10.3078 
G01 X-10.7311 Y10.2578 
G01 X-10.7038 Y10.2169 
G01 X-10.6378 Y10.0575 
G01 X-10.6041 Y9.8883 
G01 X-10.6041 Y8.1917 
G01 X-10.6378 Y8.0225 
G01 X-10.7038 Y7.8631 
G01 X-10.7996 Y7.7196 
G01 X-10.9216 Y7.5976 
G01 X-11.0651 Y7.5018 
G01 X-11.2245 Y7.4358 
G01 X-11.3937 Y7.4021 
G01 X-11.5663 Y7.4021 
G01 X-11.7355 Y7.4358 
G01 X-11.8949 Y7.5018 
G01 X-12.0384 Y7.5976 
G01 X-12.1604 Y7.7196 
G01 X-12.2562 Y7.8631 
G01 X-12.3222 Y8.0225 
G01 X-12.3559 Y8.1917 
G01 X-12.3559 Y9.8883 
G01 X-12.3222 Y10.0575 
G01 X-12.2562 Y10.2169 
G01 X-12.2289 Y10.2578 
G01 X-12.2289 Y10.3060 
G01 X-12.2515 Y10.2748 
G01 X-12.3160 Y10.1483 
G01 X-12.3558 Y10.0259 
G01 X-12.3558 Y10.0103 
G01 X-12.3632 Y9.9924 
G01 X-12.3662 Y9.9732 
G01 X-12.3804 Y9.9501 
G01 X-12.3924 Y9.9218 
G01 X-12.4062 Y9.9080 
G01 X-12.4163 Y9.8915 
G01 X-12.4397 Y9.8745 
G01 X-12.4602 Y9.8540 
G01 X-12.4781 Y9.8466 
G01 X-12.4938 Y9.8352 
G01 X-12.5220 Y9.8284 
G01 X-12.5487 Y9.8173 
G01 X-12.5681 Y9.8173 
G01 X-12.5870 Y9.8128 
G01 X-12.6156 Y9.8173 
G01 X-12.6446 Y9.8173 
G01 X-12.6625 Y9.8247 
G01 X-12.6817 Y9.8278 
G01 X-12.7064 Y9.8429 
G01 X-13.0697 Y9.9934 
G01 X-13.1374 Y10.0612 
G01 X-13.1385 Y10.0637 
G01 X-13.1741 Y10.1497 
G01 X-13.1741 Y12.3660 
G01 X-13.1374 Y12.4546 
G01 X-13.0697 Y12.5223 
G01 X-13.0498 Y12.5422 
G01 X-12.9241 Y12.8457 
G01 X-12.9241 Y20.6643 
G01 X-13.0294 Y20.9184 
G01 X-13.0294 Y21.0143 
G01 X-12.8983 Y21.3307 
G01 X-12.8983 Y21.6693 
G01 X-13.0279 Y21.9822 
G01 X-13.2674 Y22.2217 
G01 X-13.5803 Y22.3513 
G01 X-15.2397 Y22.3513 
G01 X-15.5526 Y22.2217 
G01 X-15.7921 Y21.9822 
G01 X-15.9217 Y21.6693 
G01 X-15.9217 Y21.3307 
G01 X-15.7921 Y21.0178 
G01 X-15.5526 Y20.7783 
G01 X-15.2397 Y20.6487 
G01 X-15.1186 Y20.6487 
G01 X-15.0300 Y20.6120 
G01 X-14.9623 Y20.5443 
G01 X-14.6126 Y20.1946 
G01 X-14.5759 Y20.1060 
G01 X-14.5759 Y13.8439 
G01 X-14.6126 Y13.7553 
G01 X-14.6803 Y13.6876 
G01 X-14.7689 Y13.6509 
G01 X-14.8291 Y13.6509 
G01 X-14.9135 Y13.5664 
G01 X-15.0021 Y13.5298 
G01 X-15.0979 Y13.5298 
G01 X-15.1335 Y13.5445 
G01 X-15.1865 Y13.5664 
G01 X-15.2542 Y13.6342 
G01 X-15.2709 Y13.6509 
G01 X-16.7291 Y13.6509 
G01 X-16.8574 Y13.5226 
G01 X-16.9459 Y13.4859 
G01 X-17.6184 Y13.4859 
G01 X-17.6218 Y13.4873 
G01 X-17.8357 Y13.5759 
G01 X-18.1643 Y13.5759 
G01 X-18.4678 Y13.4502 
G01 X-18.7002 Y13.2178 
G01 X-18.8259 Y12.9143 
G01 X-18.8259 Y2.2689 
G01 X-18.8626 Y2.1803 
G01 X-18.9303 Y2.1126 
G01 X-19.0189 Y2.0759 
G01 X-28.7311 Y2.0759 
G01 X-28.8197 Y2.1126 
G01 X-28.8874 Y2.1803 
G01 X-28.9241 Y2.2689 
G01 X-28.9241 Y9.2311 
G01 X-28.8874 Y9.3197 
G01 X-28.8197 Y9.3874 
G01 X-28.7311 Y9.4241 
G01 X-26.0857 Y9.4241 
G01 X-25.7822 Y9.5498 
G01 X-25.5498 Y9.7822 
G01 X-25.4241 Y10.0857 
G01 X-25.4241 Y12.7716 
G01 X-25.3874 Y12.8601 
G01 X-25.3207 Y12.9268 
G01 X-25.2837 Y12.9428 
G01 X-25.2311 Y12.9645 
G01 X-25.1353 Y12.9645 
G01 X-25.0467 Y12.9279 
G01 X-24.9426 Y12.8237 
G01 X-24.7403 Y12.7399 
G01 X-24.6726 Y12.6722 
G01 X-24.6715 Y12.6697 
G01 X-24.6359 Y12.5836 
G01 X-24.6359 Y7.8633 
G01 X-24.6404 Y7.8525 
G01 X-24.7029 Y7.7015 
G01 X-24.7029 Y5.7984 
G01 X-24.5578 Y5.4482 
G01 X-24.2898 Y5.1802 
G01 X-23.9395 Y5.0351 
G01 X-23.5604 Y5.0351 
G01 X-23.2102 Y5.1802 
G01 X-22.9422 Y5.4482 
G01 X-22.7971 Y5.7984 
G01 X-22.7971 Y7.7015 
G01 X-22.9422 Y8.0518 
G01 X-22.9474 Y8.0570 
G01 X-22.9841 Y8.1456 
G01 X-22.9841 Y9.4204 
G01 X-22.9831 Y9.4230 
G01 X-22.9474 Y9.5090 
G01 X-22.8807 Y9.5757 
G01 X-22.7911 Y9.6134 
G01 X-22.6953 Y9.6134 
G01 X-22.6928 Y9.6124 
G01 X-22.6067 Y9.5767 
G01 X-22.5400 Y9.5100 
G01 X-22.5023 Y9.4204 
G01 X-22.3378 Y9.0232 
G01 X-22.0726 Y8.7580 
G01 X-22.0359 Y8.6695 
G01 X-22.0359 Y8.0081 
G01 X-22.0662 Y7.9350 
G01 X-22.1629 Y7.7015 
G01 X-22.1629 Y5.7984 
G01 X-22.0178 Y5.4482 
G01 X-21.7498 Y5.1802 
G01 X-21.3995 Y5.0351 
G01 X-21.0204 Y5.0351 
G01 X-20.6702 Y5.1802 
G01 X-20.4022 Y5.4482 
G01 X-20.2571 Y5.7984 
G01 X-20.2571 Y7.7015 
G01 X-20.3555 Y7.9390 
G01 X-20.3841 Y8.0081 
G01 X-20.3841 Y8.7495 
G01 X-20.3474 Y8.8380 
G01 X-20.2797 Y8.9058 
G01 X-20.1622 Y9.0232 
G01 X-19.9669 Y9.4948 
G01 X-19.9669 Y10.0052 
G01 X-20.1622 Y10.4768 
G01 X-20.5232 Y10.8378 
G01 X-20.9948 Y11.0331 
G01 X-21.5052 Y11.0331 
G01 X-21.9768 Y10.8378 
G01 X-22.3378 Y10.4768 
G01 X-22.5023 Y10.0796 
G01 X-22.5383 Y9.9928 
G01 X-22.6067 Y9.9233 
G01 X-22.6953 Y9.8866 
G01 X-22.7911 Y9.8866 
G01 X-22.8771 Y9.9222 
G01 X-22.8797 Y9.9233 
G01 X-22.9474 Y9.9910 
G01 X-22.9841 Y10.0796 
G01 X-22.9841 Y12.5836 
G01 X-22.9474 Y12.6722 
G01 X-22.8797 Y12.7399 
G01 X-22.6774 Y12.8237 
G01 X-22.4397 Y13.0614 
G01 X-22.3577 Y13.2594 
G01 X-22.3210 Y13.3480 
G01 X-22.2877 Y13.3814 
G01 X-22.2533 Y13.4158 
G01 X-22.1647 Y13.4524 
G01 X-22.0689 Y13.4524 
G01 X-21.9803 Y13.4158 
G01 X-21.9334 Y13.3688 
G01 X-21.9126 Y13.3480 
G01 X-21.7268 Y13.1622 
G01 X-21.2552 Y12.9669 
G01 X-20.7448 Y12.9669 
G01 X-20.2732 Y13.1622 
G01 X-19.9122 Y13.5232 
G01 X-19.7169 Y13.9948 
G01 X-19.7169 Y14.5052 
G01 X-19.9122 Y14.9768 
G01 X-19.9262 Y14.9907 
G01 X-19.9680 Y15.0325 
G01 X-19.9738 Y15.0467 
G01 X-20.0046 Y15.1211 
G01 X-20.0046 Y15.2169 
G01 X-19.9727 Y15.2940 
G01 X-19.9680 Y15.3055 
G01 X-19.9346 Y15.3388 
G01 X-19.9002 Y15.3732 
G01 X-19.8861 Y15.3791 
G01 X-19.8117 Y15.4099 
G01 X-19.5671 Y15.4099 
G01 X-19.5671 Y15.4361 
G01 X-19.9227 Y15.4361 
G01 X-19.9645 Y15.4534 
G01 X-19.9966 Y15.4855 
G01 X-20.0139 Y15.5273 
G01 X-20.0139 Y15.9821 
G01 X-20.0401 Y15.9821 
G01 X-20.0401 Y15.5538 
G01 X-20.0768 Y15.4653 
G01 X-20.1435 Y15.3986 
G01 X-20.1954 Y15.3765 
G01 X-20.2331 Y15.3608 
G01 X-20.3289 Y15.3608 
G01 X-20.5234 Y15.4414 
G01 X-20.5912 Y15.5092 
G01 X-21.5498 Y16.4678 
G01 X-21.7822 Y16.7002 
G01 X-22.0857 Y16.8259 
G01 X-22.7489 Y16.8259 
G01 X-22.7521 Y16.8272 
G01 X-22.9879 Y16.9249 
G01 X-24.6321 Y16.9249 
G01 X-24.9426 Y16.7963 
G01 X-25.0467 Y16.6921 
G01 X-25.1353 Y16.6554 
G01 X-25.2311 Y16.6554 
G01 X-25.2822 Y16.6766 
G01 X-25.3197 Y16.6921 
G01 X-25.3874 Y16.7599 
G01 X-25.4241 Y16.8484 
G01 X-25.4241 Y17.8516 
G01 X-25.3874 Y17.9401 
G01 X-25.3207 Y18.0068 
G01 X-25.2837 Y18.0228 
G01 X-25.2311 Y18.0446 
G01 X-25.1353 Y18.0446 
G01 X-25.0467 Y18.0079 
G01 X-24.9426 Y17.9037 
G01 X-24.6321 Y17.7751 
G01 X-22.9879 Y17.7751 
G01 X-22.6774 Y17.9037 
G01 X-22.4397 Y18.1414 
G01 X-22.3111 Y18.4519 
G01 X-22.3111 Y18.7881 
G01 X-22.4397 Y19.0986 
G01 X-22.6774 Y19.3363 
G01 X-22.8797 Y19.4200 
G01 X-22.9474 Y19.4878 
G01 X-22.9485 Y19.4903 
G01 X-22.9841 Y19.5764 
G01 X-22.9841 Y20.2036 
G01 X-22.9474 Y20.2922 
G01 X-22.8797 Y20.3599 
G01 X-22.6774 Y20.4437 
G01 X-22.4397 Y20.6814 
G01 X-22.3111 Y20.9919 
G01 X-22.3111 Y21.3281 
G01 X-22.4397 Y21.6386 
G01 X-22.6774 Y21.8763 
G01 X-22.9879 Y22.0049 
G01 X-24.6321 Y22.0049 
G01 X-24.9426 Y21.8763 
G01 X-25.0467 Y21.7721 
G01 X-25.1353 Y21.7354 
G01 X-25.2311 Y21.7354 
G01 X-25.2822 Y21.7566 
G01 X-25.3197 Y21.7721 
G01 X-25.3874 Y21.8399 
G01 X-25.4241 Y21.9284 
G01 X-25.4241 Y22.6811 
G01 X-25.3874 Y22.7697 
G01 X-25.3197 Y22.8374 
G01 X-25.2311 Y22.8741 
G01 X-24.6779 Y22.8741 
G01 X-24.6748 Y22.8728 
G01 X-24.6321 Y22.8551 
G01 X-22.9879 Y22.8551 
G01 X-22.6774 Y22.9837 
G01 X-22.4105 Y23.2507 
G01 X-22.3219 Y23.2873 
G01 X-22.2261 Y23.2873 
G01 X-22.1401 Y23.2517 
G01 X-22.1375 Y23.2507 
G01 X-22.0698 Y23.1829 
G01 X-22.0331 Y23.0944 
G01 X-22.0331 Y22.7448 
G01 X-21.8378 Y22.2732 
G01 X-21.4768 Y21.9122 
G01 X-21.0052 Y21.7169 
G01 X-20.9368 Y21.7169 
G01 X-20.8482 Y21.6802 
G01 X-20.8330 Y21.6650 
G01 X-19.9303 Y20.7623 
G01 X-19.8778 Y20.7098 
G01 X-19.8626 Y20.6946 
G01 X-19.8259 Y20.6060 
G01 X-19.8259 Y20.3339 
G01 X-19.8626 Y20.2453 
G01 X-19.9303 Y20.1776 
G01 X-19.9509 Y20.1690 
G01 X-20.0909 Y20.0291 
G01 X-20.0909 Y18.2709 
G01 X-19.9791 Y18.1591 
G01 X-18.0209 Y18.1591 
G01 X-17.8426 Y18.3374 
G01 X-17.7541 Y18.3741 
G01 X-17.6659 Y18.3741 
G01 X-17.6502 Y18.3783 
G01 X-17.6184 Y18.3741 
G01 X-17.5862 Y18.3741 
G01 X-17.5713 Y18.3679 
G01 X-17.5552 Y18.3658 
G01 X-17.5274 Y18.3497 
G01 X-17.4977 Y18.3374 
G01 X-17.4862 Y18.3260 
G01 X-17.4722 Y18.3179 
G01 X-17.4527 Y18.2924 
G01 X-17.4299 Y18.2697 
G01 X-17.4237 Y18.2547 
G01 X-17.4139 Y18.2418 
G01 X-17.4056 Y18.2108 
G01 X-17.3933 Y18.1811 
G01 X-17.3933 Y18.1649 
G01 X-17.3891 Y18.1492 
G01 X-17.3933 Y18.1174 
G01 X-17.3933 Y18.0853 
G01 X-17.3995 Y18.0703 
G01 X-17.4016 Y18.0542 
G01 X-17.4176 Y18.0264 
G01 X-17.4299 Y17.9967 
G01 X-17.4335 Y17.9932 
G01 X-17.4401 Y17.9684 
G01 X-17.4401 Y17.6679 
G01 X-17.4139 Y17.6679 
G01 X-17.4139 Y17.9727 
G01 X-17.3966 Y18.0145 
G01 X-17.3645 Y18.0466 
G01 X-17.3227 Y18.0639 
G01 X-15.6773 Y18.0639 
G01 X-15.6355 Y18.0466 
G01 X-15.6034 Y18.0145 
G01 X-15.5861 Y17.9727 
G01 X-15.5861 Y17.6679 
G01 X-15.5599 Y17.6679 
G01 X-15.5599 Y17.9684 
G01 X-15.5694 Y18.0041 
G01 X-15.5879 Y18.0360 
G01 X-15.6295 Y18.0776 
G01 X-15.6416 Y18.1069 
G01 X-15.6662 Y18.1661 
G01 X-15.6662 Y18.2135 
G01 X-15.6662 Y18.2620 
G01 X-15.6494 Y18.3024 
G01 X-15.6295 Y18.3505 
G01 X-15.6073 Y18.3728 
G01 X-15.5617 Y18.4183 
G01 X-15.5091 Y18.4709 
G01 X-15.5091 Y19.9291 
G01 X-15.6209 Y20.0409 
G01 X-17.4097 Y20.0409 
G01 X-17.4459 Y20.0259 
G01 X-17.4936 Y20.0259 
G01 X-17.5417 Y20.0259 
G01 X-17.7724 Y20.0259 
G01 X-17.8610 Y20.0626 
G01 X-17.9287 Y20.1303 
G01 X-17.9654 Y20.2189 
G01 X-17.9654 Y20.3147 
G01 X-17.9287 Y20.4033 
G01 X-17.8610 Y20.4710 
G01 X-17.1596 Y21.1724 
G01 X-17.1571 Y21.1735 
G01 X-17.0710 Y21.2091 
G01 X-16.6209 Y21.2091 
G01 X-16.5091 Y21.3209 
G01 X-16.5091 Y22.7791 
G01 X-16.5643 Y22.8342 
G01 X-16.5668 Y22.8367 
G01 X-16.5878 Y22.8876 
G01 X-16.6034 Y22.9253 
G01 X-16.6034 Y23.0211 
G01 X-16.5823 Y23.0722 
G01 X-16.5668 Y23.1097 
G01 X-16.4990 Y23.1774 
G01 X-16.4482 Y23.1985 
G01 X-16.4105 Y23.2141 
G01 X-15.3010 Y23.2141 
G01 X-15.2397 Y23.1887 
G01 X-13.5803 Y23.1887 
G01 X-13.2674 Y23.3183 
G01 X-13.0279 Y23.5578 
G01 X-12.8983 Y23.8707 
G01 X-12.8983 Y24.2093 
G01 X-13.0279 Y24.5222 
G01 X-13.2674 Y24.7617 
G01 X-13.5803 Y24.8913 
G01 X-15.2397 Y24.8913 
G01 X-15.3010 Y24.8659 
G01 X-17.5743 Y24.8659 
G01 X-17.7553 Y24.7909 
G01 X-18.3791 Y24.7909 
G01 X-18.4909 Y24.6791 
G01 X-18.4909 Y23.2209 
G01 X-18.4742 Y23.2042 
G01 X-18.4075 Y23.1375 
G01 X-18.3854 Y23.0856 
G01 X-18.3698 Y23.0479 
G01 X-18.3698 Y22.9521 
G01 X-18.4064 Y22.8635 
G01 X-18.4909 Y22.7791 
G01 X-18.4909 Y22.2290 
G01 X-18.5276 Y22.1404 
G01 X-18.5953 Y22.0727 
G01 X-18.6135 Y22.0545 
G01 X-18.7021 Y22.0178 
G01 X-18.7979 Y22.0178 
G01 X-18.8865 Y22.0545 
G01 X-18.9542 Y22.1222 
G01 X-19.4302 Y22.5982 
G01 X-19.4313 Y22.6007 
G01 X-19.4669 Y22.6868 
G01 X-19.4669 Y23.2552 
G01 X-19.6622 Y23.7268 
G01 X-20.0232 Y24.0878 
G01 X-20.4948 Y24.2831 
G01 X-21.0052 Y24.2831 
G01 X-21.4768 Y24.0878 
G01 X-21.8377 Y23.7268 
G01 X-21.8487 Y23.7003 
G01 X-21.8660 Y23.6587 
G01 X-21.8993 Y23.6253 
G01 X-21.9337 Y23.5909 
G01 X-21.9997 Y23.5636 
G01 X-22.0223 Y23.5542 
G01 X-22.0697 Y23.5542 
G01 X-22.1181 Y23.5542 
G01 X-22.1585 Y23.5710 
G01 X-22.2066 Y23.5909 
G01 X-22.2400 Y23.6243 
G01 X-22.2744 Y23.6587 
G01 X-22.3018 Y23.7247 
G01 X-22.3111 Y23.7472 
G01 X-22.3111 Y23.7946 
G01 X-22.3111 Y23.8430 
G01 X-22.3111 Y23.8681 
G01 X-22.4397 Y24.1786 
G01 X-22.6774 Y24.4163 
G01 X-22.8797 Y24.5000 
G01 X-22.9474 Y24.5678 
G01 X-22.9485 Y24.5703 
G01 X-22.9841 Y24.6563 
G01 X-22.9841 Y25.2836 
G01 X-22.9474 Y25.3722 
G01 X-22.8797 Y25.4399 
G01 X-22.6774 Y25.5237 
G01 X-22.4397 Y25.7614 
G01 X-22.3111 Y26.0719 
G01 X-22.3111 Y26.4081 
G01 X-22.4397 Y26.7186 
G01 X-22.6774 Y26.9563 
G01 X-22.8797 Y27.0400 
G01 X-22.9474 Y27.1078 
G01 X-22.9485 Y27.1103 
G01 X-22.9841 Y27.1963 
G01 X-22.9841 Y27.8236 
G01 X-22.9474 Y27.9122 
G01 X-22.8797 Y27.9799 
G01 X-22.6774 Y28.0637 
G01 X-22.4837 Y28.2574 
G01 X-22.3952 Y28.2941 
G01 X-21.8989 Y28.2941 
G01 X-21.8103 Y28.2574 
G01 X-21.7426 Y28.1897 
G01 X-21.7059 Y28.1011 
G01 X-21.7059 Y27.4518 
G01 X-21.7059 Y27.4041 
G01 X-21.7059 Y27.3559 
G01 X-21.7209 Y27.3197 
G01 X-21.7209 Y26.7078 
G01 X-21.7223 Y26.7044 
G01 X-21.8259 Y26.4543 
G01 X-21.8259 Y26.1257 
G01 X-21.7209 Y25.8722 
G01 X-21.7209 Y25.5309 
G01 X-21.6091 Y25.4191 
G01 X-20.1509 Y25.4191 
G01 X-20.1342 Y25.4358 
G01 X-20.0675 Y25.5025 
G01 X-20.0156 Y25.5246 
G01 X-19.9779 Y25.5402 
G01 X-19.8821 Y25.5402 
G01 X-19.7935 Y25.5036 
G01 X-19.7091 Y25.4191 
G01 X-18.2509 Y25.4191 
G01 X-18.1226 Y25.5474 
G01 X-18.1094 Y25.5529 
G01 X-18.0341 Y25.5841 
G01 X-14.4157 Y25.5841 
G01 X-14.0666 Y25.7287 
G01 X-13.5803 Y25.7287 
G01 X-13.5190 Y25.7541 
G01 X-12.9740 Y25.7541 
G01 X-12.8854 Y25.7174 
G01 X-12.3626 Y25.1946 
G01 X-12.3259 Y25.1060 
G01 X-12.3259 Y21.5857 
G00 Z2.0000  F3000
G00 X-12.9753 Y21.5763  F3000
G01 Z-0.2000 F200.00 
G01 X-12.9753 Y21.4237 F500.00 
G01 X-13.0051 Y21.2741 
G01 X-13.0634 Y21.1332 
G01 X-13.1482 Y21.0064 
G01 X-13.1727 Y20.9818 
G01 X-13.1683 Y20.9774 
G01 X-13.0863 Y20.8547 
G01 X-13.0299 Y20.7184 
G01 X-13.0011 Y20.5738 
G01 X-13.0011 Y12.9362 
G01 X-13.0299 Y12.7916 
G01 X-13.0863 Y12.6553 
G01 X-13.1683 Y12.5326 
G01 X-13.2511 Y12.4498 
G01 X-13.2511 Y9.9159 
G01 X-13.1717 Y9.9159 
G01 X-13.0025 Y9.8822 
G01 X-12.8431 Y9.8162 
G01 X-12.6996 Y9.7204 
G01 X-12.5776 Y9.5984 
G01 X-12.4818 Y9.4549 
G01 X-12.4158 Y9.2955 
G01 X-12.3821 Y9.1263 
G01 X-12.3821 Y8.9537 
G01 X-12.4158 Y8.7845 
G01 X-12.4818 Y8.6251 
G01 X-12.5776 Y8.4816 
G01 X-12.6996 Y8.3596 
G01 X-12.8431 Y8.2638 
G01 X-13.0025 Y8.1978 
G01 X-13.1717 Y8.1641 
G01 X-14.8683 Y8.1641 
G01 X-15.0375 Y8.1978 
G01 X-15.1969 Y8.2638 
G01 X-15.3404 Y8.3596 
G01 X-15.4624 Y8.4816 
G01 X-15.5582 Y8.6251 
G01 X-15.6242 Y8.7845 
G01 X-15.6579 Y8.9537 
G01 X-15.6579 Y9.1263 
G01 X-15.6242 Y9.2955 
G01 X-15.5582 Y9.4549 
G01 X-15.4624 Y9.5984 
G01 X-15.3404 Y9.7204 
G01 X-15.1969 Y9.8162 
G01 X-15.0375 Y9.8822 
G01 X-14.8683 Y9.9159 
G01 X-14.7489 Y9.9159 
G01 X-14.7489 Y11.7461 
G01 X-14.7727 Y11.7461 
G01 X-14.8145 Y11.7634 
G01 X-14.8466 Y11.7955 
G01 X-14.8639 Y11.8373 
G01 X-14.8639 Y13.4827 
G01 X-14.8466 Y13.5245 
G01 X-14.8145 Y13.5566 
G01 X-14.7727 Y13.5739 
G01 X-14.4989 Y13.5739 
G01 X-14.4989 Y20.1898 
G01 X-14.9917 Y20.6826 
G01 X-15.0205 Y20.7257 
G01 X-15.1467 Y20.7257 
G01 X-15.2963 Y20.7555 
G01 X-15.4372 Y20.8138 
G01 X-15.5640 Y20.8986 
G01 X-15.6718 Y21.0064 
G01 X-15.7566 Y21.1332 
G01 X-15.8149 Y21.2741 
G01 X-15.8447 Y21.4237 
G01 X-15.8447 Y21.5763 
G01 X-15.8149 Y21.7259 
G01 X-15.7566 Y21.8668 
G01 X-15.6718 Y21.9936 
G01 X-15.5640 Y22.1014 
G01 X-15.4372 Y22.1862 
G01 X-15.2963 Y22.2445 
G01 X-15.1467 Y22.2743 
G01 X-13.6733 Y22.2743 
G01 X-13.5237 Y22.2445 
G01 X-13.3828 Y22.1862 
G01 X-13.2560 Y22.1014 
G01 X-13.1482 Y21.9936 
G01 X-13.0634 Y21.8668 
G01 X-13.0051 Y21.7259 
G01 X-12.9753 Y21.5763 
G00 Z2.0000  F3000
G00 X-13.1482 Y23.5464  F3000
G01 Z-0.2000 F200.00 
G01 X-13.2560 Y23.4386 F500.00 
G01 X-13.3828 Y23.3538 
G01 X-13.5237 Y23.2955 
G01 X-13.6733 Y23.2657 
G01 X-15.1467 Y23.2657 
G01 X-15.2744 Y23.2911 
G01 X-16.5861 Y23.2911 
G01 X-16.5861 Y23.2773 
G01 X-16.6034 Y23.2355 
G01 X-16.6355 Y23.2034 
G01 X-16.6773 Y23.1861 
G01 X-18.3227 Y23.1861 
G01 X-18.3645 Y23.2034 
G01 X-18.3966 Y23.2355 
G01 X-18.4139 Y23.2773 
G01 X-18.4139 Y24.6227 
G01 X-18.3966 Y24.6645 
G01 X-18.3645 Y24.6966 
G01 X-18.3227 Y24.7139 
G01 X-17.7400 Y24.7139 
G01 X-17.6284 Y24.7601 
G01 X-17.4838 Y24.7889 
G01 X-15.2744 Y24.7889 
G01 X-15.1467 Y24.8143 
G01 X-13.6733 Y24.8143 
G01 X-13.5237 Y24.7845 
G01 X-13.3828 Y24.7262 
G01 X-13.2560 Y24.6414 
G01 X-13.1482 Y24.5336 
G01 X-13.0634 Y24.4068 
G01 X-13.0051 Y24.2659 
G01 X-12.9753 Y24.1163 
G01 X-12.9753 Y23.9637 
G01 X-13.0051 Y23.8141 
G01 X-13.0634 Y23.6732 
G01 X-13.1482 Y23.5464 
G00 Z2.0000  F3000
G00 X-16.6355 Y22.7966  F3000
G01 Z-0.2000 F200.00 
G01 X-16.6034 Y22.7645 F500.00 
G01 X-16.5861 Y22.7227 
G01 X-16.5861 Y21.3773 
G01 X-16.6034 Y21.3355 
G01 X-16.6355 Y21.3034 
G01 X-16.6773 Y21.2861 
G01 X-17.1548 Y21.2861 
G01 X-18.1683 Y20.2726 
G01 X-18.2511 Y20.1898 
G01 X-18.2511 Y20.0639 
G01 X-18.0773 Y20.0639 
G01 X-18.0355 Y20.0466 
G01 X-18.0034 Y20.0145 
G01 X-17.9861 Y19.9727 
G01 X-17.9861 Y19.9489 
G01 X-17.3589 Y19.9489 
G01 X-17.3227 Y19.9639 
G01 X-15.6773 Y19.9639 
G01 X-15.6355 Y19.9466 
G01 X-15.6034 Y19.9145 
G01 X-15.5861 Y19.8727 
G01 X-15.5861 Y18.5273 
G01 X-15.6034 Y18.4855 
G01 X-15.6355 Y18.4534 
G01 X-15.6773 Y18.4361 
G01 X-17.3227 Y18.4361 
G01 X-17.3589 Y18.4511 
G01 X-17.9861 Y18.4511 
G01 X-17.9861 Y18.3273 
G01 X-18.0034 Y18.2855 
G01 X-18.0355 Y18.2534 
G01 X-18.0773 Y18.2361 
G01 X-19.9227 Y18.2361 
G01 X-19.9645 Y18.2534 
G01 X-19.9966 Y18.2855 
G01 X-20.0139 Y18.3273 
G01 X-20.0139 Y19.9727 
G01 X-19.9966 Y20.0145 
G01 X-19.9645 Y20.0466 
G01 X-19.9227 Y20.0639 
G01 X-19.7489 Y20.0639 
G01 X-19.7489 Y20.5738 
G01 X-19.7296 Y20.6705 
G01 X-20.8545 Y21.7954 
G01 X-21.0324 Y21.8236 
G01 X-21.2130 Y21.8823 
G01 X-21.3821 Y21.9685 
G01 X-21.5357 Y22.0800 
G01 X-21.6700 Y22.2143 
G01 X-21.7815 Y22.3679 
G01 X-21.8677 Y22.5370 
G01 X-21.9264 Y22.7176 
G01 X-21.9561 Y22.9051 
G01 X-21.9561 Y23.0949 
G01 X-21.9264 Y23.2824 
G01 X-21.8677 Y23.4630 
G01 X-21.7815 Y23.6321 
G01 X-21.6700 Y23.7857 
G01 X-21.5357 Y23.9200 
G01 X-21.3821 Y24.0315 
G01 X-21.2130 Y24.1177 
G01 X-21.0324 Y24.1764 
G01 X-20.8449 Y24.2061 
G01 X-20.6551 Y24.2061 
G01 X-20.4676 Y24.1764 
G01 X-20.2870 Y24.1177 
G01 X-20.1179 Y24.0315 
G01 X-19.9643 Y23.9200 
G01 X-19.8300 Y23.7857 
G01 X-19.7185 Y23.6321 
G01 X-19.6323 Y23.4630 
G01 X-19.5736 Y23.2824 
G01 X-19.5439 Y23.0949 
G01 X-19.5439 Y22.9051 
G01 X-19.5736 Y22.7176 
G01 X-19.5944 Y22.6535 
G01 X-18.7500 Y21.8091 
G01 X-18.4139 Y22.1452 
G01 X-18.4139 Y22.7227 
G01 X-18.3966 Y22.7645 
G01 X-18.3645 Y22.7966 
G01 X-18.3227 Y22.8139 
G01 X-16.6773 Y22.8139 
G01 X-16.6355 Y22.7966 
G00 Z2.0000  F3000
G00 X-20.1334 Y25.5455  F3000
G01 Z-0.2000 F200.00 
G01 X-20.1655 Y25.5134 F500.00 
G01 X-20.2073 Y25.4961 
G01 X-21.5527 Y25.4961 
G01 X-21.5945 Y25.5134 
G01 X-21.6266 Y25.5455 
G01 X-21.6439 Y25.5873 
G01 X-21.6439 Y25.9057 
G01 X-21.6637 Y25.9353 
G01 X-21.7201 Y26.0716 
G01 X-21.7489 Y26.2162 
G01 X-21.7489 Y26.3638 
G01 X-21.7201 Y26.5084 
G01 X-21.6637 Y26.6447 
G01 X-21.6439 Y26.6743 
G01 X-21.6439 Y27.2327 
G01 X-21.6289 Y27.2689 
G01 X-21.6289 Y28.3711 
G01 X-22.5057 Y28.3711 
G01 X-22.5595 Y28.2905 
G01 X-22.6665 Y28.1835 
G01 X-22.7923 Y28.0995 
G01 X-22.9320 Y28.0416 
G01 X-23.0611 Y28.0159 
G01 X-23.0611 Y27.0041 
G01 X-22.9320 Y26.9784 
G01 X-22.7923 Y26.9205 
G01 X-22.6665 Y26.8365 
G01 X-22.5595 Y26.7295 
G01 X-22.4755 Y26.6037 
G01 X-22.4176 Y26.4640 
G01 X-22.3881 Y26.3156 
G01 X-22.3881 Y26.1644 
G01 X-22.4176 Y26.0160 
G01 X-22.4755 Y25.8763 
G01 X-22.5595 Y25.7505 
G01 X-22.6665 Y25.6435 
G01 X-22.7923 Y25.5595 
G01 X-22.9320 Y25.5016 
G01 X-23.0611 Y25.4759 
G01 X-23.0611 Y24.4641 
G01 X-22.9320 Y24.4384 
G01 X-22.7923 Y24.3805 
G01 X-22.6665 Y24.2965 
G01 X-22.5595 Y24.1895 
G01 X-22.4755 Y24.0637 
G01 X-22.4176 Y23.9240 
G01 X-22.3881 Y23.7756 
G01 X-22.3881 Y23.6244 
G01 X-22.4176 Y23.4760 
G01 X-22.4755 Y23.3363 
G01 X-22.5595 Y23.2105 
G01 X-22.6665 Y23.1035 
G01 X-22.7923 Y23.0195 
G01 X-22.9320 Y22.9616 
G01 X-23.0804 Y22.9321 
G01 X-24.5396 Y22.9321 
G01 X-24.6351 Y22.9511 
G01 X-25.4898 Y22.9511 
G01 X-25.5011 Y22.9398 
G01 X-25.5011 Y10.1762 
G01 X-25.5299 Y10.0316 
G01 X-25.5863 Y9.8953 
G01 X-25.6683 Y9.7726 
G01 X-25.7726 Y9.6683 
G01 X-25.8953 Y9.5863 
G01 X-26.0316 Y9.5299 
G01 X-26.1762 Y9.5011 
G01 X-29.0011 Y9.5011 
G01 X-29.0011 Y1.9989 
G01 X-18.7489 Y1.9989 
G01 X-18.7489 Y12.8238 
G01 X-18.7201 Y12.9684 
G01 X-18.6637 Y13.1047 
G01 X-18.5817 Y13.2274 
G01 X-18.4774 Y13.3317 
G01 X-18.3547 Y13.4137 
G01 X-18.2184 Y13.4701 
G01 X-18.0738 Y13.4989 
G01 X-17.9262 Y13.4989 
G01 X-17.7816 Y13.4701 
G01 X-17.6453 Y13.4137 
G01 X-17.6381 Y13.4089 
G01 X-16.7639 Y13.4089 
G01 X-16.7639 Y13.4827 
G01 X-16.7466 Y13.5245 
G01 X-16.7145 Y13.5566 
G01 X-16.6727 Y13.5739 
G01 X-15.3273 Y13.5739 
G01 X-15.2855 Y13.5566 
G01 X-15.2534 Y13.5245 
G01 X-15.2361 Y13.4827 
G01 X-15.2361 Y11.8373 
G01 X-15.2534 Y11.7955 
G01 X-15.2855 Y11.7634 
G01 X-15.3273 Y11.7461 
G01 X-16.6727 Y11.7461 
G01 X-16.7145 Y11.7634 
G01 X-16.7466 Y11.7955 
G01 X-16.7639 Y11.8373 
G01 X-16.7639 Y11.9111 
G01 X-17.2511 Y11.9111 
G01 X-17.2511 Y1.9989 
G01 X-15.4989 Y1.9989 
G01 X-15.4989 Y3.3038 
G01 X-15.4755 Y3.4213 
G01 X-15.5582 Y3.5451 
G01 X-15.6242 Y3.7045 
G01 X-15.6579 Y3.8737 
G01 X-15.6579 Y4.0463 
G01 X-15.6242 Y4.2155 
G01 X-15.5582 Y4.3749 
G01 X-15.4624 Y4.5184 
G01 X-15.3404 Y4.6404 
G01 X-15.1969 Y4.7362 
G01 X-15.0375 Y4.8022 
G01 X-14.8683 Y4.8359 
G01 X-13.1717 Y4.8359 
G01 X-13.0025 Y4.8022 
G01 X-12.8431 Y4.7362 
G01 X-12.6996 Y4.6404 
G01 X-12.5776 Y4.5184 
G01 X-12.4818 Y4.3749 
G01 X-12.4158 Y4.2155 
G01 X-12.3821 Y4.0463 
G01 X-12.3821 Y3.8737 
G01 X-12.4158 Y3.7045 
G01 X-12.4818 Y3.5451 
G01 X-12.5776 Y3.4016 
G01 X-12.6996 Y3.2796 
G01 X-12.8431 Y3.1838 
G01 X-13.0025 Y3.1178 
G01 X-13.1717 Y3.0841 
G01 X-13.8368 Y3.0841 
G01 X-14.0011 Y2.9198 
G01 X-14.0011 Y1.1762 
G01 X-14.0299 Y1.0316 
G01 X-14.0863 Y0.8953 
G01 X-14.1683 Y0.7726 
G01 X-14.2726 Y0.6683 
G01 X-14.3953 Y0.5863 
G01 X-14.5316 Y0.5299 
G01 X-14.6762 Y0.5011 
G01 X-37.5738 Y0.5011 
G01 X-37.7184 Y0.5299 
G01 X-37.8547 Y0.5863 
G01 X-37.9774 Y0.6683 
G01 X-38.0817 Y0.7726 
G01 X-41.5817 Y4.2726 
G01 X-41.6637 Y4.3953 
G01 X-41.7201 Y4.5316 
G01 X-41.7489 Y4.6762 
G01 X-41.7489 Y14.8238 
G01 X-41.7201 Y14.9684 
G01 X-41.6637 Y15.1047 
G01 X-41.5817 Y15.2274 
G01 X-41.4774 Y15.3317 
G01 X-40.1474 Y16.6617 
G01 X-40.0247 Y16.7437 
G01 X-39.8884 Y16.8001 
G01 X-39.7438 Y16.8289 
G01 X-37.3352 Y16.8289 
G01 X-37.2396 Y16.8479 
G01 X-36.7262 Y16.8479 
G01 X-36.6484 Y16.8801 
G01 X-36.5038 Y16.9089 
G01 X-34.6239 Y16.9089 
G01 X-34.6239 Y17.0827 
G01 X-34.6066 Y17.1245 
G01 X-34.5745 Y17.1566 
G01 X-34.5327 Y17.1739 
G01 X-32.8873 Y17.1739 
G01 X-32.8455 Y17.1566 
G01 X-32.8134 Y17.1245 
G01 X-32.7961 Y17.0827 
G01 X-32.7961 Y15.2373 
G01 X-32.8134 Y15.1955 
G01 X-32.8455 Y15.1634 
G01 X-32.8873 Y15.1461 
G01 X-34.5327 Y15.1461 
G01 X-34.5745 Y15.1634 
G01 X-34.6066 Y15.1955 
G01 X-34.6239 Y15.2373 
G01 X-34.6239 Y15.4111 
G01 X-35.4749 Y15.4111 
G01 X-35.4923 Y15.3995 
G01 X-35.6320 Y15.3416 
G01 X-35.7804 Y15.3121 
G01 X-37.2396 Y15.3121 
G01 X-37.3352 Y15.3311 
G01 X-39.3598 Y15.3311 
G01 X-40.2511 Y14.4398 
G01 X-40.2511 Y12.0139 
G01 X-39.3273 Y12.0139 
G01 X-39.2855 Y11.9966 
G01 X-39.2534 Y11.9645 
G01 X-39.2361 Y11.9227 
G01 X-39.2361 Y10.0773 
G01 X-39.2534 Y10.0355 
G01 X-39.2855 Y10.0034 
G01 X-39.3273 Y9.9861 
G01 X-40.2511 Y9.9861 
G01 X-40.2511 Y5.0602 
G01 X-37.1898 Y1.9989 
G01 X-30.4989 Y1.9989 
G01 X-30.4989 Y10.3238 
G01 X-30.4701 Y10.4684 
G01 X-30.4137 Y10.6047 
G01 X-30.3317 Y10.7274 
G01 X-30.2274 Y10.8317 
G01 X-30.1047 Y10.9137 
G01 X-29.9684 Y10.9701 
G01 X-29.8238 Y10.9989 
G01 X-26.9989 Y10.9989 
G01 X-26.9989 Y23.3238 
G01 X-26.9701 Y23.4684 
G01 X-26.9137 Y23.6047 
G01 X-26.8317 Y23.7274 
G01 X-26.7274 Y23.8317 
G01 X-26.2774 Y24.2817 
G01 X-26.1547 Y24.3637 
G01 X-26.0184 Y24.4201 
G01 X-25.8738 Y24.4489 
G01 X-24.6351 Y24.4489 
G01 X-24.5589 Y24.4641 
G01 X-24.5589 Y25.4759 
G01 X-24.6880 Y25.5016 
G01 X-24.8277 Y25.5595 
G01 X-24.9535 Y25.6435 
G01 X-25.0605 Y25.7505 
G01 X-25.1445 Y25.8763 
G01 X-25.2024 Y26.0160 
G01 X-25.2319 Y26.1644 
G01 X-25.2319 Y26.3156 
G01 X-25.2024 Y26.4640 
G01 X-25.1445 Y26.6037 
G01 X-25.0605 Y26.7295 
G01 X-24.9535 Y26.8365 
G01 X-24.8277 Y26.9205 
G01 X-24.6880 Y26.9784 
G01 X-24.5589 Y27.0041 
G01 X-24.5589 Y28.0159 
G01 X-24.6880 Y28.0416 
G01 X-24.8277 Y28.0995 
G01 X-24.9535 Y28.1835 
G01 X-25.0605 Y28.2905 
G01 X-25.1445 Y28.4163 
G01 X-25.2024 Y28.5560 
G01 X-25.2319 Y28.7044 
G01 X-25.2319 Y28.8556 
G01 X-25.2024 Y29.0040 
G01 X-25.1445 Y29.1437 
G01 X-25.0605 Y29.2695 
G01 X-24.9535 Y29.3765 
G01 X-24.8277 Y29.4605 
G01 X-24.6880 Y29.5184 
G01 X-24.5396 Y29.5479 
G01 X-24.1012 Y29.5479 
G01 X-23.9474 Y29.7017 
G01 X-23.8247 Y29.7837 
G01 X-23.6884 Y29.8401 
G01 X-23.5438 Y29.8689 
G01 X-18.3066 Y29.8689 
G01 X-18.1947 Y29.9437 
G01 X-18.0584 Y30.0001 
G01 X-17.9138 Y30.0289 
G01 X-17.7662 Y30.0289 
G01 X-17.6216 Y30.0001 
G01 X-17.4853 Y29.9437 
G01 X-17.3734 Y29.8689 
G01 X-15.3389 Y29.8689 
G01 X-15.3389 Y31.4961 
G01 X-15.4127 Y31.4961 
G01 X-15.4545 Y31.5134 
G01 X-15.4866 Y31.5455 
G01 X-15.5039 Y31.5873 
G01 X-15.5039 Y33.4327 
G01 X-15.4866 Y33.4745 
G01 X-15.4545 Y33.5066 
G01 X-15.4127 Y33.5239 
G01 X-13.7673 Y33.5239 
G01 X-13.7255 Y33.5066 
G01 X-13.6934 Y33.4745 
G01 X-13.6761 Y33.4327 
G01 X-13.6761 Y31.5873 
G01 X-13.6934 Y31.5455 
G01 X-13.7255 Y31.5134 
G01 X-13.7673 Y31.4961 
G01 X-13.8411 Y31.4961 
G01 X-13.8411 Y29.8943 
G01 X-13.6733 Y29.8943 
G01 X-13.5237 Y29.8645 
G01 X-13.3828 Y29.8062 
G01 X-13.2560 Y29.7214 
G01 X-13.1482 Y29.6136 
G01 X-13.0634 Y29.4868 
G01 X-13.0051 Y29.3459 
G01 X-12.9753 Y29.1963 
G01 X-12.9753 Y29.0437 
G01 X-13.0051 Y28.8941 
G01 X-13.0634 Y28.7532 
G01 X-13.1482 Y28.6264 
G01 X-13.2560 Y28.5186 
G01 X-13.3828 Y28.4338 
G01 X-13.5237 Y28.3755 
G01 X-13.6733 Y28.3457 
G01 X-15.1467 Y28.3457 
G01 X-15.2744 Y28.3711 
G01 X-20.1311 Y28.3711 
G01 X-20.1311 Y27.2689 
G01 X-20.1161 Y27.2327 
G01 X-20.1161 Y25.5873 
G01 X-20.1334 Y25.5455 
G00 Z2.0000  F3000
G00 X-20.1551 Y31.0439  F3000
G01 Z-0.2000 F200.00 
G01 X-20.3449 Y31.0439 F500.00 
G01 X-20.5324 Y31.0736 
G01 X-20.7130 Y31.1323 
G01 X-20.8821 Y31.2185 
G01 X-21.0357 Y31.3300 
G01 X-21.1700 Y31.4643 
G01 X-21.2815 Y31.6179 
G01 X-21.3677 Y31.7870 
G01 X-21.4264 Y31.9676 
G01 X-21.4561 Y32.1551 
G01 X-21.4561 Y32.3449 
G01 X-21.4490 Y32.3899 
G01 X-21.8102 Y32.7511 
G01 X-25.1898 Y32.7511 
G01 X-27.8871 Y30.0538 
G01 X-27.8871 Y20.0191 
G01 X-27.7580 Y19.9934 
G01 X-27.6183 Y19.9355 
G01 X-27.4925 Y19.8515 
G01 X-27.3855 Y19.7445 
G01 X-27.3015 Y19.6187 
G01 X-27.2436 Y19.4790 
G01 X-27.2141 Y19.3306 
G01 X-27.2141 Y19.1794 
G01 X-27.2436 Y19.0310 
G01 X-27.3015 Y18.8913 
G01 X-27.3855 Y18.7655 
G01 X-27.4925 Y18.6585 
G01 X-27.6183 Y18.5745 
G01 X-27.7580 Y18.5166 
G01 X-27.9064 Y18.4871 
G01 X-29.3656 Y18.4871 
G01 X-29.5140 Y18.5166 
G01 X-29.6537 Y18.5745 
G01 X-29.7795 Y18.6585 
G01 X-29.8865 Y18.7655 
G01 X-29.9705 Y18.8913 
G01 X-30.0284 Y19.0310 
G01 X-30.0579 Y19.1794 
G01 X-30.0579 Y19.3306 
G01 X-30.0284 Y19.4790 
G01 X-29.9705 Y19.6187 
G01 X-29.8865 Y19.7445 
G01 X-29.7795 Y19.8515 
G01 X-29.6537 Y19.9355 
G01 X-29.5140 Y19.9934 
G01 X-29.3849 Y20.0191 
G01 X-29.3849 Y30.4378 
G01 X-29.3561 Y30.5824 
G01 X-29.2997 Y30.7187 
G01 X-29.2177 Y30.8414 
G01 X-26.0817 Y33.9774 
G01 X-25.9774 Y34.0817 
G01 X-25.8547 Y34.1637 
G01 X-25.7184 Y34.2201 
G01 X-25.5738 Y34.2489 
G01 X-21.4262 Y34.2489 
G01 X-21.2816 Y34.2201 
G01 X-21.1453 Y34.1637 
G01 X-21.0226 Y34.0817 
G01 X-20.3899 Y33.4490 
G01 X-20.3449 Y33.4561 
G01 X-20.1551 Y33.4561 
G01 X-19.9676 Y33.4264 
G01 X-19.7870 Y33.3677 
G01 X-19.6179 Y33.2815 
G01 X-19.4643 Y33.1700 
G01 X-19.3300 Y33.0357 
G01 X-19.2185 Y32.8821 
G01 X-19.1323 Y32.7130 
G01 X-19.0736 Y32.5324 
G01 X-19.0439 Y32.3449 
G01 X-19.0439 Y32.1551 
G01 X-19.0736 Y31.9676 
G01 X-19.1323 Y31.7870 
G01 X-19.2185 Y31.6179 
G01 X-19.3300 Y31.4643 
G01 X-19.4643 Y31.3300 
G01 X-19.6179 Y31.2185 
G01 X-19.7870 Y31.1323 
G01 X-19.9676 Y31.0736 
G01 X-20.1551 Y31.0439 
G00 Z2.0000  F3000
G00 X-22.3111 Y31.1519  F3000
G01 Z-0.2000 F200.00 
G01 X-22.3111 Y31.4881 F500.00 
G01 X-22.4397 Y31.7986 
G01 X-22.6774 Y32.0363 
G01 X-22.9879 Y32.1649 
G01 X-24.6321 Y32.1649 
G01 X-24.9426 Y32.0363 
G01 X-25.1803 Y31.7986 
G01 X-25.3089 Y31.4881 
G01 X-25.3089 Y31.1519 
G01 X-25.1803 Y30.8414 
G01 X-24.9426 Y30.6037 
G01 X-24.6321 Y30.4751 
G01 X-22.9879 Y30.4751 
G01 X-22.6774 Y30.6037 
G01 X-22.4397 Y30.8414 
G01 X-22.3111 Y31.1519 
G00 Z2.0000  F3000
G00 X-22.4176 Y31.0960  F3000
G01 Z-0.2000 F200.00 
G01 X-22.4755 Y30.9563 F500.00 
G01 X-22.5595 Y30.8305 
G01 X-22.6665 Y30.7235 
G01 X-22.7923 Y30.6395 
G01 X-22.9320 Y30.5816 
G01 X-23.0804 Y30.5521 
G01 X-24.5396 Y30.5521 
G01 X-24.6880 Y30.5816 
G01 X-24.8277 Y30.6395 
G01 X-24.9535 Y30.7235 
G01 X-25.0605 Y30.8305 
G01 X-25.1445 Y30.9563 
G01 X-25.2024 Y31.0960 
G01 X-25.2319 Y31.2444 
G01 X-25.2319 Y31.3956 
G01 X-25.2024 Y31.5440 
G01 X-25.1445 Y31.6837 
G01 X-25.0605 Y31.8095 
G01 X-24.9535 Y31.9165 
G01 X-24.8277 Y32.0005 
G01 X-24.6880 Y32.0584 
G01 X-24.5396 Y32.0879 
G01 X-23.0804 Y32.0879 
G01 X-22.9320 Y32.0584 
G01 X-22.7923 Y32.0005 
G01 X-22.6665 Y31.9165 
G01 X-22.5595 Y31.8095 
G01 X-22.4755 Y31.6837 
G01 X-22.4176 Y31.5440 
G01 X-22.3881 Y31.3956 
G01 X-22.3881 Y31.2444 
G01 X-22.4176 Y31.0960 
G00 Z2.0000  F3000
G00 X-24.2338 Y35.0639  F3000
G01 Z-0.2000 F200.00 
G01 X-24.2828 Y35.0639 F500.00 
G01 X-24.4418 Y34.9829 
G01 X-24.6498 Y34.9153 
G01 X-24.8657 Y34.8811 
G01 X-25.8821 Y34.8811 
G01 X-25.8821 Y34.8549 
G01 X-24.8822 Y34.8549 
G01 X-24.6983 Y34.8791 
G01 X-24.5191 Y34.9271 
G01 X-24.3478 Y34.9981 
G01 X-24.2338 Y35.0639 
G00 Z2.0000  F3000
G00 X-24.2338 Y37.4761  F3000
G01 Z-0.2000 F200.00 
G01 X-24.3478 Y37.5419 F500.00 
G01 X-24.5191 Y37.6129 
G01 X-24.6983 Y37.6609 
G01 X-24.8822 Y37.6851 
G01 X-25.8821 Y37.6851 
G01 X-25.8821 Y37.6589 
G01 X-24.8657 Y37.6589 
G01 X-24.6498 Y37.6247 
G01 X-24.4418 Y37.5571 
G01 X-24.2828 Y37.4761 
G01 X-24.2338 Y37.4761 
G00 Z2.0000  F3000
G00 X-24.2828 Y39.0239  F3000
G01 Z-0.2000 F200.00 
G01 X-24.4418 Y38.9429 F500.00 
G01 X-24.6498 Y38.8753 
G01 X-24.8657 Y38.8411 
G01 X-27.6343 Y38.8411 
G01 X-27.8502 Y38.8753 
G01 X-28.0582 Y38.9429 
G01 X-28.2529 Y39.0421 
G01 X-28.2554 Y39.0439 
G01 X-28.7052 Y39.0439 
G01 X-28.7185 Y39.0179 
G01 X-28.7361 Y38.9936 
G01 X-28.7361 Y38.8273 
G01 X-28.7534 Y38.7855 
G01 X-28.7855 Y38.7534 
G01 X-28.8273 Y38.7361 
G01 X-28.9582 Y38.7361 
G01 X-28.9643 Y38.7300 
G01 X-29.1179 Y38.6185 
G01 X-29.2870 Y38.5323 
G01 X-29.4676 Y38.4736 
G01 X-29.6551 Y38.4439 
G01 X-29.8449 Y38.4439 
G01 X-30.0324 Y38.4736 
G01 X-30.2130 Y38.5323 
G01 X-30.3821 Y38.6185 
G01 X-30.5357 Y38.7300 
G01 X-30.5418 Y38.7361 
G01 X-30.6727 Y38.7361 
G01 X-30.7145 Y38.7534 
G01 X-30.7466 Y38.7855 
G01 X-30.7639 Y38.8273 
G01 X-30.7639 Y38.9936 
G01 X-30.7815 Y39.0179 
G01 X-30.8677 Y39.1870 
G01 X-30.9264 Y39.3676 
G01 X-30.9561 Y39.5551 
G01 X-30.9561 Y39.7939 
G01 X-37.0004 Y39.7939 
G01 X-39.7939 Y37.0004 
G01 X-39.7939 Y32.5261 
G01 X-36.4151 Y32.5261 
G01 X-36.2276 Y32.4964 
G01 X-36.0470 Y32.4377 
G01 X-35.8779 Y32.3515 
G01 X-35.7243 Y32.2400 
G01 X-35.5900 Y32.1057 
G01 X-35.5228 Y32.0131 
G01 X-35.4923 Y32.0005 
G01 X-35.3665 Y31.9165 
G01 X-35.2595 Y31.8095 
G01 X-35.1755 Y31.6837 
G01 X-35.1176 Y31.5440 
G01 X-35.0881 Y31.3956 
G01 X-35.0881 Y31.2444 
G01 X-35.1176 Y31.0960 
G01 X-35.1755 Y30.9563 
G01 X-35.2595 Y30.8305 
G01 X-35.3665 Y30.7235 
G01 X-35.4923 Y30.6395 
G01 X-35.5228 Y30.6269 
G01 X-35.5900 Y30.5343 
G01 X-35.7243 Y30.4000 
G01 X-35.8779 Y30.2885 
G01 X-36.0470 Y30.2023 
G01 X-36.2276 Y30.1436 
G01 X-36.4151 Y30.1139 
G01 X-40.4149 Y30.1139 
G01 X-40.6024 Y30.1436 
G01 X-40.7830 Y30.2023 
G01 X-40.9521 Y30.2885 
G01 X-41.1057 Y30.4000 
G01 X-41.7857 Y31.0800 
G01 X-41.9200 Y31.2143 
G01 X-42.0315 Y31.3679 
G01 X-42.1177 Y31.5370 
G01 X-42.1764 Y31.7176 
G01 X-42.2061 Y31.9051 
G01 X-42.2061 Y37.5949 
G01 X-42.1764 Y37.7824 
G01 X-42.1177 Y37.9630 
G01 X-42.0315 Y38.1321 
G01 X-41.9200 Y38.2857 
G01 X-38.2857 Y41.9200 
G01 X-38.1321 Y42.0315 
G01 X-37.9630 Y42.1177 
G01 X-37.7824 Y42.1764 
G01 X-37.5949 Y42.2061 
G01 X-26.9251 Y42.2061 
G01 X-26.7376 Y42.1764 
G01 X-26.5570 Y42.1177 
G01 X-26.3879 Y42.0315 
G01 X-26.2343 Y41.9200 
G01 X-25.9332 Y41.6189 
G01 X-24.8657 Y41.6189 
G01 X-24.6498 Y41.5847 
G01 X-24.4418 Y41.5171 
G01 X-24.2828 Y41.4361 
G01 X-18.2172 Y41.4361 
G01 X-18.0582 Y41.5171 
G01 X-17.8502 Y41.5847 
G01 X-17.6343 Y41.6189 
G01 X-14.8657 Y41.6189 
G01 X-14.6498 Y41.5847 
G01 X-14.4418 Y41.5171 
G01 X-14.3133 Y41.4516 
G01 X-13.8216 Y41.4556 
G01 X-13.7889 Y41.4592 
G01 X-13.7268 Y41.4563 
G01 X-13.6647 Y41.4568 
G01 X-13.6321 Y41.4519 
G01 X-13.5992 Y41.4504 
G01 X-13.5384 Y41.4378 
G01 X-13.4770 Y41.4286 
G01 X-13.4455 Y41.4187 
G01 X-13.4133 Y41.4120 
G01 X-13.3552 Y41.3901 
G01 X-13.2960 Y41.3714 
G01 X-13.2665 Y41.3567 
G01 X-13.2356 Y41.3450 
G01 X-13.1817 Y41.3143 
G01 X-13.1261 Y41.2866 
G01 X-13.0993 Y41.2674 
G01 X-13.0707 Y41.2511 
G01 X-13.0222 Y41.2123 
G01 X-12.9717 Y41.1762 
G01 X-12.9482 Y41.1531 
G01 X-12.2117 Y40.5639 
G01 X-12.0773 Y40.5639 
G01 X-12.0355 Y40.5466 
G01 X-12.0034 Y40.5145 
G01 X-11.9861 Y40.4727 
G01 X-11.9861 Y40.3033 
G01 X-11.9402 Y40.2336 
G01 X-11.8620 Y40.0606 
G01 X-11.8118 Y39.8775 
G01 X-11.7908 Y39.6889 
G01 X-11.7996 Y39.4992 
G01 X-11.8380 Y39.3133 
G01 X-11.9050 Y39.1356 
G01 X-11.9861 Y38.9931 
G01 X-11.9861 Y38.8273 
G01 X-12.0034 Y38.7855 
G01 X-12.0355 Y38.7534 
G01 X-12.0773 Y38.7361 
G01 X-12.2122 Y38.7361 
G01 X-12.2578 Y38.6946 
G01 X-12.4164 Y38.5902 
G01 X-12.5894 Y38.5120 
G01 X-12.7725 Y38.4618 
G01 X-12.9611 Y38.4408 
G01 X-13.1508 Y38.4496 
G01 X-13.3367 Y38.4880 
G01 X-13.5144 Y38.5550 
G01 X-13.6793 Y38.6489 
G01 X-13.7883 Y38.7361 
G01 X-13.9227 Y38.7361 
G01 X-13.9645 Y38.7534 
G01 X-13.9966 Y38.7855 
G01 X-14.0139 Y38.8273 
G01 X-14.0139 Y38.9166 
G01 X-14.1688 Y39.0405 
G01 X-14.2515 Y39.0399 
G01 X-14.4418 Y38.9429 
G01 X-14.6498 Y38.8753 
G01 X-14.8657 Y38.8411 
G01 X-17.6343 Y38.8411 
G01 X-17.8502 Y38.8753 
G01 X-18.0582 Y38.9429 
G01 X-18.2172 Y39.0239 
G01 X-24.2828 Y39.0239 
G00 Z2.0000  F3000
G00 X-26.6179 Y37.6851  F3000
G01 Z-0.2000 F200.00 
G01 X-27.6178 Y37.6851 F500.00 
G01 X-27.8017 Y37.6609 
G01 X-27.9809 Y37.6129 
G01 X-28.1522 Y37.5419 
G01 X-28.3008 Y37.4561 
G01 X-28.2554 Y37.4561 
G01 X-28.2529 Y37.4579 
G01 X-28.0582 Y37.5571 
G01 X-27.8502 Y37.6247 
G01 X-27.6343 Y37.6589 
G01 X-26.6179 Y37.6589 
G01 X-26.6179 Y37.6851 
G00 Z2.0000  F3000
G00 X-28.7099 Y37.6684  F3000
G01 Z-0.2000 F200.00 
G01 X-28.7194 Y37.7041 F500.00 
G01 X-28.7379 Y37.7360 
G01 X-28.7640 Y37.7621 
G01 X-28.7959 Y37.7805 
G01 X-28.8316 Y37.7901 
G01 X-28.9920 Y37.7901 
G01 X-28.9643 Y37.7700 
G01 X-28.9582 Y37.7639 
G01 X-28.8273 Y37.7639 
G01 X-28.7855 Y37.7466 
G01 X-28.7534 Y37.7145 
G01 X-28.7361 Y37.6727 
G01 X-28.7361 Y37.5064 
G01 X-28.7185 Y37.4821 
G01 X-28.7052 Y37.4561 
G01 X-28.6369 Y37.4561 
G01 X-28.6505 Y37.4738 
G01 X-28.6732 Y37.4965 
G01 X-28.6794 Y37.5115 
G01 X-28.6893 Y37.5243 
G01 X-28.6976 Y37.5554 
G01 X-28.7099 Y37.5851 
G01 X-28.7099 Y37.6013 
G01 X-28.7141 Y37.6169 
G01 X-28.7099 Y37.6487 
G01 X-28.7099 Y37.6684 
G00 Z2.0000  F3000
G00 X-30.5080 Y37.7901  F3000
G01 Z-0.2000 F200.00 
G01 X-30.6684 Y37.7901 F500.00 
G01 X-30.7041 Y37.7805 
G01 X-30.7360 Y37.7621 
G01 X-30.7621 Y37.7360 
G01 X-30.7805 Y37.7041 
G01 X-30.7901 Y37.6684 
G01 X-30.7901 Y37.4653 
G01 X-30.7815 Y37.4821 
G01 X-30.7639 Y37.5064 
G01 X-30.7639 Y37.6727 
G01 X-30.7466 Y37.7145 
G01 X-30.7145 Y37.7466 
G01 X-30.6727 Y37.7639 
G01 X-30.5418 Y37.7639 
G01 X-30.5357 Y37.7700 
G01 X-30.5080 Y37.7901 
G00 Z2.0000  F3000
G00 X-30.7901 Y36.1347  F3000
G01 Z-0.2000 F200.00 
G01 X-30.7901 Y36.0316 F500.00 
G01 X-30.7805 Y35.9959 
G01 X-30.7621 Y35.9640 
G01 X-30.7360 Y35.9379 
G01 X-30.7041 Y35.9194 
G01 X-30.6684 Y35.9099 
G01 X-30.6156 Y35.9099 
G01 X-30.6418 Y35.9361 
G01 X-30.6727 Y35.9361 
G01 X-30.7145 Y35.9534 
G01 X-30.7466 Y35.9855 
G01 X-30.7639 Y36.0273 
G01 X-30.7639 Y36.0936 
G01 X-30.7815 Y36.1179 
G01 X-30.7901 Y36.1347 
G00 Z2.0000  F3000
G00 X-28.0603 Y34.9840  F3000
G01 Z-0.2000 F200.00 
G01 X-28.0773 Y34.9671 F500.00 
G01 X-27.9809 Y34.9271 
G01 X-27.8017 Y34.8791 
G01 X-27.6178 Y34.8549 
G01 X-26.6179 Y34.8549 
G01 X-26.6179 Y34.8811 
G01 X-27.6343 Y34.8811 
G01 X-27.8502 Y34.9153 
G01 X-28.0582 Y34.9829 
G01 X-28.0603 Y34.9840 
G00 Z2.0000  F3000
G00 X-35.8191 Y35.4809  F3000
G01 Z-0.2000 F200.00 
G01 X-35.4809 Y35.8191 F500.00 
G01 X-35.2979 Y36.2609 
G01 X-35.2979 Y36.7391 
G01 X-35.4809 Y37.1809 
G01 X-35.8191 Y37.5191 
G01 X-36.2609 Y37.7021 
G01 X-36.7391 Y37.7021 
G01 X-37.1809 Y37.5191 
G01 X-37.5191 Y37.1809 
G01 X-37.7021 Y36.7391 
G01 X-37.7021 Y36.2609 
G01 X-37.5191 Y35.8191 
G01 X-37.1809 Y35.4809 
G01 X-36.7391 Y35.2979 
G01 X-36.2609 Y35.2979 
G01 X-35.8191 Y35.4809 
G00 Z2.0000  F3000
G00 X-37.4653 Y29.5171  F3000
G01 Z-0.2000 F200.00 
G01 X-37.4688 Y29.5159 F500.00 
G01 X-37.5802 Y29.4592 
G01 X-37.6813 Y29.3857 
G01 X-37.7697 Y29.2973 
G01 X-37.8432 Y29.1962 
G01 X-37.8953 Y29.0939 
G01 X-37.8651 Y29.0939 
G01 X-37.8445 Y29.1437 
G01 X-37.7605 Y29.2695 
G01 X-37.6535 Y29.3765 
G01 X-37.5277 Y29.4605 
G01 X-37.4972 Y29.4731 
G01 X-37.4653 Y29.5171 
G00 Z2.0000  F3000
G00 X-37.8651 Y28.4661  F3000
G01 Z-0.2000 F200.00 
G01 X-37.8953 Y28.4661 F500.00 
G01 X-37.8432 Y28.3638 
G01 X-37.7697 Y28.2627 
G01 X-37.6813 Y28.1743 
G01 X-37.5802 Y28.1008 
G01 X-37.4862 Y28.0529 
G01 X-37.4667 Y28.0449 
G01 X-37.4972 Y28.0869 
G01 X-37.5277 Y28.0995 
G01 X-37.6535 Y28.1835 
G01 X-37.7605 Y28.2905 
G01 X-37.8445 Y28.4163 
G01 X-37.8651 Y28.4661 
G00 Z2.0000  F3000
G00 X-36.4851 Y27.5161  F3000
G01 Z-0.2000 F200.00 
G01 X-36.2976 Y27.4864 F500.00 
G01 X-36.1170 Y27.4277 
G01 X-35.9479 Y27.3415 
G01 X-35.7943 Y27.2300 
G01 X-35.5900 Y27.0257 
G01 X-35.5228 Y26.9331 
G01 X-35.4923 Y26.9205 
G01 X-35.3665 Y26.8365 
G01 X-35.2595 Y26.7295 
G01 X-35.1755 Y26.6037 
G01 X-35.1176 Y26.4640 
G01 X-35.0881 Y26.3156 
G01 X-35.0881 Y26.1644 
G01 X-35.1176 Y26.0160 
G01 X-35.1755 Y25.8763 
G01 X-35.2595 Y25.7505 
G01 X-35.3665 Y25.6435 
G01 X-35.4923 Y25.5595 
G01 X-35.5228 Y25.5469 
G01 X-35.5900 Y25.4543 
G01 X-35.7243 Y25.3200 
G01 X-35.8779 Y25.2084 
G01 X-36.0470 Y25.1223 
G01 X-36.2276 Y25.0636 
G01 X-36.4151 Y25.0339 
G01 X-36.6049 Y25.0339 
G01 X-36.7924 Y25.0636 
G01 X-36.9165 Y25.1039 
G01 X-39.8449 Y25.1039 
G01 X-40.0324 Y25.1336 
G01 X-40.2130 Y25.1923 
G01 X-40.3821 Y25.2784 
G01 X-40.5357 Y25.3900 
G01 X-40.5798 Y25.4341 
G01 X-40.5983 Y25.4341 
G01 X-40.7675 Y25.4678 
G01 X-40.9269 Y25.5338 
G01 X-41.0704 Y25.6296 
G01 X-41.1924 Y25.7516 
G01 X-41.2882 Y25.8951 
G01 X-41.3542 Y26.0545 
G01 X-41.3879 Y26.2237 
G01 X-41.3879 Y26.3963 
G01 X-41.3542 Y26.5655 
G01 X-41.2882 Y26.7249 
G01 X-41.1924 Y26.8684 
G01 X-41.0704 Y26.9904 
G01 X-40.9269 Y27.0862 
G01 X-40.7675 Y27.1522 
G01 X-40.5983 Y27.1859 
G01 X-40.5798 Y27.1859 
G01 X-40.5357 Y27.2300 
G01 X-40.3821 Y27.3415 
G01 X-40.2130 Y27.4277 
G01 X-40.0324 Y27.4864 
G01 X-39.8449 Y27.5161 
G01 X-36.4851 Y27.5161 
G00 Z2.0000  F3000
G00 X-36.4851 Y24.9761  F3000
G01 Z-0.2000 F200.00 
G01 X-36.2976 Y24.9464 F500.00 
G01 X-36.1170 Y24.8877 
G01 X-35.9479 Y24.8015 
G01 X-35.7943 Y24.6900 
G01 X-35.5900 Y24.4857 
G01 X-35.5228 Y24.3931 
G01 X-35.4923 Y24.3805 
G01 X-35.3665 Y24.2965 
G01 X-35.2595 Y24.1895 
G01 X-35.1755 Y24.0637 
G01 X-35.1176 Y23.9240 
G01 X-35.0881 Y23.7756 
G01 X-35.0881 Y23.6244 
G01 X-35.1176 Y23.4760 
G01 X-35.1755 Y23.3363 
G01 X-35.2595 Y23.2105 
G01 X-35.3665 Y23.1035 
G01 X-35.4923 Y23.0195 
G01 X-35.5228 Y23.0069 
G01 X-35.5900 Y22.9143 
G01 X-35.7243 Y22.7800 
G01 X-35.8779 Y22.6684 
G01 X-36.0470 Y22.5823 
G01 X-36.2276 Y22.5236 
G01 X-36.4151 Y22.4939 
G01 X-36.6049 Y22.4939 
G01 X-36.7924 Y22.5236 
G01 X-36.9165 Y22.5639 
G01 X-39.8449 Y22.5639 
G01 X-40.0324 Y22.5936 
G01 X-40.2130 Y22.6523 
G01 X-40.3821 Y22.7385 
G01 X-40.5357 Y22.8500 
G01 X-40.5798 Y22.8941 
G01 X-40.5983 Y22.8941 
G01 X-40.7675 Y22.9278 
G01 X-40.9269 Y22.9938 
G01 X-41.0704 Y23.0896 
G01 X-41.1924 Y23.2116 
G01 X-41.2882 Y23.3551 
G01 X-41.3542 Y23.5145 
G01 X-41.3879 Y23.6837 
G01 X-41.3879 Y23.8563 
G01 X-41.3542 Y24.0255 
G01 X-41.2882 Y24.1849 
G01 X-41.1924 Y24.3284 
G01 X-41.0704 Y24.4504 
G01 X-40.9269 Y24.5462 
G01 X-40.7675 Y24.6122 
G01 X-40.5983 Y24.6459 
G01 X-40.5798 Y24.6459 
G01 X-40.5357 Y24.6900 
G01 X-40.3821 Y24.8015 
G01 X-40.2130 Y24.8877 
G01 X-40.0324 Y24.9464 
G01 X-39.8449 Y24.9761 
G01 X-36.4851 Y24.9761 
G00 Z2.0000  F3000
G00 X-36.4851 Y22.4361  F3000
G01 Z-0.2000 F200.00 
G01 X-36.2976 Y22.4064 F500.00 
G01 X-36.1170 Y22.3477 
G01 X-35.9479 Y22.2615 
G01 X-35.7943 Y22.1500 
G01 X-35.5900 Y21.9457 
G01 X-35.5228 Y21.8531 
G01 X-35.4923 Y21.8405 
G01 X-35.3665 Y21.7565 
G01 X-35.2595 Y21.6495 
G01 X-35.1755 Y21.5237 
G01 X-35.1176 Y21.3840 
G01 X-35.0881 Y21.2356 
G01 X-35.0881 Y21.0844 
G01 X-35.1176 Y20.9360 
G01 X-35.1755 Y20.7963 
G01 X-35.2595 Y20.6705 
G01 X-35.3665 Y20.5635 
G01 X-35.4923 Y20.4795 
G01 X-35.5228 Y20.4669 
G01 X-35.5900 Y20.3743 
G01 X-35.7243 Y20.2400 
G01 X-35.8779 Y20.1285 
G01 X-36.0470 Y20.0423 
G01 X-36.2276 Y19.9836 
G01 X-36.4151 Y19.9539 
G01 X-36.6049 Y19.9539 
G01 X-36.7924 Y19.9836 
G01 X-36.9165 Y20.0239 
G01 X-39.8449 Y20.0239 
G01 X-40.0324 Y20.0536 
G01 X-40.2130 Y20.1123 
G01 X-40.3821 Y20.1985 
G01 X-40.5357 Y20.3100 
G01 X-40.5798 Y20.3541 
G01 X-40.5983 Y20.3541 
G01 X-40.7675 Y20.3878 
G01 X-40.9269 Y20.4538 
G01 X-41.0704 Y20.5496 
G01 X-41.1924 Y20.6716 
G01 X-41.2882 Y20.8151 
G01 X-41.3542 Y20.9745 
G01 X-41.3879 Y21.1437 
G01 X-41.3879 Y21.3163 
G01 X-41.3542 Y21.4855 
G01 X-41.2882 Y21.6449 
G01 X-41.1924 Y21.7884 
G01 X-41.0704 Y21.9104 
G01 X-40.9269 Y22.0062 
G01 X-40.7675 Y22.0722 
G01 X-40.5983 Y22.1059 
G01 X-40.5798 Y22.1059 
G01 X-40.5357 Y22.1500 
G01 X-40.3821 Y22.2615 
G01 X-40.2130 Y22.3477 
G01 X-40.0324 Y22.4064 
G01 X-39.8449 Y22.4361 
G01 X-36.4851 Y22.4361 
G00 Z2.0000  F3000
G00 X-36.4851 Y19.8961  F3000
G01 Z-0.2000 F200.00 
G01 X-36.2976 Y19.8664 F500.00 
G01 X-36.1170 Y19.8077 
G01 X-35.9479 Y19.7215 
G01 X-35.7943 Y19.6100 
G01 X-35.5900 Y19.4057 
G01 X-35.5228 Y19.3131 
G01 X-35.4923 Y19.3005 
G01 X-35.3665 Y19.2165 
G01 X-35.2595 Y19.1095 
G01 X-35.1755 Y18.9837 
G01 X-35.1176 Y18.8440 
G01 X-35.0881 Y18.6956 
G01 X-35.0881 Y18.5444 
G01 X-35.1176 Y18.3960 
G01 X-35.1755 Y18.2563 
G01 X-35.2595 Y18.1305 
G01 X-35.3665 Y18.0235 
G01 X-35.4923 Y17.9395 
G01 X-35.5228 Y17.9269 
G01 X-35.5900 Y17.8343 
G01 X-35.7243 Y17.7000 
G01 X-35.8779 Y17.5885 
G01 X-36.0470 Y17.5023 
G01 X-36.2276 Y17.4436 
G01 X-36.4151 Y17.4139 
G01 X-36.6049 Y17.4139 
G01 X-36.7924 Y17.4436 
G01 X-36.9165 Y17.4839 
G01 X-39.8449 Y17.4839 
G01 X-40.0324 Y17.5136 
G01 X-40.2130 Y17.5723 
G01 X-40.3821 Y17.6584 
G01 X-40.5357 Y17.7700 
G01 X-40.5798 Y17.8141 
G01 X-40.5983 Y17.8141 
G01 X-40.7675 Y17.8478 
G01 X-40.9269 Y17.9138 
G01 X-41.0704 Y18.0096 
G01 X-41.1924 Y18.1316 
G01 X-41.2882 Y18.2751 
G01 X-41.3542 Y18.4345 
G01 X-41.3879 Y18.6037 
G01 X-41.3879 Y18.7763 
G01 X-41.3542 Y18.9455 
G01 X-41.2882 Y19.1049 
G01 X-41.1924 Y19.2484 
G01 X-41.0704 Y19.3704 
G01 X-40.9269 Y19.4662 
G01 X-40.7675 Y19.5322 
G01 X-40.5983 Y19.5659 
G01 X-40.5798 Y19.5659 
G01 X-40.5357 Y19.6100 
G01 X-40.3821 Y19.7215 
G01 X-40.2130 Y19.8077 
G01 X-40.0324 Y19.8664 
G01 X-39.8449 Y19.8961 
G01 X-36.4851 Y19.8961 
G00 Z2.0000  F3000
G00 X-37.4653 Y14.2771  F3000
G01 Z-0.2000 F200.00 
G01 X-37.4688 Y14.2759 F500.00 
G01 X-37.5802 Y14.2192 
G01 X-37.6813 Y14.1457 
G01 X-37.7697 Y14.0573 
G01 X-37.8432 Y13.9562 
G01 X-37.8953 Y13.8539 
G01 X-37.8651 Y13.8539 
G01 X-37.8445 Y13.9037 
G01 X-37.7605 Y14.0295 
G01 X-37.6535 Y14.1365 
G01 X-37.5277 Y14.2205 
G01 X-37.4972 Y14.2331 
G01 X-37.4653 Y14.2771 
G00 Z2.0000  F3000
G00 X-37.8830 Y13.2261  F3000
G01 Z-0.2000 F200.00 
G01 X-37.8953 Y13.2261 F500.00 
G01 X-37.8911 Y13.2180 
G01 X-37.8830 Y13.2261 
G00 Z2.0000  F3000
G00 X-38.0989 Y12.0401  F3000
G01 Z-0.2000 F200.00 
G01 X-38.1684 Y12.0401 F500.00 
G01 X-38.2041 Y12.0305 
G01 X-38.2360 Y12.0121 
G01 X-38.2621 Y11.9860 
G01 X-38.2805 Y11.9541 
G01 X-38.2901 Y11.9184 
G01 X-38.2901 Y11.3679 
G01 X-38.2639 Y11.3679 
G01 X-38.2639 Y11.9227 
G01 X-38.2466 Y11.9645 
G01 X-38.2145 Y11.9966 
G01 X-38.1727 Y12.0139 
G01 X-38.0989 Y12.0139 
G01 X-38.0989 Y12.0401 
G00 Z2.0000  F3000
G00 X-36.6011 Y12.0401  F3000
G01 Z-0.2000 F200.00 
G01 X-36.6011 Y12.0139 F500.00 
G01 X-36.5273 Y12.0139 
G01 X-36.4855 Y11.9966 
G01 X-36.4534 Y11.9645 
G01 X-36.4361 Y11.9227 
G01 X-36.4361 Y11.3679 
G01 X-36.4099 Y11.3679 
G01 X-36.4099 Y11.9184 
G01 X-36.4194 Y11.9541 
G01 X-36.4327 Y11.9770 
G01 X-36.4730 Y12.0173 
G01 X-36.4959 Y12.0305 
G01 X-36.5316 Y12.0401 
G01 X-36.6011 Y12.0401 
G00 Z2.0000  F3000
G00 X-36.4361 Y10.6321  F3000
G01 Z-0.2000 F200.00 
G01 X-36.4361 Y10.0773 F500.00 
G01 X-36.4534 Y10.0355 
G01 X-36.4855 Y10.0034 
G01 X-36.5273 Y9.9861 
G01 X-36.9821 Y9.9861 
G01 X-36.9821 Y9.9599 
G01 X-36.5316 Y9.9599 
G01 X-36.4959 Y9.9694 
G01 X-36.4640 Y9.9879 
G01 X-36.4379 Y10.0140 
G01 X-36.4194 Y10.0459 
G01 X-36.4099 Y10.0816 
G01 X-36.4099 Y10.6321 
G01 X-36.4361 Y10.6321 
G00 Z2.0000  F3000
G00 X-38.2639 Y10.6321  F3000
G01 Z-0.2000 F200.00 
G01 X-38.2901 Y10.6321 F500.00 
G01 X-38.2901 Y10.0816 
G01 X-38.2805 Y10.0459 
G01 X-38.2621 Y10.0140 
G01 X-38.2360 Y9.9879 
G01 X-38.2041 Y9.9694 
G01 X-38.1684 Y9.9599 
G01 X-37.7179 Y9.9599 
G01 X-37.7179 Y9.9861 
G01 X-38.1727 Y9.9861 
G01 X-38.2145 Y10.0034 
G01 X-38.2466 Y10.0355 
G01 X-38.2639 Y10.0773 
G01 X-38.2639 Y10.6321 
G00 Z2.0000  F3000
G00 X-37.1809 Y6.5191  F3000
G01 Z-0.2000 F200.00 
G01 X-37.5191 Y6.1809 F500.00 
G01 X-37.7021 Y5.7391 
G01 X-37.7021 Y5.2609 
G01 X-37.5191 Y4.8191 
G01 X-37.1809 Y4.4809 
G01 X-36.7391 Y4.2979 
G01 X-36.2609 Y4.2979 
G01 X-35.8191 Y4.4809 
G01 X-35.4809 Y4.8191 
G01 X-35.2979 Y5.2609 
G01 X-35.2979 Y5.7391 
G01 X-35.4809 Y6.1809 
G01 X-35.8191 Y6.5191 
G01 X-36.2609 Y6.7021 
G01 X-36.7391 Y6.7021 
G01 X-37.1809 Y6.5191 
G00 Z2.0000  F3000
G00 X-27.1921 Y7.1179  F3000
G01 Z-0.2000 F200.00 
G01 X-27.1659 Y7.1179 F500.00 
G01 X-27.1659 Y7.5983 
G01 X-27.1322 Y7.7675 
G01 X-27.0662 Y7.9269 
G01 X-26.9704 Y8.0704 
G01 X-26.8484 Y8.1924 
G01 X-26.7049 Y8.2882 
G01 X-26.6579 Y8.3077 
G01 X-26.6579 Y8.3370 
G01 X-26.7628 Y8.2835 
G01 X-26.8777 Y8.2001 
G01 X-26.9781 Y8.0997 
G01 X-27.0615 Y7.9848 
G01 X-27.1260 Y7.8583 
G01 X-27.1699 Y7.7232 
G01 X-27.1921 Y7.5830 
G01 X-27.1921 Y7.1179 
G00 Z2.0000  F3000
G00 X-25.4141 Y7.1179  F3000
G01 Z-0.2000 F200.00 
G01 X-25.3879 Y7.1179 F500.00 
G01 X-25.3879 Y7.5830 
G01 X-25.4101 Y7.7232 
G01 X-25.4540 Y7.8583 
G01 X-25.5184 Y7.9848 
G01 X-25.6019 Y8.0997 
G01 X-25.7023 Y8.2001 
G01 X-25.8172 Y8.2835 
G01 X-25.9221 Y8.3370 
G01 X-25.9221 Y8.3077 
G01 X-25.8751 Y8.2882 
G01 X-25.7316 Y8.1924 
G01 X-25.6096 Y8.0704 
G01 X-25.5138 Y7.9269 
G01 X-25.4478 Y7.7675 
G01 X-25.4141 Y7.5983 
G01 X-25.4141 Y7.1179 
G00 Z2.0000  F3000
G00 X-25.4141 Y6.3821  F3000
G01 Z-0.2000 F200.00 
G01 X-25.4141 Y5.9017 F500.00 
G01 X-25.4478 Y5.7325 
G01 X-25.5138 Y5.5731 
G01 X-25.6096 Y5.4296 
G01 X-25.7316 Y5.3076 
G01 X-25.8751 Y5.2118 
G01 X-25.9221 Y5.1923 
G01 X-25.9221 Y5.1630 
G01 X-25.8172 Y5.2164 
G01 X-25.7023 Y5.2999 
G01 X-25.6019 Y5.4003 
G01 X-25.5184 Y5.5152 
G01 X-25.4540 Y5.6417 
G01 X-25.4101 Y5.7768 
G01 X-25.3879 Y5.9170 
G01 X-25.3879 Y6.3821 
G01 X-25.4141 Y6.3821 
G00 Z2.0000  F3000
G00 X-24.6259 Y5.9017  F3000
G01 Z-0.2000 F200.00 
G01 X-24.6259 Y7.5983 F500.00 
G01 X-24.5922 Y7.7675 
G01 X-24.5589 Y7.8480 
G01 X-24.5589 Y12.7759 
G01 X-24.6880 Y12.8016 
G01 X-24.8277 Y12.8595 
G01 X-24.9535 Y12.9435 
G01 X-25.0605 Y13.0505 
G01 X-25.1445 Y13.1763 
G01 X-25.2024 Y13.3160 
G01 X-25.2319 Y13.4644 
G01 X-25.2319 Y13.6156 
G01 X-25.2024 Y13.7640 
G01 X-25.1445 Y13.9037 
G01 X-25.0605 Y14.0295 
G01 X-24.9535 Y14.1365 
G01 X-24.8277 Y14.2205 
G01 X-24.6880 Y14.2784 
G01 X-24.5396 Y14.3079 
G01 X-23.0804 Y14.3079 
G01 X-22.9320 Y14.2784 
G01 X-22.7923 Y14.2205 
G01 X-22.6665 Y14.1365 
G01 X-22.5595 Y14.0295 
G01 X-22.4755 Y13.9037 
G01 X-22.4176 Y13.7640 
G01 X-22.3881 Y13.6156 
G01 X-22.3881 Y13.4644 
G01 X-22.4176 Y13.3160 
G01 X-22.4755 Y13.1763 
G01 X-22.5595 Y13.0505 
G01 X-22.6665 Y12.9435 
G01 X-22.7923 Y12.8595 
G01 X-22.9320 Y12.8016 
G01 X-23.0611 Y12.7759 
G01 X-23.0611 Y8.0576 
G01 X-22.9738 Y7.9269 
G01 X-22.9078 Y7.7675 
G01 X-22.8741 Y7.5983 
G01 X-22.8741 Y5.9017 
G01 X-22.9078 Y5.7325 
G01 X-22.9738 Y5.5731 
G01 X-23.0696 Y5.4296 
G01 X-23.1916 Y5.3076 
G01 X-23.3351 Y5.2118 
G01 X-23.4945 Y5.1458 
G01 X-23.6637 Y5.1121 
G01 X-23.8363 Y5.1121 
G01 X-24.0055 Y5.1458 
G01 X-24.1649 Y5.2118 
G01 X-24.3084 Y5.3076 
G01 X-24.4304 Y5.4296 
G01 X-24.5262 Y5.5731 
G01 X-24.5922 Y5.7325 
G01 X-24.6259 Y5.9017 
G00 Z2.0000  F3000
G00 X-22.0859 Y5.9017  F3000
G01 Z-0.2000 F200.00 
G01 X-22.0859 Y7.5983 F500.00 
G01 X-22.0522 Y7.7675 
G01 X-21.9862 Y7.9269 
G01 X-21.9589 Y7.9678 
G01 X-21.9589 Y8.7742 
G01 X-22.0357 Y8.8300 
G01 X-22.1700 Y8.9643 
G01 X-22.2815 Y9.1179 
G01 X-22.3677 Y9.2870 
G01 X-22.4264 Y9.4676 
G01 X-22.4561 Y9.6551 
G01 X-22.4561 Y9.8449 
G01 X-22.4264 Y10.0324 
G01 X-22.3677 Y10.2130 
G01 X-22.2815 Y10.3821 
G01 X-22.1700 Y10.5357 
G01 X-22.0357 Y10.6700 
G01 X-21.8821 Y10.7815 
G01 X-21.7130 Y10.8677 
G01 X-21.5324 Y10.9264 
G01 X-21.3449 Y10.9561 
G01 X-21.1551 Y10.9561 
G01 X-20.9676 Y10.9264 
G01 X-20.7870 Y10.8677 
G01 X-20.6179 Y10.7815 
G01 X-20.4643 Y10.6700 
G01 X-20.3300 Y10.5357 
G01 X-20.2185 Y10.3821 
G01 X-20.1323 Y10.2130 
G01 X-20.0736 Y10.0324 
G01 X-20.0439 Y9.8449 
G01 X-20.0439 Y9.6551 
G01 X-20.0736 Y9.4676 
G01 X-20.1323 Y9.2870 
G01 X-20.2185 Y9.1179 
G01 X-20.3300 Y8.9643 
G01 X-20.4611 Y8.8332 
G01 X-20.4611 Y7.9678 
G01 X-20.4338 Y7.9269 
G01 X-20.3678 Y7.7675 
G01 X-20.3341 Y7.5983 
G01 X-20.3341 Y5.9017 
G01 X-20.3678 Y5.7325 
G01 X-20.4338 Y5.5731 
G01 X-20.5296 Y5.4296 
G01 X-20.6516 Y5.3076 
G01 X-20.7951 Y5.2118 
G01 X-20.9545 Y5.1458 
G01 X-21.1237 Y5.1121 
G01 X-21.2963 Y5.1121 
G01 X-21.4655 Y5.1458 
G01 X-21.6249 Y5.2118 
G01 X-21.7684 Y5.3076 
G01 X-21.8904 Y5.4296 
G01 X-21.9862 Y5.5731 
G01 X-22.0522 Y5.7325 
G01 X-22.0859 Y5.9017 
G00 Z2.0000  F3000
G00 X-14.8953 Y5.6490  F3000
G01 Z-0.2000 F200.00 
G01 X-14.9160 Y5.6283 F500.00 
G01 X-14.8999 Y5.5268 
G01 X-14.8560 Y5.3917 
G01 X-14.8078 Y5.2972 
G01 X-14.8009 Y5.2903 
G01 X-14.7862 Y5.2547 
G01 X-14.7688 Y5.2205 
G01 X-14.7680 Y5.2107 
G01 X-14.7642 Y5.2017 
G01 X-14.7642 Y5.1633 
G01 X-14.7612 Y5.1249 
G01 X-14.7642 Y5.1156 
G01 X-14.7642 Y5.1059 
G01 X-14.7790 Y5.0704 
G01 X-14.7908 Y5.0338 
G01 X-14.7972 Y5.0264 
G01 X-14.8009 Y5.0173 
G01 X-14.8281 Y4.9902 
G01 X-14.8531 Y4.9609 
G01 X-14.8618 Y4.9565 
G01 X-14.8687 Y4.9496 
G01 X-14.9042 Y4.9349 
G01 X-14.9385 Y4.9174 
G01 X-14.9482 Y4.9166 
G01 X-14.9572 Y4.9129 
G01 X-14.9715 Y4.9129 
G01 X-15.3218 Y4.7678 
G01 X-15.5898 Y4.4998 
G01 X-15.7349 Y4.1495 
G01 X-15.7349 Y3.7705 
G01 X-15.5759 Y3.3866 
G01 X-15.5759 Y2.2689 
G01 X-15.6126 Y2.1803 
G01 X-15.6803 Y2.1126 
G01 X-15.7689 Y2.0759 
G01 X-16.9811 Y2.0759 
G01 X-17.0697 Y2.1126 
G01 X-17.1374 Y2.1803 
G01 X-17.1741 Y2.2689 
G01 X-17.1741 Y11.5805 
G01 X-17.1374 Y11.6690 
G01 X-17.0707 Y11.7357 
G01 X-17.0337 Y11.7517 
G01 X-16.9811 Y11.7734 
G01 X-16.8853 Y11.7734 
G01 X-16.7967 Y11.7368 
G01 X-16.7291 Y11.6691 
G01 X-15.2709 Y11.6691 
G01 X-15.2033 Y11.7368 
G01 X-15.1147 Y11.7734 
G01 X-15.0189 Y11.7734 
G01 X-14.9678 Y11.7523 
G01 X-14.9303 Y11.7368 
G01 X-14.8626 Y11.6690 
G01 X-14.8259 Y11.5805 
G01 X-14.8259 Y10.1663 
G01 X-14.8626 Y10.0777 
G01 X-14.9303 Y10.0100 
G01 X-15.0189 Y9.9733 
G01 X-15.3218 Y9.8478 
G01 X-15.5898 Y9.5798 
G01 X-15.7349 Y9.2295 
G01 X-15.7349 Y8.8504 
G01 X-15.5898 Y8.5002 
G01 X-15.3218 Y8.2322 
G01 X-14.9715 Y8.0871 
G01 X-14.9572 Y8.0871 
G01 X-14.9482 Y8.0834 
G01 X-14.9385 Y8.0826 
G01 X-14.9042 Y8.0651 
G01 X-14.8687 Y8.0504 
G01 X-14.8618 Y8.0435 
G01 X-14.8531 Y8.0391 
G01 X-14.8281 Y8.0098 
G01 X-14.8009 Y7.9827 
G01 X-14.7972 Y7.9736 
G01 X-14.7908 Y7.9662 
G01 X-14.7790 Y7.9296 
G01 X-14.7642 Y7.8941 
G01 X-14.7642 Y7.8844 
G01 X-14.7612 Y7.8751 
G01 X-14.7642 Y7.8367 
G01 X-14.7642 Y7.7983 
G01 X-14.7680 Y7.7893 
G01 X-14.7688 Y7.7795 
G01 X-14.7862 Y7.7453 
G01 X-14.8009 Y7.7097 
G01 X-14.8078 Y7.7028 
G01 X-14.8560 Y7.6083 
G01 X-14.8999 Y7.4732 
G01 X-14.9160 Y7.3717 
G01 X-14.8953 Y7.3510 
G01 X-14.8622 Y7.5175 
G01 X-14.7962 Y7.6769 
G01 X-14.7004 Y7.8204 
G01 X-14.5784 Y7.9424 
G01 X-14.4349 Y8.0382 
G01 X-14.2755 Y8.1042 
G01 X-14.1063 Y8.1379 
G01 X-13.9337 Y8.1379 
G01 X-13.7645 Y8.1042 
G01 X-13.6051 Y8.0382 
G01 X-13.4616 Y7.9424 
G01 X-13.3396 Y7.8204 
G01 X-13.2438 Y7.6769 
G01 X-13.1778 Y7.5175 
G01 X-13.1441 Y7.3483 
G01 X-13.1441 Y5.6517 
G01 X-13.1778 Y5.4825 
G01 X-13.2438 Y5.3231 
G01 X-13.3396 Y5.1796 
G01 X-13.4616 Y5.0576 
G01 X-13.6051 Y4.9618 
G01 X-13.7645 Y4.8958 
G01 X-13.9337 Y4.8621 
G01 X-14.1063 Y4.8621 
G01 X-14.2755 Y4.8958 
G01 X-14.4349 Y4.9618 
G01 X-14.5784 Y5.0576 
G01 X-14.7004 Y5.1796 
G01 X-14.7962 Y5.3231 
G01 X-14.8622 Y5.4825 
G01 X-14.8953 Y5.6490 
G00 Z2.0000  F3000
G00 X-15.6140 Y16.5379  F3000
G01 Z-0.2000 F200.00 
G01 X-15.5879 Y16.5640 F500.00 
G01 X-15.5694 Y16.5959 
G01 X-15.5599 Y16.6316 
G01 X-15.5599 Y16.9321 
G01 X-15.5861 Y16.9321 
G01 X-15.5861 Y16.6273 
G01 X-15.6034 Y16.5855 
G01 X-15.6355 Y16.5534 
G01 X-15.6773 Y16.5361 
G01 X-15.9093 Y16.5361 
G01 X-15.9183 Y16.5226 
G01 X-15.9310 Y16.5099 
G01 X-15.6816 Y16.5099 
G01 X-15.6459 Y16.5194 
G01 X-15.6140 Y16.5379 
G00 Z2.0000  F3000
G00 X-17.9599 Y16.9989  F3000
G01 Z-0.2000 F200.00 
G01 X-17.9599 Y17.1684 F500.00 
G01 X-17.9694 Y17.2041 
G01 X-17.9879 Y17.2360 
G01 X-18.0140 Y17.2621 
G01 X-18.0459 Y17.2806 
G01 X-18.0816 Y17.2901 
G01 X-18.6321 Y17.2901 
G01 X-18.6321 Y17.2639 
G01 X-18.0773 Y17.2639 
G01 X-18.0355 Y17.2466 
G01 X-18.0034 Y17.2145 
G01 X-17.9861 Y17.1727 
G01 X-17.9861 Y16.9989 
G01 X-17.9599 Y16.9989 
G00 Z2.0000  F3000
G00 X-17.9681 Y15.5011  F3000
G01 Z-0.2000 F200.00 
G01 X-17.9970 Y15.5011 F500.00 
G01 X-18.0034 Y15.4855 
G01 X-18.0355 Y15.4534 
G01 X-18.0773 Y15.4361 
G01 X-18.6321 Y15.4361 
G01 X-18.6321 Y15.4099 
G01 X-18.0816 Y15.4099 
G01 X-18.0459 Y15.4194 
G01 X-18.0140 Y15.4379 
G01 X-17.9879 Y15.4640 
G01 X-17.9694 Y15.4959 
G01 X-17.9681 Y15.5011 
G00 Z2.0000  F3000
G00 X-20.2143 Y15.1700  F3000
G01 Z-0.2000 F200.00 
G01 X-20.0800 Y15.0357 F500.00 
G01 X-19.9685 Y14.8821 
G01 X-19.8823 Y14.7130 
G01 X-19.8236 Y14.5324 
G01 X-19.7939 Y14.3449 
G01 X-19.7939 Y14.1551 
G01 X-19.8236 Y13.9676 
G01 X-19.8823 Y13.7870 
G01 X-19.9685 Y13.6179 
G01 X-20.0800 Y13.4643 
G01 X-20.2143 Y13.3300 
G01 X-20.3679 Y13.2185 
G01 X-20.5370 Y13.1323 
G01 X-20.7176 Y13.0736 
G01 X-20.9051 Y13.0439 
G01 X-21.0949 Y13.0439 
G01 X-21.2824 Y13.0736 
G01 X-21.4630 Y13.1323 
G01 X-21.6321 Y13.2185 
G01 X-21.7857 Y13.3300 
G01 X-21.9200 Y13.4643 
G01 X-22.0315 Y13.6179 
G01 X-22.1177 Y13.7870 
G01 X-22.1764 Y13.9676 
G01 X-22.2061 Y14.1551 
G01 X-22.2061 Y14.3449 
G01 X-22.1764 Y14.5324 
G01 X-22.1177 Y14.7130 
G01 X-22.0854 Y14.7763 
G01 X-22.5602 Y15.2511 
G01 X-23.8038 Y15.2511 
G01 X-23.9484 Y15.2799 
G01 X-24.0262 Y15.3121 
G01 X-24.5396 Y15.3121 
G01 X-24.6880 Y15.3416 
G01 X-24.8277 Y15.3995 
G01 X-24.9535 Y15.4835 
G01 X-25.0605 Y15.5905 
G01 X-25.1445 Y15.7163 
G01 X-25.2024 Y15.8560 
G01 X-25.2319 Y16.0044 
G01 X-25.2319 Y16.1556 
G01 X-25.2024 Y16.3040 
G01 X-25.1445 Y16.4437 
G01 X-25.0605 Y16.5695 
G01 X-24.9535 Y16.6765 
G01 X-24.8277 Y16.7605 
G01 X-24.6880 Y16.8184 
G01 X-24.5396 Y16.8479 
G01 X-23.0804 Y16.8479 
G01 X-22.9320 Y16.8184 
G01 X-22.7923 Y16.7605 
G01 X-22.7749 Y16.7489 
G01 X-22.1762 Y16.7489 
G01 X-22.0316 Y16.7201 
G01 X-21.8953 Y16.6637 
G01 X-21.7726 Y16.5817 
G01 X-21.6683 Y16.4774 
G01 X-20.6683 Y15.4774 
G01 X-20.6111 Y15.3918 
G01 X-20.5370 Y15.3677 
G01 X-20.3679 Y15.2815 
G01 X-20.2143 Y15.1700 
G00 Z2.0000  F3000
G00 X-20.0401 Y16.7179  F3000
G01 Z-0.2000 F200.00 
G01 X-20.0139 Y16.7179 F500.00 
G01 X-20.0139 Y17.1727 
G01 X-19.9966 Y17.2145 
G01 X-19.9645 Y17.2466 
G01 X-19.9227 Y17.2639 
G01 X-19.3679 Y17.2639 
G01 X-19.3679 Y17.2901 
G01 X-19.9184 Y17.2901 
G01 X-19.9541 Y17.2805 
G01 X-19.9860 Y17.2621 
G01 X-20.0121 Y17.2360 
G01 X-20.0305 Y17.2041 
G01 X-20.0401 Y17.1684 
G01 X-20.0401 Y16.7179 
G00 Z2.0000  F3000
G00 X-22.5595 Y18.1305  F3000
G01 Z-0.2000 F200.00 
G01 X-22.6665 Y18.0235 F500.00 
G01 X-22.7923 Y17.9395 
G01 X-22.9320 Y17.8816 
G01 X-23.0804 Y17.8521 
G01 X-24.5396 Y17.8521 
G01 X-24.6880 Y17.8816 
G01 X-24.8277 Y17.9395 
G01 X-24.9535 Y18.0235 
G01 X-25.0605 Y18.1305 
G01 X-25.1445 Y18.2563 
G01 X-25.2024 Y18.3960 
G01 X-25.2319 Y18.5444 
G01 X-25.2319 Y18.6956 
G01 X-25.2024 Y18.8440 
G01 X-25.1445 Y18.9837 
G01 X-25.0605 Y19.1095 
G01 X-24.9535 Y19.2165 
G01 X-24.8277 Y19.3005 
G01 X-24.6880 Y19.3584 
G01 X-24.5589 Y19.3841 
G01 X-24.5589 Y20.3959 
G01 X-24.6880 Y20.4216 
G01 X-24.8277 Y20.4795 
G01 X-24.9535 Y20.5635 
G01 X-25.0605 Y20.6705 
G01 X-25.1445 Y20.7963 
G01 X-25.2024 Y20.9360 
G01 X-25.2319 Y21.0844 
G01 X-25.2319 Y21.2356 
G01 X-25.2024 Y21.3840 
G01 X-25.1445 Y21.5237 
G01 X-25.0605 Y21.6495 
G01 X-24.9535 Y21.7565 
G01 X-24.8277 Y21.8405 
G01 X-24.6880 Y21.8984 
G01 X-24.5396 Y21.9279 
G01 X-23.0804 Y21.9279 
G01 X-22.9320 Y21.8984 
G01 X-22.7923 Y21.8405 
G01 X-22.6665 Y21.7565 
G01 X-22.5595 Y21.6495 
G01 X-22.4755 Y21.5237 
G01 X-22.4176 Y21.3840 
G01 X-22.3881 Y21.2356 
G01 X-22.3881 Y21.0844 
G01 X-22.4176 Y20.9360 
G01 X-22.4755 Y20.7963 
G01 X-22.5595 Y20.6705 
G01 X-22.6665 Y20.5635 
G01 X-22.7923 Y20.4795 
G01 X-22.9320 Y20.4216 
G01 X-23.0611 Y20.3959 
G01 X-23.0611 Y19.3841 
G01 X-22.9320 Y19.3584 
G01 X-22.7923 Y19.3005 
G01 X-22.6665 Y19.2165 
G01 X-22.5595 Y19.1095 
G01 X-22.4755 Y18.9837 
G01 X-22.4176 Y18.8440 
G01 X-22.3881 Y18.6956 
G01 X-22.3881 Y18.5444 
G01 X-22.4176 Y18.3960 
G01 X-22.4755 Y18.2563 
G01 X-22.5595 Y18.1305 
G00 Z2.0000  F3000
G00 X-18.2662 Y35.0639  F3000
G01 Z-0.2000 F200.00 
G01 X-18.1522 Y34.9981 F500.00 
G01 X-17.9809 Y34.9271 
G01 X-17.8017 Y34.8791 
G01 X-17.6178 Y34.8549 
G01 X-16.6179 Y34.8549 
G01 X-16.6179 Y34.8811 
G01 X-17.6343 Y34.8811 
G01 X-17.8502 Y34.9153 
G01 X-18.0582 Y34.9829 
G01 X-18.2172 Y35.0639 
G01 X-18.2662 Y35.0639 
G00 Z2.0000  F3000
G00 X-18.2662 Y37.4761  F3000
G01 Z-0.2000 F200.00 
G01 X-18.2172 Y37.4761 F500.00 
G01 X-18.0582 Y37.5571 
G01 X-17.8502 Y37.6247 
G01 X-17.6343 Y37.6589 
G01 X-16.6179 Y37.6589 
G01 X-16.6179 Y37.6851 
G01 X-17.6178 Y37.6851 
G01 X-17.8017 Y37.6609 
G01 X-17.9809 Y37.6129 
G01 X-18.1522 Y37.5419 
G01 X-18.2662 Y37.4761 
G00 Z2.0000  F3000
G00 X-15.8821 Y37.6589  F3000
G01 Z-0.2000 F200.00 
G01 X-14.8657 Y37.6589 F500.00 
G01 X-14.6498 Y37.6247 
G01 X-14.4418 Y37.5571 
G01 X-14.2475 Y37.4581 
G01 X-14.1537 Y37.5520 
G01 X-14.1562 Y37.5510 
G01 X-14.1840 Y37.5349 
G01 X-14.2001 Y37.5328 
G01 X-14.2150 Y37.5266 
G01 X-14.2472 Y37.5266 
G01 X-14.2790 Y37.5224 
G01 X-14.2947 Y37.5266 
G01 X-14.3109 Y37.5266 
G01 X-14.3406 Y37.5389 
G01 X-14.3716 Y37.5472 
G01 X-14.3844 Y37.5571 
G01 X-14.5192 Y37.6129 
G01 X-14.6983 Y37.6609 
G01 X-14.8822 Y37.6851 
G01 X-15.8821 Y37.6851 
G01 X-15.8821 Y37.6589 
G00 Z2.0000  F3000
G00 X-14.0411 Y37.6645  F3000
G01 Z-0.2000 F200.00 
G01 X-14.0004 Y37.7053 F500.00 
G01 X-13.9966 Y37.7145 
G01 X-13.9645 Y37.7466 
G01 X-13.9553 Y37.7504 
G01 X-13.9357 Y37.7700 
G01 X-13.9080 Y37.7901 
G01 X-13.9184 Y37.7901 
G01 X-13.9541 Y37.7805 
G01 X-13.9860 Y37.7621 
G01 X-14.0121 Y37.7360 
G01 X-14.0232 Y37.7168 
G01 X-14.0343 Y37.6899 
G01 X-14.0411 Y37.6645 
G00 Z2.0000  F3000
G00 X-12.2420 Y37.7901  F3000
G01 Z-0.2000 F200.00 
G01 X-12.2143 Y37.7700 F500.00 
G01 X-12.2082 Y37.7639 
G01 X-12.0773 Y37.7639 
G01 X-12.0355 Y37.7466 
G01 X-12.0034 Y37.7145 
G01 X-11.9861 Y37.6727 
G01 X-11.9861 Y37.5064 
G01 X-11.9685 Y37.4821 
G01 X-11.9599 Y37.4653 
G01 X-11.9599 Y37.6684 
G01 X-11.9694 Y37.7041 
G01 X-11.9879 Y37.7360 
G01 X-12.0140 Y37.7621 
G01 X-12.0459 Y37.7805 
G01 X-12.0816 Y37.7901 
G01 X-12.2420 Y37.7901 
G00 Z2.0000  F3000
G00 X-12.5389 Y33.5501  F3000
G01 Z-0.2000 F200.00 
G01 X-12.6084 Y33.5501 F500.00 
G01 X-12.6441 Y33.5405 
G01 X-12.6760 Y33.5221 
G01 X-12.7021 Y33.4960 
G01 X-12.7205 Y33.4641 
G01 X-12.7301 Y33.4284 
G01 X-12.7301 Y32.8779 
G01 X-12.7039 Y32.8779 
G01 X-12.7039 Y33.4327 
G01 X-12.6866 Y33.4745 
G01 X-12.6545 Y33.5066 
G01 X-12.6127 Y33.5239 
G01 X-12.5389 Y33.5239 
G01 X-12.5389 Y33.5501 
G00 Z2.0000  F3000
G00 X-11.0411 Y33.5501  F3000
G01 Z-0.2000 F200.00 
G01 X-11.0411 Y33.5239 F500.00 
G01 X-10.9673 Y33.5239 
G01 X-10.9255 Y33.5066 
G01 X-10.8934 Y33.4745 
G01 X-10.8761 Y33.4327 
G01 X-10.8761 Y33.2561 
G01 X-10.8499 Y33.2560 
G01 X-10.8499 Y33.4284 
G01 X-10.8594 Y33.4641 
G01 X-10.8779 Y33.4960 
G01 X-10.9040 Y33.5221 
G01 X-10.9359 Y33.5405 
G01 X-10.9716 Y33.5501 
G01 X-11.0411 Y33.5501 
G00 Z2.0000  F3000
G00 X-10.8761 Y31.7583  F3000
G01 Z-0.2000 F200.00 
G01 X-10.8761 Y31.5873 F500.00 
G01 X-10.8934 Y31.5455 
G01 X-10.9255 Y31.5134 
G01 X-10.9673 Y31.4961 
G01 X-11.4221 Y31.4961 
G01 X-11.4221 Y31.4699 
G01 X-10.9716 Y31.4699 
G01 X-10.9359 Y31.4794 
G01 X-10.9040 Y31.4979 
G01 X-10.8779 Y31.5240 
G01 X-10.8594 Y31.5559 
G01 X-10.8499 Y31.5916 
G01 X-10.8499 Y31.7582 
G01 X-10.8761 Y31.7583 
G00 Z2.0000  F3000
G00 X-12.1579 Y31.4961  F3000
G01 Z-0.2000 F200.00 
G01 X-12.6127 Y31.4961 F500.00 
G01 X-12.6545 Y31.5134 
G01 X-12.6866 Y31.5455 
G01 X-12.7039 Y31.5873 
G01 X-12.7039 Y32.1421 
G01 X-12.7301 Y32.1421 
G01 X-12.7301 Y31.5916 
G01 X-12.7205 Y31.5559 
G01 X-12.7021 Y31.5240 
G01 X-12.6760 Y31.4979 
G01 X-12.6441 Y31.4794 
G01 X-12.6084 Y31.4699 
G01 X-12.1579 Y31.4699 
G01 X-12.1579 Y31.4961 
G00 Z2.0000  F3000
G00 X-14.2684 Y35.0439  F3000
G01 Z-0.2000 F200.00 
G01 X-14.3220 Y35.0439 F500.00 
G01 X-14.4418 Y34.9829 
G01 X-14.6498 Y34.9153 
G01 X-14.8657 Y34.8811 
G01 X-15.8821 Y34.8811 
G01 X-15.8821 Y34.8549 
G01 X-14.8822 Y34.8549 
G01 X-14.6983 Y34.8791 
G01 X-14.5191 Y34.9271 
G01 X-14.3478 Y34.9981 
G01 X-14.2684 Y35.0439 
G00 Z2.0000  F3000
G00 X-5.9309 Y35.9809  F3000
G01 Z-0.2000 F200.00 
G01 X-5.4891 Y35.7979 F500.00 
G01 X-5.0109 Y35.7979 
G01 X-4.5691 Y35.9809 
G01 X-4.2309 Y36.3191 
G01 X-4.0479 Y36.7609 
G01 X-4.0479 Y37.2391 
G01 X-4.2309 Y37.6809 
G01 X-4.5691 Y38.0191 
G01 X-5.0109 Y38.2021 
G01 X-5.4891 Y38.2021 
G01 X-5.9309 Y38.0191 
G01 X-6.2691 Y37.6809 
G01 X-6.4521 Y37.2391 
G01 X-6.4521 Y36.7609 
G01 X-6.2691 Y36.3191 
G01 X-5.9309 Y35.9809 
G00 Z2.0000  F3000
G00 X-4.5933 Y1.3289  F3000
G01 Z-0.2000 F200.00 
G01 X-1.3289 Y4.5933 F500.00 
G01 X-1.3289 Y7.1567 
G01 X-3.0933 Y8.9211 
G01 X-4.8316 Y8.9211 
G01 X-4.9918 Y8.9530 
G01 X-5.1426 Y9.0154 
G01 X-5.2784 Y9.1061 
G01 X-5.3938 Y9.2216 
G01 X-6.6438 Y10.4716 
G01 X-6.7346 Y10.6074 
G01 X-6.7970 Y10.7582 
G01 X-6.8289 Y10.9184 
G01 X-6.8289 Y12.5816 
G01 X-6.7970 Y12.7418 
G01 X-6.7346 Y12.8926 
G01 X-6.6438 Y13.0284 
G01 X-6.5284 Y13.1438 
G01 X-3.5789 Y16.0933 
G01 X-3.5789 Y24.6096 
G01 X-3.6188 Y24.5696 
G01 X-3.6717 Y24.5387 
G01 X-3.6929 Y24.5264 
G01 X-3.7299 Y24.5165 
G01 X-3.7745 Y24.5046 
G01 X-3.8402 Y24.5046 
G01 X-3.7654 Y24.3926 
G01 X-3.7030 Y24.2418 
G01 X-3.6711 Y24.0816 
G01 X-3.6711 Y19.6684 
G01 X-3.7030 Y19.5082 
G01 X-3.7654 Y19.3574 
G01 X-3.8561 Y19.2216 
G01 X-3.9716 Y19.1061 
G01 X-5.9716 Y17.1061 
G01 X-6.1074 Y17.0154 
G01 X-6.1711 Y16.9890 
G01 X-6.1711 Y16.2375 
G01 X-6.1622 Y16.2310 
G01 X-6.0190 Y16.0878 
G01 X-5.9000 Y15.9241 
G01 X-5.8081 Y15.7437 
G01 X-5.7456 Y15.5512 
G01 X-5.7139 Y15.3512 
G01 X-5.7139 Y15.1488 
G01 X-5.7456 Y14.9488 
G01 X-5.8081 Y14.7563 
G01 X-5.9000 Y14.5759 
G01 X-6.0190 Y14.4122 
G01 X-6.1622 Y14.2690 
G01 X-6.3259 Y14.1500 
G01 X-6.5063 Y14.0581 
G01 X-6.6988 Y13.9956 
G01 X-6.8988 Y13.9639 
G01 X-7.1012 Y13.9639 
G01 X-7.3012 Y13.9956 
G01 X-7.4937 Y14.0581 
G01 X-7.6741 Y14.1500 
G01 X-7.8378 Y14.2690 
G01 X-7.9810 Y14.4122 
G01 X-8.1000 Y14.5759 
G01 X-8.1919 Y14.7563 
G01 X-8.2544 Y14.9488 
G01 X-8.2861 Y15.1488 
G01 X-8.2861 Y15.3512 
G01 X-8.2627 Y15.4986 
G01 X-8.2714 Y15.4920 
G01 X-8.2910 Y15.4839 
G01 X-8.3093 Y15.4733 
G01 X-8.3298 Y15.4678 
G01 X-8.3494 Y15.4597 
G01 X-8.3705 Y15.4569 
G01 X-8.3910 Y15.4514 
G01 X-8.4122 Y15.4514 
G01 X-8.4332 Y15.4487 
G01 X-8.4542 Y15.4514 
G01 X-8.4754 Y15.4514 
G01 X-8.4959 Y15.4569 
G01 X-8.5170 Y15.4597 
G01 X-8.5366 Y15.4678 
G01 X-8.5571 Y15.4733 
G01 X-8.5754 Y15.4839 
G01 X-8.5950 Y15.4920 
G01 X-8.6119 Y15.5049 
G01 X-8.6302 Y15.5156 
G01 X-8.6452 Y15.5305 
G01 X-8.6621 Y15.5435 
G01 X-8.6711 Y15.5552 
G01 X-8.6711 Y7.1684 
G01 X-8.7030 Y7.0082 
G01 X-8.7654 Y6.8574 
G01 X-8.8561 Y6.7216 
G01 X-8.9716 Y6.6062 
G01 X-9.7216 Y5.8562 
G01 X-9.8574 Y5.7654 
G01 X-10.0082 Y5.7030 
G01 X-10.1684 Y5.6711 
G01 X-10.2380 Y5.6711 
G01 X-10.2652 Y5.6529 
G01 X-10.4392 Y5.5808 
G01 X-10.6238 Y5.5441 
G01 X-10.9898 Y5.5441 
G01 X-10.8706 Y5.4645 
G01 X-10.7375 Y5.3313 
G01 X-10.6329 Y5.1748 
G01 X-10.5608 Y5.0008 
G01 X-10.5241 Y4.8161 
G01 X-10.5241 Y3.1038 
G01 X-10.5608 Y2.9192 
G01 X-10.6329 Y2.7452 
G01 X-10.6511 Y2.7180 
G01 X-10.6511 Y2.0733 
G01 X-9.9067 Y1.3289 
G01 X-4.5933 Y1.3289 
G00 Z2.0000  F3000
G00 X-12.2146 Y1.3374  F3000
G01 Z-0.2000 F200.00 
G01 X-12.2770 Y1.4882 F500.00 
G01 X-12.3089 Y1.6484 
G01 X-12.3089 Y2.7180 
G01 X-12.3271 Y2.7452 
G01 X-12.3992 Y2.9192 
G01 X-12.4359 Y3.1038 
G01 X-12.4359 Y3.4698 
G01 X-12.5155 Y3.3506 
G01 X-12.6486 Y3.2175 
G01 X-12.8052 Y3.1129 
G01 X-12.9792 Y3.0408 
G01 X-13.1639 Y3.0041 
G01 X-13.8037 Y3.0041 
G01 X-13.9211 Y2.8867 
G01 X-13.9211 Y1.1684 
G01 X-13.9530 Y1.0082 
G01 X-14.0154 Y0.8574 
G01 X-14.1061 Y0.7216 
G01 X-14.2216 Y0.6061 
G01 X-14.3574 Y0.5154 
G01 X-14.5082 Y0.4530 
G01 X-14.6684 Y0.4211 
G01 X-37.5816 Y0.4211 
G01 X-37.7418 Y0.4530 
G01 X-37.8926 Y0.5154 
G01 X-38.0284 Y0.6061 
G01 X-38.1438 Y0.7216 
G01 X-41.6438 Y4.2216 
G01 X-41.7346 Y4.3574 
G01 X-41.7970 Y4.5082 
G01 X-41.8289 Y4.6684 
G01 X-41.8289 Y14.8316 
G01 X-41.7970 Y14.9918 
G01 X-41.7346 Y15.1426 
G01 X-41.6438 Y15.2784 
G01 X-41.5284 Y15.3938 
G01 X-40.1984 Y16.7238 
G01 X-40.0626 Y16.8146 
G01 X-39.9118 Y16.8770 
G01 X-39.7516 Y16.9089 
G01 X-37.3430 Y16.9089 
G01 X-37.2475 Y16.9279 
G01 X-36.7421 Y16.9279 
G01 X-36.6718 Y16.9570 
G01 X-36.5116 Y16.9889 
G01 X-36.1082 Y16.9889 
G01 X-36.1200 Y16.9979 
G01 X-36.1329 Y17.0148 
G01 X-36.1479 Y17.0298 
G01 X-36.1585 Y17.0481 
G01 X-36.1714 Y17.0650 
G01 X-36.1795 Y17.0846 
G01 X-36.1901 Y17.1029 
G01 X-36.1956 Y17.1234 
G01 X-36.2037 Y17.1430 
G01 X-36.2065 Y17.1641 
G01 X-36.2120 Y17.1845 
G01 X-36.2120 Y17.2058 
G01 X-36.2148 Y17.2268 
G01 X-36.2120 Y17.2478 
G01 X-36.2120 Y17.2690 
G01 X-36.2065 Y17.2895 
G01 X-36.2037 Y17.3106 
G01 X-36.1956 Y17.3302 
G01 X-36.1901 Y17.3507 
G01 X-36.1795 Y17.3690 
G01 X-36.1766 Y17.3760 
G01 X-36.2088 Y17.3656 
G01 X-36.4088 Y17.3339 
G01 X-36.6112 Y17.3339 
G01 X-36.8112 Y17.3656 
G01 X-36.9291 Y17.4039 
G01 X-39.8512 Y17.4039 
G01 X-40.0512 Y17.4356 
G01 X-40.2437 Y17.4981 
G01 X-40.4241 Y17.5900 
G01 X-40.5878 Y17.7090 
G01 X-40.6146 Y17.7358 
G01 X-40.7908 Y17.7708 
G01 X-40.9648 Y17.8429 
G01 X-41.1213 Y17.9475 
G01 X-41.2545 Y18.0806 
G01 X-41.3591 Y18.2372 
G01 X-41.4312 Y18.4112 
G01 X-41.4679 Y18.5958 
G01 X-41.4679 Y18.7841 
G01 X-41.4312 Y18.9688 
G01 X-41.3591 Y19.1428 
G01 X-41.2545 Y19.2994 
G01 X-41.1213 Y19.4325 
G01 X-40.9648 Y19.5371 
G01 X-40.7908 Y19.6092 
G01 X-40.6146 Y19.6442 
G01 X-40.5878 Y19.6710 
G01 X-40.4241 Y19.7900 
G01 X-40.2437 Y19.8819 
G01 X-40.0512 Y19.9444 
G01 X-39.9528 Y19.9600 
G01 X-40.0512 Y19.9756 
G01 X-40.2437 Y20.0381 
G01 X-40.4241 Y20.1300 
G01 X-40.5878 Y20.2490 
G01 X-40.6146 Y20.2758 
G01 X-40.7908 Y20.3108 
G01 X-40.9648 Y20.3829 
G01 X-41.1213 Y20.4875 
G01 X-41.2545 Y20.6206 
G01 X-41.3591 Y20.7772 
G01 X-41.4312 Y20.9512 
G01 X-41.4679 Y21.1359 
G01 X-41.4679 Y21.3241 
G01 X-41.4312 Y21.5088 
G01 X-41.3591 Y21.6828 
G01 X-41.2545 Y21.8393 
G01 X-41.1213 Y21.9725 
G01 X-40.9648 Y22.0771 
G01 X-40.7908 Y22.1492 
G01 X-40.6146 Y22.1842 
G01 X-40.5878 Y22.2110 
G01 X-40.4241 Y22.3300 
G01 X-40.2437 Y22.4219 
G01 X-40.0512 Y22.4844 
G01 X-39.9528 Y22.5000 
G01 X-40.0512 Y22.5156 
G01 X-40.2437 Y22.5781 
G01 X-40.4241 Y22.6700 
G01 X-40.5878 Y22.7890 
G01 X-40.6146 Y22.8158 
G01 X-40.7908 Y22.8508 
G01 X-40.9648 Y22.9229 
G01 X-41.1213 Y23.0275 
G01 X-41.2545 Y23.1606 
G01 X-41.3591 Y23.3172 
G01 X-41.4312 Y23.4912 
G01 X-41.4679 Y23.6759 
G01 X-41.4679 Y23.8641 
G01 X-41.4312 Y24.0488 
G01 X-41.3591 Y24.2228 
G01 X-41.2545 Y24.3793 
G01 X-41.1213 Y24.5125 
G01 X-40.9648 Y24.6171 
G01 X-40.7908 Y24.6892 
G01 X-40.6146 Y24.7242 
G01 X-40.5878 Y24.7510 
G01 X-40.4241 Y24.8700 
G01 X-40.2437 Y24.9619 
G01 X-40.0512 Y25.0244 
G01 X-39.9528 Y25.0400 
G01 X-40.0512 Y25.0556 
G01 X-40.2437 Y25.1181 
G01 X-40.4241 Y25.2100 
G01 X-40.5878 Y25.3290 
G01 X-40.6146 Y25.3558 
G01 X-40.7908 Y25.3908 
G01 X-40.9648 Y25.4629 
G01 X-41.1213 Y25.5675 
G01 X-41.2545 Y25.7006 
G01 X-41.3591 Y25.8572 
G01 X-41.4312 Y26.0312 
G01 X-41.4679 Y26.2158 
G01 X-41.4679 Y26.4041 
G01 X-41.4312 Y26.5888 
G01 X-41.3591 Y26.7628 
G01 X-41.2545 Y26.9194 
G01 X-41.1213 Y27.0525 
G01 X-40.9661 Y27.1563 
G01 X-40.9809 Y27.1602 
G01 X-40.9992 Y27.1708 
G01 X-41.0188 Y27.1789 
G01 X-41.0357 Y27.1919 
G01 X-41.0540 Y27.2025 
G01 X-41.0690 Y27.2175 
G01 X-41.0859 Y27.2304 
G01 X-41.0988 Y27.2472 
G01 X-41.1138 Y27.2622 
G01 X-41.1244 Y27.2806 
G01 X-41.1373 Y27.2974 
G01 X-41.1454 Y27.3170 
G01 X-41.1560 Y27.3354 
G01 X-41.1615 Y27.3559 
G01 X-41.1696 Y27.3755 
G01 X-41.1724 Y27.3965 
G01 X-41.1779 Y27.4170 
G01 X-41.1779 Y27.4382 
G01 X-41.1807 Y27.4593 
G01 X-41.1779 Y27.4803 
G01 X-41.1779 Y29.8718 
G01 X-41.1807 Y29.8929 
G01 X-41.1779 Y29.9139 
G01 X-41.1779 Y29.9351 
G01 X-41.1724 Y29.9556 
G01 X-41.1696 Y29.9766 
G01 X-41.1615 Y29.9962 
G01 X-41.1560 Y30.0167 
G01 X-41.1454 Y30.0351 
G01 X-41.1373 Y30.0547 
G01 X-41.1244 Y30.0715 
G01 X-41.1138 Y30.0899 
G01 X-41.0988 Y30.1049 
G01 X-41.0859 Y30.1217 
G01 X-41.0690 Y30.1347 
G01 X-41.0540 Y30.1497 
G01 X-41.0357 Y30.1603 
G01 X-41.0188 Y30.1732 
G01 X-40.9992 Y30.1813 
G01 X-40.9809 Y30.1919 
G01 X-40.9604 Y30.1974 
G01 X-40.9544 Y30.1998 
G01 X-40.9941 Y30.2200 
G01 X-41.1578 Y30.3390 
G01 X-41.8378 Y31.0190 
G01 X-41.9810 Y31.1622 
G01 X-42.1000 Y31.3259 
G01 X-42.1919 Y31.5063 
G01 X-42.2544 Y31.6988 
G01 X-42.2861 Y31.8988 
G01 X-42.2861 Y37.6012 
G01 X-42.2544 Y37.8012 
G01 X-42.1919 Y37.9937 
G01 X-42.1000 Y38.1741 
G01 X-41.9810 Y38.3378 
G01 X-38.3378 Y41.9810 
G01 X-38.1741 Y42.1000 
G01 X-37.9937 Y42.1919 
G01 X-37.8012 Y42.2544 
G01 X-37.6012 Y42.2861 
G01 X-26.9188 Y42.2861 
G01 X-26.7188 Y42.2544 
G01 X-26.5263 Y42.1919 
G01 X-26.3459 Y42.1000 
G01 X-26.1822 Y41.9810 
G01 X-25.9001 Y41.6989 
G01 X-24.8594 Y41.6989 
G01 X-24.6310 Y41.6627 
G01 X-24.4111 Y41.5913 
G01 X-24.2636 Y41.5161 
G01 X-18.2364 Y41.5161 
G01 X-18.0889 Y41.5913 
G01 X-17.8690 Y41.6627 
G01 X-17.6406 Y41.6989 
G01 X-14.8594 Y41.6989 
G01 X-14.6310 Y41.6627 
G01 X-14.4111 Y41.5913 
G01 X-14.2944 Y41.5318 
G01 X-13.8264 Y41.5355 
G01 X-13.7914 Y41.5394 
G01 X-13.7253 Y41.5363 
G01 X-13.6591 Y41.5369 
G01 X-13.6243 Y41.5316 
G01 X-13.5892 Y41.5300 
G01 X-13.5243 Y41.5166 
G01 X-13.4589 Y41.5068 
G01 X-13.4254 Y41.4962 
G01 X-13.3909 Y41.4891 
G01 X-13.3290 Y41.4657 
G01 X-13.2659 Y41.4458 
G01 X-13.2344 Y41.4301 
G01 X-13.2015 Y41.4177 
G01 X-13.1440 Y41.3849 
G01 X-13.0848 Y41.3553 
G01 X-13.0562 Y41.3349 
G01 X-13.0256 Y41.3175 
G01 X-12.9739 Y41.2761 
G01 X-12.9200 Y41.2377 
G01 X-12.8950 Y41.2130 
G01 X-12.1836 Y40.6439 
G01 X-12.1371 Y40.6439 
G01 X-12.1531 Y40.6600 
G01 X-12.1954 Y40.7331 
G01 X-12.2172 Y40.8147 
G01 X-12.2172 Y40.8992 
G01 X-12.1954 Y40.9809 
G01 X-12.1541 Y41.0524 
G01 X-12.0934 Y41.1138 
G01 X-12.0202 Y41.1560 
G01 X-11.9386 Y41.1779 
G01 X-3.8365 Y41.1779 
G01 X-3.5343 Y41.3030 
G01 X-3.5188 Y41.3185 
G01 X-3.4932 Y41.3458 
G01 X-3.4890 Y41.3483 
G01 X-3.4855 Y41.3518 
G01 X-3.4532 Y41.3705 
G01 X-3.4214 Y41.3902 
G01 X-3.4166 Y41.3916 
G01 X-3.4124 Y41.3941 
G01 X-3.3762 Y41.4038 
G01 X-3.3404 Y41.4145 
G01 X-3.3355 Y41.4147 
G01 X-3.3308 Y41.4160 
G01 X-3.2933 Y41.4160 
G01 X-3.2560 Y41.4171 
G01 X-3.2512 Y41.4160 
G01 X-3.2463 Y41.4160 
G01 X-3.2102 Y41.4063 
G01 X-3.1737 Y41.3977 
G01 X-3.1694 Y41.3954 
G01 X-3.1646 Y41.3941 
G01 X-3.1323 Y41.3754 
G01 X-3.0993 Y41.3577 
G01 X-3.0957 Y41.3543 
G01 X-3.0915 Y41.3518 
G01 X-3.0650 Y41.3254 
G01 X-0.6399 Y39.0430 
G01 X-0.6357 Y39.0405 
G01 X-0.6093 Y39.0141 
G01 X-0.5820 Y38.9885 
G01 X-0.5794 Y38.9842 
G01 X-0.5759 Y38.9808 
G01 X-0.5572 Y38.9484 
G01 X-0.5376 Y38.9166 
G01 X-0.5362 Y38.9119 
G01 X-0.5337 Y38.9076 
G01 X-0.5240 Y38.8714 
G01 X-0.5132 Y38.8357 
G01 X-0.5131 Y38.8307 
G01 X-0.5118 Y38.8260 
G01 X-0.5118 Y38.7885 
G01 X-0.5107 Y38.7512 
G01 X-0.5118 Y38.7464 
G01 X-0.5118 Y38.7415 
G01 X-0.5215 Y38.7053 
G01 X-0.5301 Y38.6690 
G01 X-0.5324 Y38.6646 
G01 X-0.5337 Y38.6599 
G01 X-0.5524 Y38.6275 
G01 X-0.5701 Y38.5946 
G01 X-0.5735 Y38.5910 
G01 X-0.5759 Y38.5867 
G01 X-0.6023 Y38.5603 
G01 X-0.6280 Y38.5330 
G01 X-0.6322 Y38.5304 
G01 X-0.6969 Y38.4657 
G01 X-0.8221 Y38.1635 
G01 X-0.8221 Y30.2017 
G01 X-0.8193 Y30.1806 
G01 X-0.8221 Y30.1596 
G01 X-0.8221 Y30.1384 
G01 X-0.8276 Y30.1179 
G01 X-0.8304 Y30.0969 
G01 X-0.8385 Y30.0773 
G01 X-0.8440 Y30.0568 
G01 X-0.8546 Y30.0384 
G01 X-0.8627 Y30.0188 
G01 X-0.8756 Y30.0020 
G01 X-0.8862 Y29.9836 
G01 X-0.9012 Y29.9686 
G01 X-0.9141 Y29.9518 
G01 X-0.9310 Y29.9389 
G01 X-0.9460 Y29.9239 
G01 X-0.9643 Y29.9133 
G01 X-0.9812 Y29.9003 
G01 X-1.0008 Y29.8922 
G01 X-1.0191 Y29.8816 
G01 X-1.0335 Y29.8778 
G01 X-0.9774 Y29.8546 
G01 X-0.8416 Y29.7638 
G01 X-0.4716 Y29.3938 
G01 X-0.3562 Y29.2784 
G01 X-0.2654 Y29.1426 
G01 X-0.2030 Y28.9918 
G01 X-0.1711 Y28.8316 
G01 X-0.1711 Y13.1684 
G01 X-0.2030 Y13.0082 
G01 X-0.2654 Y12.8574 
G01 X-0.3562 Y12.7216 
G01 X-0.7156 Y12.3621 
G01 X-0.7139 Y12.3512 
G01 X-0.7139 Y12.1488 
G01 X-0.7456 Y11.9488 
G01 X-0.8081 Y11.7563 
G01 X-0.9000 Y11.5759 
G01 X-1.0190 Y11.4122 
G01 X-1.1622 Y11.2690 
G01 X-1.3259 Y11.1500 
G01 X-1.5063 Y11.0581 
G01 X-1.6988 Y10.9956 
G01 X-1.8988 Y10.9639 
G01 X-2.1012 Y10.9639 
G01 X-2.3012 Y10.9956 
G01 X-2.4937 Y11.0581 
G01 X-2.6741 Y11.1500 
G01 X-2.8378 Y11.2690 
G01 X-2.9810 Y11.4122 
G01 X-3.1000 Y11.5759 
G01 X-3.1919 Y11.7563 
G01 X-3.2544 Y11.9488 
G01 X-3.2861 Y12.1488 
G01 X-3.2861 Y12.3512 
G01 X-3.2544 Y12.5512 
G01 X-3.1919 Y12.7437 
G01 X-3.1000 Y12.9241 
G01 X-2.9810 Y13.0878 
G01 X-2.8378 Y13.2310 
G01 X-2.6741 Y13.3500 
G01 X-2.4937 Y13.4419 
G01 X-2.3012 Y13.5044 
G01 X-2.1012 Y13.5361 
G01 X-1.8988 Y13.5361 
G01 X-1.8879 Y13.5344 
G01 X-1.8289 Y13.5933 
G01 X-1.8289 Y27.1096 
G01 X-1.8688 Y27.0696 
G01 X-1.9217 Y27.0387 
G01 X-1.9429 Y27.0264 
G01 X-1.9799 Y27.0165 
G01 X-2.0245 Y27.0046 
G01 X-2.0902 Y27.0046 
G01 X-2.0154 Y26.8926 
G01 X-1.9530 Y26.7418 
G01 X-1.9211 Y26.5816 
G01 X-1.9211 Y15.6684 
G01 X-1.9530 Y15.5082 
G01 X-2.0154 Y15.3574 
G01 X-2.1061 Y15.2216 
G01 X-5.1711 Y12.1567 
G01 X-5.1711 Y11.3433 
G01 X-4.4067 Y10.5789 
G01 X-3.3135 Y10.5789 
G01 X-3.2676 Y10.6096 
G01 X-3.1168 Y10.6720 
