( pcb2gcode 1.2.2 )
( Software-independent Gcode )
      
G94 ( Millimeters per minute feed rate. )
G21 ( Units == Millimeters. )

G90 ( Absolute coordinates. )
S10000 ( RPM spindle speed. )
G64 P0.05080 ( set maximum deviation from commanded toolpath )
F100.00000 ( Feedrate. )

F100.00000 ( Feedrate. )
M3 ( Spindle on clockwise. )
G04 P0 ( dwell for no time -- G64 should not smooth over this point )
G00 Z2.00000 ( retract )

G00 X17.24889 Y-14.27226 ( rapid move to begin. )
F50.00000
G01 Z-0.20000
G04 P0 ( dwell for no time -- G64 should not smooth over this point )
F100.00000
X17.24889 Y-14.27226
X17.24889 Y-14.29766
X17.35049 Y-14.29766
X17.35049 Y-14.32306
X17.37589 Y-14.32306
X17.37589 Y-14.62786
X17.40129 Y-14.62786
X17.40129 Y-14.65326
X17.42669 Y-14.65326
X17.42669 Y-14.67866
X17.45209 Y-14.67866
X17.45209 Y-14.70406
X17.50289 Y-14.70406
X17.50289 Y-14.72946
X17.57909 Y-14.72946
X17.57909 Y-14.75486
X17.62989 Y-14.75486
X17.62989 Y-14.78026
X17.70609 Y-14.78026
X17.70609 Y-14.80566
X17.75689 Y-14.80566
X17.75689 Y-14.83106
X17.83309 Y-14.83106
X17.83309 Y-14.85646
X17.90929 Y-14.85646
X17.90929 Y-14.88186
X17.96009 Y-14.88186
X17.96009 Y-14.90726
X18.03629 Y-14.90726
X18.03629 Y-14.93266
X18.08709 Y-14.93266
X18.08709 Y-14.95806
X18.16329 Y-14.95806
X18.16329 Y-14.98346
X18.21409 Y-14.98346
X18.21409 Y-15.00886
X18.29029 Y-15.00886
X18.29029 Y-15.03426
X18.34109 Y-15.03426
X18.34109 Y-15.05966
X18.39189 Y-15.05966
X18.39189 Y-15.08506
X18.41729 Y-15.08506
X18.41729 Y-15.11046
X18.44269 Y-15.11046
X18.44269 Y-15.13586
X18.46809 Y-15.13586
X18.46809 Y-15.18666
X18.49349 Y-15.18666
X18.49349 Y-15.21206
X18.51889 Y-15.21206
X18.51889 Y-15.21206
X18.49349 Y-15.21206
X18.49349 Y-15.18666
X18.44269 Y-15.18666
X18.44269 Y-15.16126
X18.39189 Y-15.16126
X18.39189 Y-15.13586
X18.34109 Y-15.13586
X18.34109 Y-15.11046
X18.29029 Y-15.11046
X18.29029 Y-15.08506
X18.26489 Y-15.08506
X18.26489 Y-15.05966
X18.21409 Y-15.05966
X18.21409 Y-15.03426
X18.16329 Y-15.03426
X18.16329 Y-15.00886
X18.11249 Y-15.00886
X18.11249 Y-14.98346
X18.06169 Y-14.98346
X18.06169 Y-14.95806
X18.01089 Y-14.95806
X18.01089 Y-14.93266
X17.98549 Y-14.93266
X17.98549 Y-14.90726
X17.90929 Y-14.90726
X17.90929 Y-14.88186
X17.83309 Y-14.88186
X17.83309 Y-14.85646
X17.73149 Y-14.85646
X17.73149 Y-14.83106
X17.65529 Y-14.83106
X17.65529 Y-14.80566
X17.57909 Y-14.80566
X17.57909 Y-14.78026
X17.50289 Y-14.78026
X17.50289 Y-14.75486
X17.40129 Y-14.75486
X17.40129 Y-14.72946
X17.19809 Y-14.72946
X17.19809 Y-14.70406
X16.94409 Y-14.70406
X16.94409 Y-14.67866
X16.25829 Y-14.67866
X16.25829 Y-14.70406
X16.00429 Y-14.70406
X16.00429 Y-14.72946
X15.80109 Y-14.72946
X15.80109 Y-14.75486
X15.69949 Y-14.75486
X15.69949 Y-14.78026
X15.62329 Y-14.78026
X15.62329 Y-14.80566
X15.54709 Y-14.80566
X15.54709 Y-14.83106
X15.47089 Y-14.83106
X15.47089 Y-14.85646
X15.36929 Y-14.85646
X15.36929 Y-14.88186
X15.29309 Y-14.88186
X15.29309 Y-14.90726
X15.21689 Y-14.90726
X15.21689 Y-14.93266
X15.19149 Y-14.93266
X15.19149 Y-14.95806
X15.14069 Y-14.95806
X15.14069 Y-14.98346
X15.08989 Y-14.98346
X15.08989 Y-15.00886
X15.03909 Y-15.00886
X15.03909 Y-15.03426
X14.98829 Y-15.03426
X14.98829 Y-15.05966
X14.93749 Y-15.05966
X14.93749 Y-15.08506
X14.91209 Y-15.08506
X14.91209 Y-15.11046
X14.86129 Y-15.11046
X14.86129 Y-15.13586
X14.81049 Y-15.13586
X14.81049 Y-15.16126
X14.75969 Y-15.16126
X14.75969 Y-15.13586
X14.78509 Y-15.13586
X14.78509 Y-15.11046
X14.81049 Y-15.11046
X14.81049 Y-15.08506
X14.86129 Y-15.08506
X14.86129 Y-15.05966
X14.91209 Y-15.05966
X14.91209 Y-15.03426
X14.98829 Y-15.03426
X14.98829 Y-15.00886
X15.03909 Y-15.00886
X15.03909 Y-14.98346
X15.08989 Y-14.98346
X15.08989 Y-14.95806
X15.16609 Y-14.95806
X15.16609 Y-14.93266
X15.21689 Y-14.93266
X15.21689 Y-14.90726
X15.29309 Y-14.90726
X15.29309 Y-14.88186
X15.34389 Y-14.88186
X15.34389 Y-14.85646
X15.42009 Y-14.85646
X15.42009 Y-14.83106
X15.47089 Y-14.83106
X15.47089 Y-14.80566
X15.52169 Y-14.80566
X15.52169 Y-14.78026
X15.59789 Y-14.78026
X15.59789 Y-14.75486
X15.64869 Y-14.75486
X15.64869 Y-14.72946
X15.72489 Y-14.72946
X15.72489 Y-14.70406
X15.77569 Y-14.70406
X15.77569 Y-14.67866
X15.80109 Y-14.67866
X15.80109 Y-14.65326
X15.82649 Y-14.65326
X15.82649 Y-14.62786
X15.85189 Y-14.62786
X15.85189 Y-14.14526
X15.82649 Y-14.14526
X15.82649 Y-14.11986
X15.80109 Y-14.11986
X15.80109 Y-14.09446
X15.77569 Y-14.09446
X15.77569 Y-14.06906
X13.33729 Y-14.06906
X13.33729 Y-14.09446
X13.31189 Y-14.09446
X13.31189 Y-14.11986
X13.28649 Y-14.11986
X13.28649 Y-14.14526
X13.26109 Y-14.14526
X13.26109 Y-15.99946
X13.28649 Y-15.99946
X13.28649 Y-16.02486
X13.31189 Y-16.02486
X13.31189 Y-16.05026
X13.33729 Y-16.05026
X13.33729 Y-16.07566
X13.81989 Y-16.07566
X13.81989 Y-16.05026
X13.87069 Y-16.05026
X13.87069 Y-16.02486
X13.89609 Y-16.02486
X13.89609 Y-16.07566
X13.87069 Y-16.07566
X13.87069 Y-16.12646
X13.84529 Y-16.12646
X13.84529 Y-16.17726
X13.81989 Y-16.17726
X13.81989 Y-16.20266
X13.79449 Y-16.20266
X13.79449 Y-16.25346
X13.76909 Y-16.25346
X13.76909 Y-16.30426
X13.74369 Y-16.30426
X13.74369 Y-16.35506
X13.71829 Y-16.35506
X13.71829 Y-16.40586
X13.69289 Y-16.40586
X13.69289 Y-16.45666
X13.66749 Y-16.45666
X13.66749 Y-16.48206
X13.64209 Y-16.48206
X13.64209 Y-16.55826
X13.61669 Y-16.55826
X13.61669 Y-16.63446
X13.59129 Y-16.63446
X13.59129 Y-16.73606
X13.56589 Y-16.73606
X13.56589 Y-16.81226
X13.54049 Y-16.81226
X13.54049 Y-16.88846
X13.51509 Y-16.88846
X13.51509 Y-16.96466
X13.48969 Y-16.96466
X13.48969 Y-17.06626
X13.46429 Y-17.06626
X13.46429 Y-17.26946
X13.43889 Y-17.26946
X13.43889 Y-17.52346
X13.41349 Y-17.52346
X13.41349 Y-18.20926
X13.43889 Y-18.20926
X13.43889 Y-18.46326
X13.46429 Y-18.46326
X13.46429 Y-18.66646
X13.48969 Y-18.66646
X13.48969 Y-18.76806
X13.51509 Y-18.76806
X13.51509 Y-18.84426
X13.54049 Y-18.84426
X13.54049 Y-18.92046
X13.56589 Y-18.92046
X13.56589 Y-18.99666
X13.59129 Y-18.99666
X13.59129 Y-19.09826
X13.61669 Y-19.09826
X13.61669 Y-19.17446
X13.64209 Y-19.17446
X13.64209 Y-19.25066
X13.66749 Y-19.25066
X13.66749 Y-19.27606
X13.69289 Y-19.27606
X13.69289 Y-19.32686
X13.71829 Y-19.32686
X13.71829 Y-19.37766
X13.74369 Y-19.37766
X13.74369 Y-19.42846
X13.76909 Y-19.42846
X13.76909 Y-19.47926
X13.79449 Y-19.47926
X13.79449 Y-19.53006
X13.81989 Y-19.53006
X13.81989 Y-19.55546
X13.84529 Y-19.55546
X13.84529 Y-19.60626
X13.87069 Y-19.60626
X13.87069 Y-19.65706
X13.89609 Y-19.65706
X13.89609 Y-19.70786
X13.87069 Y-19.70786
X13.87069 Y-19.68246
X13.81989 Y-19.68246
X13.81989 Y-19.65706
X13.33729 Y-19.65706
X13.33729 Y-19.68246
X13.31189 Y-19.68246
X13.31189 Y-19.70786
X13.28649 Y-19.70786
X13.28649 Y-19.73326
X13.26109 Y-19.73326
X13.26109 Y-82.01406
X13.28649 Y-82.01406
X13.28649 Y-82.03946
X13.31189 Y-82.03946
X13.31189 Y-82.06486
X13.33729 Y-82.06486
X13.33729 Y-82.09026
X13.81989 Y-82.09026
X13.81989 Y-82.06486
X13.87069 Y-82.06486
X13.87069 Y-82.03946
X13.89609 Y-82.03946
X13.89609 Y-82.01406
X13.92149 Y-82.01406
X13.92149 Y-82.03946
X13.89609 Y-82.03946
X13.89609 Y-82.09026
X13.87069 Y-82.09026
X13.87069 Y-82.14106
X13.84529 Y-82.14106
X13.84529 Y-82.19186
X13.81989 Y-82.19186
X13.81989 Y-82.21726
X13.79449 Y-82.21726
X13.79449 Y-82.26806
X13.76909 Y-82.26806
X13.76909 Y-82.31886
X13.74369 Y-82.31886
X13.74369 Y-82.36966
X13.71829 Y-82.36966
X13.71829 Y-82.42046
X13.69289 Y-82.42046
X13.69289 Y-82.47126
X13.66749 Y-82.47126
X13.66749 Y-82.49666
X13.64209 Y-82.49666
X13.64209 Y-82.57286
X13.61669 Y-82.57286
X13.61669 Y-82.64906
X13.59129 Y-82.64906
X13.59129 Y-82.75066
X13.56589 Y-82.75066
X13.56589 Y-82.82686
X13.54049 Y-82.82686
X13.54049 Y-82.90306
X13.51509 Y-82.90306
X13.51509 Y-82.97926
X13.48969 Y-82.97926
X13.48969 Y-83.08086
X13.46429 Y-83.08086
X13.46429 Y-83.28406
X13.43889 Y-83.28406
X13.43889 Y-83.53806
X13.41349 Y-83.53806
X13.41349 Y-84.22386
X13.43889 Y-84.22386
X13.43889 Y-84.47786
X13.46429 Y-84.47786
X13.46429 Y-84.68106
X13.48969 Y-84.68106
X13.48969 Y-84.78266
X13.51509 Y-84.78266
X13.51509 Y-84.85886
X13.54049 Y-84.85886
X13.54049 Y-84.93506
X13.56589 Y-84.93506
X13.56589 Y-85.01126
X13.59129 Y-85.01126
X13.59129 Y-85.11286
X13.61669 Y-85.11286
X13.61669 Y-85.18906
X13.64209 Y-85.18906
X13.64209 Y-85.26526
X13.66749 Y-85.26526
X13.66749 Y-85.29066
X13.69289 Y-85.29066
X13.69289 Y-85.34146
X13.71829 Y-85.34146
X13.71829 Y-85.39226
X13.74369 Y-85.39226
X13.74369 Y-85.44306
X13.76909 Y-85.44306
X13.76909 Y-85.49386
X13.79449 Y-85.49386
X13.79449 Y-85.54466
X13.81989 Y-85.54466
X13.81989 Y-85.57006
X13.84529 Y-85.57006
X13.84529 Y-85.62086
X13.87069 Y-85.62086
X13.87069 Y-85.67166
X13.89609 Y-85.67166
X13.89609 Y-85.72246
X13.92149 Y-85.72246
X13.92149 Y-85.72246
X13.89609 Y-85.72246
X13.89609 Y-85.69706
X13.87069 Y-85.69706
X13.87069 Y-85.67166
X13.81989 Y-85.67166
X13.81989 Y-85.64626
X13.33729 Y-85.64626
X13.33729 Y-85.67166
X13.31189 Y-85.67166
X13.31189 Y-85.69706
X13.28649 Y-85.69706
X13.28649 Y-85.72246
X13.26109 Y-85.72246
X13.26109 Y-91.99626
X13.28649 Y-91.99626
X13.28649 Y-92.02166
X13.31189 Y-92.02166
X13.31189 Y-92.04706
X13.33729 Y-92.04706
X13.33729 Y-92.07246
X104.39629 Y-92.07246
X104.39629 Y-92.04706
X104.42169 Y-92.04706
X104.42169 Y-92.02166
X104.44709 Y-92.02166
X104.44709 Y-91.99626
X104.47249 Y-91.99626
X104.47249 Y-86.33206
X104.44709 Y-86.33206
X104.44709 Y-86.30666
X104.42169 Y-86.30666
X104.42169 Y-86.28126
X104.39629 Y-86.28126
X104.39629 Y-86.25586
X104.37089 Y-86.25586
X104.37089 Y-86.23046
X104.34549 Y-86.23046
X104.34549 Y-86.20506
X104.32009 Y-86.20506
X104.32009 Y-86.17966
X104.26929 Y-86.17966
X104.26929 Y-86.15426
X103.96449 Y-86.15426
X103.96449 Y-86.12886
X103.98989 Y-86.12886
X103.98989 Y-86.10346
X104.01529 Y-86.10346
X104.01529 Y-86.07806
X104.04069 Y-86.07806
X104.04069 Y-86.02726
X104.06609 Y-86.02726
X104.06609 Y-86.00186
X104.09149 Y-86.00186
X104.09149 Y-85.97646
X104.11689 Y-85.97646
X104.11689 Y-85.95106
X104.14229 Y-85.95106
X104.14229 Y-85.92566
X104.16769 Y-85.92566
X104.16769 Y-85.87486
X104.19309 Y-85.87486
X104.19309 Y-85.84946
X104.21849 Y-85.84946
X104.21849 Y-85.82406
X104.24389 Y-85.82406
X104.24389 Y-85.79866
X104.26929 Y-85.79866
X104.26929 Y-85.77326
X104.29469 Y-85.77326
X104.29469 Y-85.72246
X104.32009 Y-85.72246
X104.32009 Y-85.67166
X104.34549 Y-85.67166
X104.34549 Y-85.62086
X104.37089 Y-85.62086
X104.37089 Y-85.57006
X104.39629 Y-85.57006
X104.39629 Y-85.54466
X104.42169 Y-85.54466
X104.42169 Y-85.49386
X104.44709 Y-85.49386
X104.44709 Y-85.44306
X104.47249 Y-85.44306
X104.47249 Y-85.39226
X104.49789 Y-85.39226
X104.49789 Y-85.34146
X104.52329 Y-85.34146
X104.52329 Y-85.29066
X104.54869 Y-85.29066
X104.54869 Y-85.26526
X104.57409 Y-85.26526
X104.57409 Y-85.18906
X104.59949 Y-85.18906
X104.59949 Y-85.11286
X104.62489 Y-85.11286
X104.62489 Y-85.01126
X104.65029 Y-85.01126
X104.65029 Y-84.93506
X104.67569 Y-84.93506
X104.67569 Y-84.85886
X104.70109 Y-84.85886
X104.70109 Y-84.78266
X104.72649 Y-84.78266
X104.72649 Y-84.70646
X104.75189 Y-84.70646
X104.75189 Y-84.47786
X104.77729 Y-84.47786
X104.77729 Y-84.22386
X104.80269 Y-84.22386
X104.80269 Y-83.53806
X104.77729 Y-83.53806
X104.77729 Y-83.28406
X104.75189 Y-83.28406
X104.75189 Y-83.05546
X104.72649 Y-83.05546
X104.72649 Y-82.97926
X104.70109 Y-82.97926
X104.70109 Y-82.90306
X104.67569 Y-82.90306
X104.67569 Y-82.82686
X104.65029 Y-82.82686
X104.65029 Y-82.75066
X104.62489 Y-82.75066
X104.62489 Y-82.64906
X104.59949 Y-82.64906
X104.59949 Y-82.57286
X104.57409 Y-82.57286
X104.57409 Y-82.49666
X104.54869 Y-82.49666
X104.54869 Y-82.47126
X104.52329 Y-82.47126
X104.52329 Y-82.42046
X104.49789 Y-82.42046
X104.49789 Y-82.36966
X104.47249 Y-82.36966
X104.47249 Y-82.31886
X104.44709 Y-82.31886
X104.44709 Y-82.26806
X104.42169 Y-82.26806
X104.42169 Y-82.21726
X104.39629 Y-82.21726
X104.39629 Y-82.19186
X104.37089 Y-82.19186
X104.37089 Y-82.14106
X104.34549 Y-82.14106
X104.34549 Y-82.09026
X104.32009 Y-82.09026
X104.32009 Y-82.03946
X104.29469 Y-82.03946
X104.29469 Y-81.98866
X104.26929 Y-81.98866
X104.26929 Y-81.96326
X104.24389 Y-81.96326
X104.24389 Y-81.93786
X104.21849 Y-81.93786
X104.21849 Y-81.91246
X104.19309 Y-81.91246
X104.19309 Y-81.88706
X104.16769 Y-81.88706
X104.16769 Y-81.83626
X104.14229 Y-81.83626
X104.14229 Y-81.81086
X104.11689 Y-81.81086
X104.11689 Y-81.78546
X104.09149 Y-81.78546
X104.09149 Y-81.76006
X104.06609 Y-81.76006
X104.06609 Y-81.73466
X104.04069 Y-81.73466
X104.04069 Y-81.68386
X104.01529 Y-81.68386
X104.01529 Y-81.65846
X103.98989 Y-81.65846
X103.98989 Y-81.63306
X103.96449 Y-81.63306
X103.96449 Y-81.60766
X103.93909 Y-81.60766
X103.93909 Y-81.58226
X104.26929 Y-81.58226
X104.26929 Y-81.55686
X104.32009 Y-81.55686
X104.32009 Y-81.53146
X104.34549 Y-81.53146
X104.34549 Y-81.50606
X104.39629 Y-81.50606
X104.39629 Y-81.48066
X104.42169 Y-81.48066
X104.42169 Y-81.45526
X104.44709 Y-81.45526
X104.44709 Y-81.42986
X104.47249 Y-81.42986
X104.47249 Y-20.31746
X104.44709 Y-20.31746
X104.44709 Y-20.29206
X104.42169 Y-20.29206
X104.42169 Y-20.26666
X104.39629 Y-20.26666
X104.39629 Y-20.24126
X104.34549 Y-20.24126
X104.34549 Y-20.21586
X104.32009 Y-20.21586
X104.32009 Y-20.19046
X104.29469 Y-20.19046
X104.29469 Y-20.16506
X104.26929 Y-20.16506
X104.26929 Y-20.13966
X103.96449 Y-20.13966
X103.96449 Y-20.11426
X103.98989 Y-20.11426
X103.98989 Y-20.08886
X104.01529 Y-20.08886
X104.01529 Y-20.06346
X104.04069 Y-20.06346
X104.04069 Y-20.01266
X104.06609 Y-20.01266
X104.06609 Y-19.98726
X104.09149 Y-19.98726
X104.09149 Y-19.96186
X104.11689 Y-19.96186
X104.11689 Y-19.93646
X104.14229 Y-19.93646
X104.14229 Y-19.91106
X104.16769 Y-19.91106
X104.16769 Y-19.86026
X104.19309 Y-19.86026
X104.19309 Y-19.83486
X104.21849 Y-19.83486
X104.21849 Y-19.80946
X104.24389 Y-19.80946
X104.24389 Y-19.78406
X104.26929 Y-19.78406
X104.26929 Y-19.75866
X104.29469 Y-19.75866
X104.29469 Y-19.70786
X104.32009 Y-19.70786
X104.32009 Y-19.65706
X104.34549 Y-19.65706
X104.34549 Y-19.60626
X104.37089 Y-19.60626
X104.37089 Y-19.55546
X104.39629 Y-19.55546
X104.39629 Y-19.53006
X104.42169 Y-19.53006
X104.42169 Y-19.47926
X104.44709 Y-19.47926
X104.44709 Y-19.42846
X104.47249 Y-19.42846
X104.47249 Y-19.37766
X104.49789 Y-19.37766
X104.49789 Y-19.32686
X104.52329 Y-19.32686
X104.52329 Y-19.27606
X104.54869 Y-19.27606
X104.54869 Y-19.25066
X104.57409 Y-19.25066
X104.57409 Y-19.17446
X104.59949 Y-19.17446
X104.59949 Y-19.09826
X104.62489 Y-19.09826
X104.62489 Y-18.99666
X104.65029 Y-18.99666
X104.65029 Y-18.92046
X104.67569 Y-18.92046
X104.67569 Y-18.84426
X104.70109 Y-18.84426
X104.70109 Y-18.76806
X104.72649 Y-18.76806
X104.72649 Y-18.69186
X104.75189 Y-18.69186
X104.75189 Y-18.46326
X104.77729 Y-18.46326
X104.77729 Y-18.20926
X104.80269 Y-18.20926
X104.80269 Y-17.52346
X104.77729 Y-17.52346
X104.77729 Y-17.26946
X104.75189 Y-17.26946
X104.75189 Y-17.04086
X104.72649 Y-17.04086
X104.72649 Y-16.96466
X104.70109 Y-16.96466
X104.70109 Y-16.88846
X104.67569 Y-16.88846
X104.67569 Y-16.81226
X104.65029 Y-16.81226
X104.65029 Y-16.73606
X104.62489 Y-16.73606
X104.62489 Y-16.63446
X104.59949 Y-16.63446
X104.59949 Y-16.55826
X104.57409 Y-16.55826
X104.57409 Y-16.48206
X104.54869 Y-16.48206
X104.54869 Y-16.45666
X104.52329 Y-16.45666
X104.52329 Y-16.40586
X104.49789 Y-16.40586
X104.49789 Y-16.35506
X104.47249 Y-16.35506
X104.47249 Y-16.30426
X104.44709 Y-16.30426
X104.44709 Y-16.25346
X104.42169 Y-16.25346
X104.42169 Y-16.20266
X104.39629 Y-16.20266
X104.39629 Y-16.17726
X104.37089 Y-16.17726
X104.37089 Y-16.12646
X104.34549 Y-16.12646
X104.34549 Y-16.07566
X104.32009 Y-16.07566
X104.32009 Y-16.02486
X104.29469 Y-16.02486
X104.29469 Y-15.97406
X104.26929 Y-15.97406
X104.26929 Y-15.94866
X104.24389 Y-15.94866
X104.24389 Y-15.92326
X104.21849 Y-15.92326
X104.21849 Y-15.89786
X104.19309 Y-15.89786
X104.19309 Y-15.87246
X104.16769 Y-15.87246
X104.16769 Y-15.82166
X104.14229 Y-15.82166
X104.14229 Y-15.79626
X104.11689 Y-15.79626
X104.11689 Y-15.77086
X104.09149 Y-15.77086
X104.09149 Y-15.74546
X104.06609 Y-15.74546
X104.06609 Y-15.72006
X104.04069 Y-15.72006
X104.04069 Y-15.66926
X104.01529 Y-15.66926
X104.01529 Y-15.64386
X103.98989 Y-15.64386
X103.98989 Y-15.61846
X103.96449 Y-15.61846
X103.96449 Y-15.59306
X103.93909 Y-15.59306
X103.93909 Y-15.54226
X103.88829 Y-15.54226
X103.88829 Y-15.51686
X103.86289 Y-15.51686
X103.86289 Y-15.49146
X103.83749 Y-15.49146
X103.83749 Y-15.46606
X103.81209 Y-15.46606
X103.81209 Y-15.44066
X103.76129 Y-15.44066
X103.76129 Y-15.41526
X103.73589 Y-15.41526
X103.73589 Y-15.38986
X103.71049 Y-15.38986
X103.71049 Y-15.36446
X103.68509 Y-15.36446
X103.68509 Y-15.33906
X103.65969 Y-15.33906
X103.65969 Y-15.31366
X103.60889 Y-15.31366
X103.60889 Y-15.28826
X103.58349 Y-15.28826
X103.58349 Y-15.26286
X103.55809 Y-15.26286
X103.55809 Y-15.23746
X103.53269 Y-15.23746
X103.53269 Y-15.21206
X103.50729 Y-15.21206
X103.50729 Y-15.18666
X103.45649 Y-15.18666
X103.45649 Y-15.16126
X103.40569 Y-15.16126
X103.40569 Y-15.13586
X103.35489 Y-15.13586
X103.35489 Y-15.11046
X103.30409 Y-15.11046
X103.30409 Y-15.08506
X103.27869 Y-15.08506
X103.27869 Y-15.05966
X103.22789 Y-15.05966
X103.22789 Y-15.03426
X103.17709 Y-15.03426
X103.17709 Y-15.00886
X103.12629 Y-15.00886
X103.12629 Y-14.98346
X103.07549 Y-14.98346
X103.07549 Y-14.95806
X103.02469 Y-14.95806
X103.02469 Y-14.93266
X102.99929 Y-14.93266
X102.99929 Y-14.90726
X102.92309 Y-14.90726
X102.92309 Y-14.88186
X102.84689 Y-14.88186
X102.84689 Y-14.85646
X102.74529 Y-14.85646
X102.74529 Y-14.83106
X102.66909 Y-14.83106
X102.66909 Y-14.80566
X102.59289 Y-14.80566
X102.59289 Y-14.78026
X102.51669 Y-14.78026
X102.51669 Y-14.75486
X102.41509 Y-14.75486
X102.41509 Y-14.72946
X102.21189 Y-14.72946
X102.21189 Y-14.70406
X101.95789 Y-14.70406
X101.95789 Y-14.67866
X101.27209 Y-14.67866
X101.27209 Y-14.70406
X101.01809 Y-14.70406
X101.01809 Y-14.72946
X100.81489 Y-14.72946
X100.81489 Y-14.75486
X100.71329 Y-14.75486
X100.71329 Y-14.78026
X100.63709 Y-14.78026
X100.63709 Y-14.80566
X100.56089 Y-14.80566
X100.56089 Y-14.83106
X100.48469 Y-14.83106
X100.48469 Y-14.85646
X100.38309 Y-14.85646
X100.38309 Y-14.88186
X100.30689 Y-14.88186
X100.30689 Y-14.90726
X100.23069 Y-14.90726
X100.23069 Y-14.93266
X100.20529 Y-14.93266
X100.20529 Y-14.95806
X100.15449 Y-14.95806
X100.15449 Y-14.98346
X100.10369 Y-14.98346
X100.10369 Y-15.00886
X100.05289 Y-15.00886
X100.05289 Y-15.03426
X100.00209 Y-15.03426
X100.00209 Y-15.05966
X99.95129 Y-15.05966
X99.95129 Y-15.08506
X99.92589 Y-15.08506
X99.92589 Y-15.11046
X99.87509 Y-15.11046
X99.87509 Y-15.13586
X99.82429 Y-15.13586
X99.82429 Y-15.16126
X99.77349 Y-15.16126
X99.77349 Y-15.18666
X99.72269 Y-15.18666
X99.72269 Y-15.18666
X99.74809 Y-15.18666
X99.74809 Y-15.16126
X99.77349 Y-15.16126
X99.77349 Y-15.11046
X99.79889 Y-15.11046
X99.79889 Y-15.08506
X99.84969 Y-15.08506
X99.84969 Y-15.05966
X99.90049 Y-15.05966
X99.90049 Y-15.03426
X99.97669 Y-15.03426
X99.97669 Y-15.00886
X100.02749 Y-15.00886
X100.02749 Y-14.98346
X100.07829 Y-14.98346
X100.07829 Y-14.95806
X100.15449 Y-14.95806
X100.15449 Y-14.93266
X100.20529 Y-14.93266
X100.20529 Y-14.90726
X100.28149 Y-14.90726
X100.28149 Y-14.88186
X100.33229 Y-14.88186
X100.33229 Y-14.85646
X100.40849 Y-14.85646
X100.40849 Y-14.83106
X100.45929 Y-14.83106
X100.45929 Y-14.80566
X100.51009 Y-14.80566
X100.51009 Y-14.78026
X100.58629 Y-14.78026
X100.58629 Y-14.75486
X100.63709 Y-14.75486
X100.63709 Y-14.72946
X100.71329 Y-14.72946
X100.71329 Y-14.70406
X100.76409 Y-14.70406
X100.76409 Y-14.67866
X100.78949 Y-14.67866
X100.78949 Y-14.65326
X100.81489 Y-14.65326
X100.81489 Y-14.62786
X100.84029 Y-14.62786
X100.84029 Y-14.14526
X100.81489 Y-14.14526
X100.81489 Y-14.11986
X100.78949 Y-14.11986
X100.78949 Y-14.09446
X100.76409 Y-14.09446
X100.76409 Y-14.06906
X17.45209 Y-14.06906
X17.45209 Y-14.09446
X17.42669 Y-14.09446
X17.42669 Y-14.11986
X17.40129 Y-14.11986
X17.40129 Y-14.14526
X17.37589 Y-14.14526
X17.37589 Y-14.22146
X17.35049 Y-14.22146
X17.35049 Y-14.24686
X17.24889 Y-14.24686
X17.24889 Y-14.27226
G04 P0 ( dwell for no time -- G64 should not smooth over this point )
G00 Z2.00000 ( retract )

G00 X21.23669 Y-26.94686 ( rapid move to begin. )
F50.00000
G01 Z-0.20000
G04 P0 ( dwell for no time -- G64 should not smooth over this point )
F100.00000
X21.23669 Y-26.94686
X21.21129 Y-26.94686
X21.21129 Y-26.97226
X21.16049 Y-26.97226
X21.16049 Y-26.99766
X21.13509 Y-26.99766
X21.13509 Y-27.02306
X21.10969 Y-27.02306
X21.10969 Y-27.04846
X21.08429 Y-27.04846
X21.08429 Y-27.07386
X21.05889 Y-27.07386
X21.05889 Y-27.09926
X21.03349 Y-27.09926
X21.03349 Y-27.15006
X21.00809 Y-27.15006
X21.00809 Y-27.17546
X20.98269 Y-27.17546
X20.98269 Y-27.22626
X20.95729 Y-27.22626
X20.95729 Y-27.27706
X20.93189 Y-27.27706
X20.93189 Y-27.32786
X20.90649 Y-27.32786
X20.90649 Y-27.42946
X20.88109 Y-27.42946
X20.88109 Y-27.50566
X20.85569 Y-27.50566
X20.85569 Y-28.34386
X20.88109 Y-28.34386
X20.88109 Y-28.42006
X20.90649 Y-28.42006
X20.90649 Y-28.52166
X20.93189 Y-28.52166
X20.93189 Y-28.57246
X20.95729 Y-28.57246
X20.95729 Y-28.62326
X20.98269 Y-28.62326
X20.98269 Y-28.67406
X21.00809 Y-28.67406
X21.00809 Y-28.69946
X21.03349 Y-28.69946
X21.03349 Y-28.75026
X21.05889 Y-28.75026
X21.05889 Y-28.77566
X21.08429 Y-28.77566
X21.08429 Y-28.80106
X21.10969 Y-28.80106
X21.10969 Y-28.82646
X21.13509 Y-28.82646
X21.13509 Y-28.85186
X21.16049 Y-28.85186
X21.16049 Y-28.87726
X21.21129 Y-28.87726
X21.21129 Y-28.90266
X21.23669 Y-28.90266
X21.23669 Y-28.92806
X21.28749 Y-28.92806
X21.28749 Y-28.95346
X21.33829 Y-28.95346
X21.33829 Y-32.89046
X21.16049 Y-32.89046
X21.16049 Y-34.64306
X22.91309 Y-34.64306
X22.91309 Y-32.89046
X22.70989 Y-32.89046
X22.70989 Y-28.97886
X22.73529 Y-28.97886
X22.73529 Y-28.95346
X22.78609 Y-28.95346
X22.78609 Y-28.92806
X22.83689 Y-28.92806
X22.83689 Y-28.90266
X22.86229 Y-28.90266
X22.86229 Y-28.87726
X22.91309 Y-28.87726
X22.91309 Y-28.85186
X22.93849 Y-28.85186
X22.93849 Y-28.82646
X22.96389 Y-28.82646
X22.96389 Y-28.80106
X22.98929 Y-28.80106
X22.98929 Y-28.77566
X23.01469 Y-28.77566
X23.01469 Y-28.75026
X23.04009 Y-28.75026
X23.04009 Y-28.69946
X23.06549 Y-28.69946
X23.06549 Y-28.67406
X23.09089 Y-28.67406
X23.09089 Y-28.62326
X23.11629 Y-28.62326
X23.11629 Y-28.57246
X23.14169 Y-28.57246
X23.14169 Y-28.52166
X23.16709 Y-28.52166
X23.16709 Y-28.42006
X23.19249 Y-28.42006
X23.19249 Y-28.34386
X23.21789 Y-28.34386
X23.21789 Y-27.50566
X23.19249 Y-27.50566
X23.19249 Y-27.42946
X23.16709 Y-27.42946
X23.16709 Y-27.32786
X23.14169 Y-27.32786
X23.14169 Y-27.27706
X23.11629 Y-27.27706
X23.11629 Y-27.22626
X23.09089 Y-27.22626
X23.09089 Y-27.17546
X23.06549 Y-27.17546
X23.06549 Y-27.15006
X23.04009 Y-27.15006
X23.04009 Y-27.09926
X23.01469 Y-27.09926
X23.01469 Y-27.07386
X22.98929 Y-27.07386
X22.98929 Y-27.04846
X22.96389 Y-27.04846
X22.96389 Y-27.02306
X22.93849 Y-27.02306
X22.93849 Y-26.99766
X22.91309 Y-26.99766
X22.91309 Y-26.97226
X22.86229 Y-26.97226
X22.86229 Y-26.94686
X22.83689 Y-26.94686
X22.83689 Y-26.92146
X22.78609 Y-26.92146
X22.78609 Y-26.89606
X22.73529 Y-26.89606
X22.73529 Y-26.87066
X22.70989 Y-26.87066
X22.70989 Y-26.84526
X22.65909 Y-26.84526
X22.65909 Y-26.81986
X22.60829 Y-26.81986
X22.60829 Y-26.79446
X22.50669 Y-26.79446
X22.50669 Y-26.76906
X22.35429 Y-26.76906
X22.35429 Y-26.74366
X21.71929 Y-26.74366
X21.71929 Y-26.76906
X21.56689 Y-26.76906
X21.56689 Y-26.79446
X21.46529 Y-26.79446
X21.46529 Y-26.81986
X21.41449 Y-26.81986
X21.41449 Y-26.84526
X21.36369 Y-26.84526
X21.36369 Y-26.87066
X21.33829 Y-26.87066
X21.33829 Y-26.89606
X21.28749 Y-26.89606
X21.28749 Y-26.92146
X21.23669 Y-26.92146
X21.23669 Y-26.94686
G04 P0 ( dwell for no time -- G64 should not smooth over this point )
G00 Z2.00000 ( retract )

G00 X25.63089 Y-37.84346 ( rapid move to begin. )
F50.00000
G01 Z-0.20000
G04 P0 ( dwell for no time -- G64 should not smooth over this point )
F100.00000
X25.63089 Y-37.84346
X25.63089 Y-37.86886
X25.60549 Y-37.86886
X25.60549 Y-37.89426
X25.58009 Y-37.89426
X25.58009 Y-37.91966
X19.71269 Y-37.91966
X19.71269 Y-37.94506
X19.61109 Y-37.94506
X19.61109 Y-37.97046
X19.56029 Y-37.97046
X19.56029 Y-37.99586
X19.50949 Y-37.99586
X19.50949 Y-38.02126
X19.48409 Y-38.02126
X19.48409 Y-38.04666
X19.45869 Y-38.04666
X19.45869 Y-38.07206
X19.43329 Y-38.07206
X19.43329 Y-38.09746
X19.40789 Y-38.09746
X19.40789 Y-38.12286
X19.38249 Y-38.12286
X19.38249 Y-38.14826
X19.35709 Y-38.14826
X19.35709 Y-38.17366
X19.33169 Y-38.17366
X19.33169 Y-38.19906
X19.30629 Y-38.19906
X19.30629 Y-38.22446
X19.28089 Y-38.22446
X19.28089 Y-38.24986
X19.25549 Y-38.24986
X19.25549 Y-38.27526
X19.23009 Y-38.27526
X19.23009 Y-38.30066
X19.20469 Y-38.30066
X19.20469 Y-38.32606
X19.17929 Y-38.32606
X19.17929 Y-38.35146
X19.15389 Y-38.35146
X19.15389 Y-38.37686
X19.12849 Y-38.37686
X19.12849 Y-38.40226
X19.10309 Y-38.40226
X19.10309 Y-38.42766
X19.07769 Y-38.42766
X19.07769 Y-38.45306
X19.05229 Y-38.45306
X19.05229 Y-38.47846
X19.02689 Y-38.47846
X19.02689 Y-38.50386
X19.00149 Y-38.50386
X19.00149 Y-38.52926
X18.97609 Y-38.52926
X18.97609 Y-38.55466
X18.95069 Y-38.55466
X18.95069 Y-38.58006
X18.92529 Y-38.58006
X18.92529 Y-38.60546
X18.89989 Y-38.60546
X18.89989 Y-38.63086
X18.87449 Y-38.63086
X18.87449 Y-38.65626
X18.84909 Y-38.65626
X18.84909 Y-38.68166
X18.82369 Y-38.68166
X18.82369 Y-38.70706
X18.79829 Y-38.70706
X18.79829 Y-38.73246
X18.77289 Y-38.73246
X18.77289 Y-38.75786
X18.74749 Y-38.75786
X18.74749 Y-38.78326
X18.72209 Y-38.78326
X18.72209 Y-38.80866
X18.69669 Y-38.80866
X18.69669 Y-38.83406
X18.67129 Y-38.83406
X18.67129 Y-38.85946
X18.64589 Y-38.85946
X18.64589 Y-38.88486
X18.62049 Y-38.88486
X18.62049 Y-38.91026
X18.59509 Y-38.91026
X18.59509 Y-38.93566
X18.56969 Y-38.93566
X18.56969 Y-38.96106
X18.54429 Y-38.96106
X18.54429 Y-38.98646
X18.51889 Y-38.98646
X18.51889 Y-39.01186
X18.49349 Y-39.01186
X18.49349 Y-39.03726
X18.46809 Y-39.03726
X18.46809 Y-39.06266
X18.44269 Y-39.06266
X18.44269 Y-39.08806
X18.41729 Y-39.08806
X18.41729 Y-39.11346
X18.39189 Y-39.11346
X18.39189 Y-39.13886
X18.36649 Y-39.13886
X18.36649 Y-39.18966
X18.34109 Y-39.18966
X18.34109 Y-39.24046
X18.31569 Y-39.24046
X18.31569 Y-39.34206
X18.29029 Y-39.34206
X18.29029 Y-45.99686
X18.31569 Y-45.99686
X18.31569 Y-46.09846
X18.34109 Y-46.09846
X18.34109 Y-46.14926
X18.36649 Y-46.14926
X18.36649 Y-46.20006
X18.39189 Y-46.20006
X18.39189 Y-46.22546
X18.41729 Y-46.22546
X18.41729 Y-46.25086
X18.44269 Y-46.25086
X18.44269 Y-46.27626
X18.46809 Y-46.27626
X18.46809 Y-46.30166
X18.49349 Y-46.30166
X18.49349 Y-46.32706
X18.51889 Y-46.32706
X18.51889 Y-46.35246
X18.54429 Y-46.35246
X18.54429 Y-46.37786
X18.56969 Y-46.37786
X18.56969 Y-46.40326
X18.59509 Y-46.40326
X18.59509 Y-46.42866
X18.62049 Y-46.42866
X18.62049 Y-46.45406
X18.64589 Y-46.45406
X18.64589 Y-46.47946
X18.67129 Y-46.47946
X18.67129 Y-46.50486
X18.69669 Y-46.50486
X18.69669 Y-46.53026
X18.72209 Y-46.53026
X18.72209 Y-46.55566
X18.74749 Y-46.55566
X18.74749 Y-46.58106
X18.77289 Y-46.58106
X18.77289 Y-46.60646
X18.79829 Y-46.60646
X18.79829 Y-46.63186
X18.82369 Y-46.63186
X18.82369 Y-46.65726
X18.84909 Y-46.65726
X18.84909 Y-46.68266
X18.87449 Y-46.68266
X18.87449 Y-46.70806
X18.89989 Y-46.70806
X18.89989 Y-46.73346
X18.92529 Y-46.73346
X18.92529 Y-46.75886
X18.95069 Y-46.75886
X18.95069 Y-46.78426
X18.97609 Y-46.78426
X18.97609 Y-46.80966
X19.00149 Y-46.80966
X19.00149 Y-46.83506
X19.02689 Y-46.83506
X19.02689 Y-46.86046
X19.05229 Y-46.86046
X19.05229 Y-46.88586
X19.07769 Y-46.88586
X19.07769 Y-46.91126
X19.10309 Y-46.91126
X19.10309 Y-46.93666
X19.12849 Y-46.93666
X19.12849 Y-46.96206
X19.15389 Y-46.96206
X19.15389 Y-46.98746
X19.17929 Y-46.98746
X19.17929 Y-47.01286
X19.20469 Y-47.01286
X19.20469 Y-47.03826
X19.23009 Y-47.03826
X19.23009 Y-47.06366
X19.25549 Y-47.06366
X19.25549 Y-47.08906
X19.28089 Y-47.08906
X19.28089 Y-47.11446
X19.30629 Y-47.11446
X19.30629 Y-47.13986
X19.33169 Y-47.13986
X19.33169 Y-47.16526
X19.35709 Y-47.16526
X19.35709 Y-47.19066
X19.38249 Y-47.19066
X19.38249 Y-47.21606
X19.40789 Y-47.21606
X19.40789 Y-47.24146
X19.43329 Y-47.24146
X19.43329 Y-47.26686
X19.45869 Y-47.26686
X19.45869 Y-47.29226
X19.48409 Y-47.29226
X19.48409 Y-47.31766
X19.50949 Y-47.31766
X19.50949 Y-47.34306
X19.53489 Y-47.34306
X19.53489 Y-47.36846
X19.56029 Y-47.36846
X19.56029 Y-47.39386
X19.58569 Y-47.39386
X19.58569 Y-47.41926
X19.61109 Y-47.41926
X19.61109 Y-47.44466
X19.63649 Y-47.44466
X19.63649 Y-47.47006
X19.66189 Y-47.47006
X19.66189 Y-47.49546
X19.68729 Y-47.49546
X19.68729 Y-47.52086
X19.71269 Y-47.52086
X19.71269 Y-47.54626
X19.73809 Y-47.54626
X19.73809 Y-47.57166
X19.76349 Y-47.57166
X19.76349 Y-47.59706
X19.78889 Y-47.59706
X19.78889 Y-47.62246
X19.81429 Y-47.62246
X19.81429 Y-47.64786
X19.83969 Y-47.64786
X19.83969 Y-47.67326
X19.86509 Y-47.67326
X19.86509 Y-47.69866
X19.89049 Y-47.69866
X19.89049 Y-47.72406
X19.91589 Y-47.72406
X19.91589 Y-47.74946
X19.94129 Y-47.74946
X19.94129 Y-47.77486
X19.96669 Y-47.77486
X19.96669 Y-47.80026
X19.99209 Y-47.80026
X19.99209 Y-47.82566
X20.01749 Y-47.82566
X20.01749 Y-47.85106
X20.04289 Y-47.85106
X20.04289 Y-47.87646
X20.06829 Y-47.87646
X20.06829 Y-47.90186
X20.09369 Y-47.90186
X20.09369 Y-47.92726
X20.11909 Y-47.92726
X20.11909 Y-47.95266
X20.14449 Y-47.95266
X20.14449 Y-47.97806
X20.16989 Y-47.97806
X20.16989 Y-48.00346
X20.19529 Y-48.00346
X20.19529 Y-48.02886
X20.22069 Y-48.02886
X20.22069 Y-48.05426
X20.24609 Y-48.05426
X20.24609 Y-48.07966
X20.27149 Y-48.07966
X20.27149 Y-48.10506
X20.29689 Y-48.10506
X20.29689 Y-48.13046
X20.32229 Y-48.13046
X20.32229 Y-48.15586
X20.34769 Y-48.15586
X20.34769 Y-48.18126
X20.37309 Y-48.18126
X20.37309 Y-48.20666
X20.39849 Y-48.20666
X20.39849 Y-48.23206
X20.42389 Y-48.23206
X20.42389 Y-48.25746
X20.44929 Y-48.25746
X20.44929 Y-48.28286
X20.47469 Y-48.28286
X20.47469 Y-48.30826
X20.50009 Y-48.30826
X20.50009 Y-48.33366
X20.52549 Y-48.33366
X20.52549 Y-48.35906
X20.55089 Y-48.35906
X20.55089 Y-48.38446
X20.57629 Y-48.38446
X20.57629 Y-48.40986
X20.60169 Y-48.40986
X20.60169 Y-48.43526
X20.62709 Y-48.43526
X20.62709 Y-48.46066
X20.65249 Y-48.46066
X20.65249 Y-48.48606
X20.67789 Y-48.48606
X20.67789 Y-48.51146
X20.70329 Y-48.51146
X20.70329 Y-48.53686
X20.72869 Y-48.53686
X20.72869 Y-48.56226
X20.75409 Y-48.56226
X20.75409 Y-48.58766
X20.77949 Y-48.58766
X20.77949 Y-48.61306
X20.80489 Y-48.61306
X20.80489 Y-48.63846
X20.83029 Y-48.63846
X20.83029 Y-48.66386
X20.85569 Y-48.66386
X20.85569 Y-48.68926
X20.88109 Y-48.68926
X20.88109 Y-48.71466
X20.90649 Y-48.71466
X20.90649 Y-48.74006
X20.93189 Y-48.74006
X20.93189 Y-48.76546
X20.95729 Y-48.76546
X20.95729 Y-48.79086
X20.98269 Y-48.79086
X20.98269 Y-48.81626
X21.00809 Y-48.81626
X21.00809 Y-48.84166
X21.03349 Y-48.84166
X21.03349 Y-48.86706
X21.05889 Y-48.86706
X21.05889 Y-48.89246
X21.08429 Y-48.89246
X21.08429 Y-48.91786
X21.10969 Y-48.91786
X21.10969 Y-48.94326
X21.13509 Y-48.94326
X21.13509 Y-48.96866
X21.16049 Y-48.96866
X21.16049 Y-48.99406
X21.18589 Y-48.99406
X21.18589 Y-49.01946
X21.21129 Y-49.01946
X21.21129 Y-49.04486
X21.23669 Y-49.04486
X21.23669 Y-49.07026
X21.26209 Y-49.07026
X21.26209 Y-49.09566
X21.28749 Y-49.09566
X21.28749 Y-49.12106
X21.31289 Y-49.12106
X21.31289 Y-49.14646
X21.33829 Y-49.14646
X21.33829 Y-49.17186
X21.36369 Y-49.17186
X21.36369 Y-49.19726
X21.38909 Y-49.19726
X21.38909 Y-49.22266
X21.41449 Y-49.22266
X21.41449 Y-49.24806
X21.43989 Y-49.24806
X21.43989 Y-49.27346
X21.46529 Y-49.27346
X21.46529 Y-49.29886
X21.49069 Y-49.29886
X21.49069 Y-49.32426
X21.51609 Y-49.32426
X21.51609 Y-49.34966
X21.54149 Y-49.34966
X21.54149 Y-49.37506
X21.59229 Y-49.37506
X21.59229 Y-49.40046
X21.64309 Y-49.40046
X21.64309 Y-49.42586
X21.74469 Y-49.42586
X21.74469 Y-49.45126
X28.95829 Y-49.45126
X28.95829 Y-56.79186
X28.98369 Y-56.79186
X28.98369 Y-56.89346
X29.00909 Y-56.89346
X29.00909 Y-56.94426
X29.03449 Y-56.94426
X29.03449 Y-56.99506
X29.05989 Y-56.99506
X29.05989 Y-57.02046
X29.08529 Y-57.02046
X29.08529 Y-57.04586
X29.11069 Y-57.04586
X29.11069 Y-57.07126
X29.13609 Y-57.07126
X29.13609 Y-57.09666
X29.16149 Y-57.09666
X29.16149 Y-57.12206
X29.18689 Y-57.12206
X29.18689 Y-57.14746
X29.21229 Y-57.14746
X29.21229 Y-57.17286
X29.23769 Y-57.17286
X29.23769 Y-57.19826
X29.26309 Y-57.19826
X29.26309 Y-57.22366
X29.28849 Y-57.22366
X29.28849 Y-57.24906
X29.31389 Y-57.24906
X29.31389 Y-57.27446
X29.33929 Y-57.27446
X29.33929 Y-57.29986
X29.36469 Y-57.29986
X29.36469 Y-57.32526
X29.39009 Y-57.32526
X29.39009 Y-57.35066
X29.41549 Y-57.35066
X29.41549 Y-57.37606
X29.44089 Y-57.37606
X29.44089 Y-57.40146
X29.46629 Y-57.40146
X29.46629 Y-57.42686
X29.49169 Y-57.42686
X29.49169 Y-57.45226
X29.51709 Y-57.45226
X29.51709 Y-57.47766
X29.54249 Y-57.47766
X29.54249 Y-57.50306
X29.56789 Y-57.50306
X29.56789 Y-57.52846
X29.59329 Y-57.52846
X29.59329 Y-57.55386
X29.61869 Y-57.55386
X29.61869 Y-57.57926
X29.64409 Y-57.57926
X29.64409 Y-57.60466
X29.66949 Y-57.60466
X29.66949 Y-57.63006
X29.69489 Y-57.63006
X29.69489 Y-57.65546
X29.72029 Y-57.65546
X29.72029 Y-57.68086
X29.74569 Y-57.68086
X29.74569 Y-57.70626
X29.77109 Y-57.70626
X29.77109 Y-57.73166
X29.79649 Y-57.73166
X29.79649 Y-57.75706
X29.82189 Y-57.75706
X29.82189 Y-57.78246
X29.84729 Y-57.78246
X29.84729 Y-57.80786
X29.87269 Y-57.80786
X29.87269 Y-57.83326
X29.89809 Y-57.83326
X29.89809 Y-57.85866
X29.92349 Y-57.85866
X29.92349 Y-57.88406
X29.94889 Y-57.88406
X29.94889 Y-57.90946
X29.97429 Y-57.90946
X29.97429 Y-57.93486
X29.99969 Y-57.93486
X29.99969 Y-57.96026
X30.02509 Y-57.96026
X30.02509 Y-57.98566
X30.05049 Y-57.98566
X30.05049 Y-58.01106
X30.07589 Y-58.01106
X30.07589 Y-58.03646
X30.10129 Y-58.03646
X30.10129 Y-58.06186
X30.12669 Y-58.06186
X30.12669 Y-58.08726
X30.15209 Y-58.08726
X30.15209 Y-58.11266
X30.17749 Y-58.11266
X30.17749 Y-58.13806
X30.20289 Y-58.13806
X30.20289 Y-58.16346
X30.22829 Y-58.16346
X30.22829 Y-58.18886
X30.25369 Y-58.18886
X30.25369 Y-58.21426
X30.27909 Y-58.21426
X30.27909 Y-58.23966
X30.30449 Y-58.23966
X30.30449 Y-58.26506
X30.32989 Y-58.26506
X30.32989 Y-58.29046
X30.35529 Y-58.29046
X30.35529 Y-58.31586
X30.38069 Y-58.31586
X30.38069 Y-58.34126
X30.40609 Y-58.34126
X30.40609 Y-58.36666
X30.43149 Y-58.36666
X30.43149 Y-58.39206
X30.45689 Y-58.39206
X30.45689 Y-58.41746
X30.48229 Y-58.41746
X30.48229 Y-58.44286
X30.50769 Y-58.44286
X30.50769 Y-58.46826
X30.53309 Y-58.46826
X30.53309 Y-58.49366
X30.55849 Y-58.49366
X30.55849 Y-58.51906
X30.58389 Y-58.51906
X30.58389 Y-58.54446
X30.60929 Y-58.54446
X30.60929 Y-58.56986
X30.63469 Y-58.56986
X30.63469 Y-58.59526
X30.66009 Y-58.59526
X30.66009 Y-58.62066
X30.68549 Y-58.62066
X30.68549 Y-58.64606
X30.71089 Y-58.64606
X30.71089 Y-58.67146
X30.73629 Y-58.67146
X30.73629 Y-58.69686
X30.76169 Y-58.69686
X30.76169 Y-58.72226
X30.78709 Y-58.72226
X30.78709 Y-58.74766
X30.81249 Y-58.74766
X30.81249 Y-58.77306
X30.83789 Y-58.77306
X30.83789 Y-58.79846
X30.86329 Y-58.79846
X30.86329 Y-58.82386
X30.88869 Y-58.82386
X30.88869 Y-58.84926
X30.91409 Y-58.84926
X30.91409 Y-58.87466
X30.93949 Y-58.87466
X30.93949 Y-58.90006
X30.96489 Y-58.90006
X30.96489 Y-58.92546
X30.99029 Y-58.92546
X30.99029 Y-58.95086
X31.01569 Y-58.95086
X31.01569 Y-58.97626
X31.04109 Y-58.97626
X31.04109 Y-59.00166
X31.06649 Y-59.00166
X31.06649 Y-59.02706
X31.09189 Y-59.02706
X31.09189 Y-59.05246
X31.11729 Y-59.05246
X31.11729 Y-59.07786
X31.14269 Y-59.07786
X31.14269 Y-59.10326
X31.16809 Y-59.10326
X31.16809 Y-59.12866
X31.19349 Y-59.12866
X31.19349 Y-59.15406
X31.21889 Y-59.15406
X31.21889 Y-59.17946
X31.24429 Y-59.17946
X31.24429 Y-59.20486
X31.26969 Y-59.20486
X31.26969 Y-59.23026
X31.29509 Y-59.23026
X31.29509 Y-59.25566
X31.32049 Y-59.25566
X31.32049 Y-59.28106
X31.34589 Y-59.28106
X31.34589 Y-59.30646
X31.37129 Y-59.30646
X31.37129 Y-59.33186
X31.39669 Y-59.33186
X31.39669 Y-59.35726
X31.44749 Y-59.35726
X31.44749 Y-59.38266
X31.47289 Y-59.38266
X31.47289 Y-59.40806
X31.49829 Y-59.40806
X31.49829 Y-59.43346
X31.52369 Y-59.43346
X31.52369 Y-59.45886
X31.54909 Y-59.45886
X31.54909 Y-59.48426
X31.57449 Y-59.48426
X31.57449 Y-59.50966
X31.59989 Y-59.50966
X31.59989 Y-59.53506
X31.62529 Y-59.53506
X31.62529 Y-59.56046
X31.65069 Y-59.56046
X31.65069 Y-59.58586
X31.67609 Y-59.58586
X31.67609 Y-59.61126
X31.70149 Y-59.61126
X31.70149 Y-59.63666
X31.72689 Y-59.63666
X31.72689 Y-59.66206
X31.75229 Y-59.66206
X31.75229 Y-59.68746
X31.77769 Y-59.68746
X31.77769 Y-59.71286
X31.80309 Y-59.71286
X31.80309 Y-59.73826
X31.82849 Y-59.73826
X31.82849 Y-59.76366
X31.85389 Y-59.76366
X31.85389 Y-59.78906
X31.87929 Y-59.78906
X31.87929 Y-59.81446
X31.90469 Y-59.81446
X31.90469 Y-59.83986
X31.93009 Y-59.83986
X31.93009 Y-59.86526
X31.95549 Y-59.86526
X31.95549 Y-59.89066
X31.98089 Y-59.89066
X31.98089 Y-59.91606
X32.00629 Y-59.91606
X32.00629 Y-59.94146
X32.03169 Y-59.94146
X32.03169 Y-59.96686
X32.05709 Y-59.96686
X32.05709 Y-59.99226
X32.08249 Y-59.99226
X32.08249 Y-60.01766
X32.10789 Y-60.01766
X32.10789 Y-60.04306
X32.13329 Y-60.04306
X32.13329 Y-60.06846
X32.15869 Y-60.06846
X32.15869 Y-60.09386
X32.18409 Y-60.09386
X32.18409 Y-60.11926
X32.20949 Y-60.11926
X32.20949 Y-60.14466
X32.23489 Y-60.14466
X32.23489 Y-60.17006
X32.26029 Y-60.17006
X32.26029 Y-60.19546
X32.28569 Y-60.19546
X32.28569 Y-60.22086
X32.31109 Y-60.22086
X32.31109 Y-60.24626
X32.33649 Y-60.24626
X32.33649 Y-60.27166
X32.36189 Y-60.27166
X32.36189 Y-60.29706
X32.38729 Y-60.29706
X32.38729 Y-60.32246
X32.41269 Y-60.32246
X32.41269 Y-60.34786
X32.43809 Y-60.34786
X32.43809 Y-60.37326
X32.46349 Y-60.37326
X32.46349 Y-60.39866
X32.48889 Y-60.39866
X32.48889 Y-60.42406
X32.51429 Y-60.42406
X32.51429 Y-60.44946
X32.53969 Y-60.44946
X32.53969 Y-60.47486
X32.56509 Y-60.47486
X32.56509 Y-60.50026
X32.59049 Y-60.50026
X32.59049 Y-60.52566
X32.61589 Y-60.52566
X32.61589 Y-60.55106
X32.64129 Y-60.55106
X32.64129 Y-60.57646
X32.66669 Y-60.57646
X32.66669 Y-60.60186
X32.69209 Y-60.60186
X32.69209 Y-60.62726
X32.71749 Y-60.62726
X32.71749 Y-60.65266
X32.74289 Y-60.65266
X32.74289 Y-60.67806
X32.76829 Y-60.67806
X32.76829 Y-60.70346
X32.79369 Y-60.70346
X32.79369 Y-60.72886
X32.81909 Y-60.72886
X32.81909 Y-60.75426
X32.84449 Y-60.75426
X32.84449 Y-60.77966
X32.86989 Y-60.77966
X32.86989 Y-60.80506
X32.89529 Y-60.80506
X32.89529 Y-60.83046
X32.92069 Y-60.83046
X32.92069 Y-60.85586
X32.94609 Y-60.85586
X32.94609 Y-60.88126
X32.97149 Y-60.88126
X32.97149 Y-60.90666
X32.99689 Y-60.90666
X32.99689 Y-60.93206
X33.02229 Y-60.93206
X33.02229 Y-60.95746
X33.04769 Y-60.95746
X33.04769 Y-60.98286
X33.07309 Y-60.98286
X33.07309 Y-61.00826
X33.09849 Y-61.00826
X33.09849 Y-61.03366
X33.12389 Y-61.03366
X33.12389 Y-61.05906
X33.14929 Y-61.05906
X33.14929 Y-61.08446
X33.17469 Y-61.08446
X33.17469 Y-61.10986
X33.22549 Y-61.10986
X33.22549 Y-61.13526
X33.27629 Y-61.13526
X33.27629 Y-61.16066
X33.37789 Y-61.16066
X33.37789 Y-61.18606
X43.41089 Y-61.18606
X43.41089 Y-61.21146
X43.46169 Y-61.21146
X43.46169 Y-61.23686
X43.48709 Y-61.23686
X43.48709 Y-61.26226
X43.53789 Y-61.26226
X43.53789 Y-61.28766
X43.58869 Y-61.28766
X43.58869 Y-61.31306
X43.61409 Y-61.31306
X43.61409 Y-61.33846
X43.74109 Y-61.33846
X43.74109 Y-61.36386
X44.42689 Y-61.36386
X44.42689 Y-61.33846
X44.55389 Y-61.33846
X44.55389 Y-61.31306
X44.57929 Y-61.31306
X44.57929 Y-61.28766
X44.63009 Y-61.28766
X44.63009 Y-61.26226
X44.68089 Y-61.26226
X44.68089 Y-61.23686
X44.70629 Y-61.23686
X44.70629 Y-61.21146
X44.75709 Y-61.21146
X44.75709 Y-61.18606
X44.78249 Y-61.18606
X44.78249 Y-61.13526
X44.80789 Y-61.13526
X44.80789 Y-61.10986
X44.83329 Y-61.10986
X44.83329 Y-61.08446
X44.85869 Y-61.08446
X44.85869 Y-61.03366
X44.88409 Y-61.03366
X44.88409 Y-61.00826
X44.90949 Y-61.00826
X44.90949 Y-60.93206
X44.93489 Y-60.93206
X44.93489 Y-60.80506
X44.96029 Y-60.80506
X44.96029 Y-60.17006
X44.93489 Y-60.17006
X44.93489 Y-60.04306
X44.90949 Y-60.04306
X44.90949 Y-59.96686
X44.88409 Y-59.96686
X44.88409 Y-59.94146
X44.85869 Y-59.94146
X44.85869 Y-59.89066
X44.83329 Y-59.89066
X44.83329 Y-59.86526
X44.80789 Y-59.86526
X44.80789 Y-59.83986
X44.78249 Y-59.83986
X44.78249 Y-59.78906
X44.75709 Y-59.78906
X44.75709 Y-59.76366
X44.70629 Y-59.76366
X44.70629 Y-59.73826
X44.68089 Y-59.73826
X44.68089 Y-59.71286
X44.63009 Y-59.71286
X44.63009 Y-59.68746
X44.57929 Y-59.68746
X44.57929 Y-59.66206
X44.55389 Y-59.66206
X44.55389 Y-59.63666
X44.42689 Y-59.63666
X44.42689 Y-59.61126
X43.74109 Y-59.61126
X43.74109 Y-59.63666
X43.61409 Y-59.63666
X43.61409 Y-59.66206
X43.58869 Y-59.66206
X43.58869 Y-59.68746
X43.53789 Y-59.68746
X43.53789 Y-59.71286
X43.48709 Y-59.71286
X43.48709 Y-59.73826
X43.46169 Y-59.73826
X43.46169 Y-59.76366
X43.41089 Y-59.76366
X43.41089 Y-59.78906
X43.38549 Y-59.78906
X43.38549 Y-59.81446
X37.44189 Y-59.81446
X37.44189 Y-59.83986
X37.34029 Y-59.83986
X37.34029 Y-59.86526
X37.16249 Y-59.86526
X37.16249 Y-59.89066
X33.96209 Y-59.89066
X33.96209 Y-59.86526
X33.93669 Y-59.86526
X33.93669 Y-59.83986
X33.86049 Y-59.83986
X33.86049 Y-59.81446
X33.83509 Y-59.81446
X33.83509 Y-59.78906
X33.80969 Y-59.78906
X33.80969 Y-59.76366
X33.78429 Y-59.76366
X33.78429 Y-59.73826
X33.75889 Y-59.73826
X33.75889 Y-59.71286
X33.73349 Y-59.71286
X33.73349 Y-59.68746
X33.70809 Y-59.68746
X33.70809 Y-59.66206
X33.68269 Y-59.66206
X33.68269 Y-59.63666
X33.65729 Y-59.63666
X33.65729 Y-59.61126
X33.63189 Y-59.61126
X33.63189 Y-59.58586
X33.60649 Y-59.58586
X33.60649 Y-59.56046
X33.58109 Y-59.56046
X33.58109 Y-59.53506
X33.55569 Y-59.53506
X33.55569 Y-59.50966
X33.53029 Y-59.50966
X33.53029 Y-59.48426
X33.50489 Y-59.48426
X33.50489 Y-59.45886
X33.47949 Y-59.45886
X33.47949 Y-59.43346
X33.45409 Y-59.43346
X33.45409 Y-59.40806
X33.42869 Y-59.40806
X33.42869 Y-59.38266
X33.40329 Y-59.38266
X33.40329 Y-59.35726
X33.37789 Y-59.35726
X33.37789 Y-59.33186
X33.35249 Y-59.33186
X33.35249 Y-59.30646
X33.32709 Y-59.30646
X33.32709 Y-59.28106
X33.30169 Y-59.28106
X33.30169 Y-59.25566
X33.27629 Y-59.25566
X33.27629 Y-59.23026
X33.25089 Y-59.23026
X33.25089 Y-59.20486
X33.22549 Y-59.20486
X33.22549 Y-59.17946
X33.20009 Y-59.17946
X33.20009 Y-59.15406
X33.17469 Y-59.15406
X33.17469 Y-59.12866
X33.14929 Y-59.12866
X33.14929 Y-59.10326
X33.12389 Y-59.10326
X33.12389 Y-59.07786
X33.09849 Y-59.07786
X33.09849 Y-59.05246
X33.07309 Y-59.05246
X33.07309 Y-59.02706
X33.04769 Y-59.02706
X33.04769 Y-59.00166
X33.02229 Y-59.00166
X33.02229 Y-58.97626
X32.99689 Y-58.97626
X32.99689 Y-58.95086
X32.97149 Y-58.95086
X32.97149 Y-58.92546
X32.94609 Y-58.92546
X32.94609 Y-58.90006
X32.92069 Y-58.90006
X32.92069 Y-58.87466
X32.89529 Y-58.87466
X32.89529 Y-58.84926
X32.86989 Y-58.84926
X32.86989 Y-58.82386
X32.84449 Y-58.82386
X32.84449 Y-58.79846
X32.81909 Y-58.79846
X32.81909 Y-58.77306
X32.79369 Y-58.77306
X32.79369 Y-58.74766
X32.76829 Y-58.74766
X32.76829 Y-58.72226
X32.74289 Y-58.72226
X32.74289 Y-58.69686
X32.71749 Y-58.69686
X32.71749 Y-58.67146
X32.69209 Y-58.67146
X32.69209 Y-58.64606
X32.66669 Y-58.64606
X32.66669 Y-58.62066
X32.64129 Y-58.62066
X32.64129 Y-58.59526
X32.61589 Y-58.59526
X32.61589 Y-58.56986
X32.59049 Y-58.56986
X32.59049 Y-58.54446
X32.56509 Y-58.54446
X32.56509 Y-58.51906
X32.53969 Y-58.51906
X32.53969 Y-58.49366
X32.51429 Y-58.49366
X32.51429 Y-58.46826
X32.48889 Y-58.46826
X32.48889 Y-58.44286
X32.46349 Y-58.44286
X32.46349 Y-58.41746
X32.43809 Y-58.41746
X32.43809 Y-58.39206
X32.41269 Y-58.39206
X32.41269 Y-58.36666
X32.38729 Y-58.36666
X32.38729 Y-58.34126
X32.36189 Y-58.34126
X32.36189 Y-58.31586
X32.33649 Y-58.31586
X32.33649 Y-58.29046
X32.31109 Y-58.29046
X32.31109 Y-58.26506
X32.28569 Y-58.26506
X32.28569 Y-58.23966
X32.26029 Y-58.23966
X32.26029 Y-58.21426
X32.23489 Y-58.21426
X32.23489 Y-58.18886
X32.20949 Y-58.18886
X32.20949 Y-58.13806
X32.18409 Y-58.13806
X32.18409 Y-58.08726
X32.15869 Y-58.08726
X32.15869 Y-58.06186
X32.13329 Y-58.06186
X32.13329 Y-57.98566
X32.10789 Y-57.98566
X32.10789 Y-57.90946
X32.08249 Y-57.90946
X32.08249 Y-57.83326
X32.05709 Y-57.83326
X32.05709 Y-57.80786
X32.03169 Y-57.80786
X32.03169 Y-57.78246
X32.00629 Y-57.78246
X32.00629 Y-57.75706
X31.98089 Y-57.75706
X31.98089 Y-57.73166
X31.95549 Y-57.73166
X31.95549 Y-57.70626
X31.93009 Y-57.70626
X31.93009 Y-57.68086
X31.90469 Y-57.68086
X31.90469 Y-57.65546
X31.85389 Y-57.65546
X31.85389 Y-57.63006
X31.82849 Y-57.63006
X31.82849 Y-57.60466
X31.80309 Y-57.60466
X31.80309 Y-57.57926
X31.77769 Y-57.57926
X31.77769 Y-57.55386
X31.75229 Y-57.55386
X31.75229 Y-57.52846
X31.72689 Y-57.52846
X31.72689 Y-57.50306
X31.70149 Y-57.50306
X31.70149 Y-57.47766
X31.67609 Y-57.47766
X31.67609 Y-57.45226
X31.65069 Y-57.45226
X31.65069 Y-57.42686
X31.62529 Y-57.42686
X31.62529 Y-57.40146
X31.59989 Y-57.40146
X31.59989 Y-57.37606
X31.57449 Y-57.37606
X31.57449 Y-57.35066
X31.54909 Y-57.35066
X31.54909 Y-57.32526
X31.52369 Y-57.32526
X31.52369 Y-57.29986
X31.49829 Y-57.29986
X31.49829 Y-57.27446
X31.47289 Y-57.27446
X31.47289 Y-57.24906
X31.44749 Y-57.24906
X31.44749 Y-57.22366
X31.42209 Y-57.22366
X31.42209 Y-57.19826
X31.39669 Y-57.19826
X31.39669 Y-57.17286
X31.37129 Y-57.17286
X31.37129 Y-57.14746
X31.34589 Y-57.14746
X31.34589 Y-57.12206
X31.32049 Y-57.12206
X31.32049 Y-57.09666
X31.29509 Y-57.09666
X31.29509 Y-57.07126
X31.26969 Y-57.07126
X31.26969 Y-57.04586
X31.24429 Y-57.04586
X31.24429 Y-57.02046
X31.21889 Y-57.02046
X31.21889 Y-56.99506
X31.19349 Y-56.99506
X31.19349 Y-56.96966
X31.16809 Y-56.96966
X31.16809 Y-56.94426
X31.14269 Y-56.94426
X31.14269 Y-56.91886
X31.11729 Y-56.91886
X31.11729 Y-56.89346
X31.09189 Y-56.89346
X31.09189 Y-56.86806
X31.06649 Y-56.86806
X31.06649 Y-56.84266
X31.04109 Y-56.84266
X31.04109 Y-56.81726
X31.01569 Y-56.81726
X31.01569 Y-56.79186
X30.99029 Y-56.79186
X30.99029 Y-56.76646
X30.96489 Y-56.76646
X30.96489 Y-56.74106
X30.93949 Y-56.74106
X30.93949 Y-56.71566
X30.91409 Y-56.71566
X30.91409 Y-56.69026
X30.88869 Y-56.69026
X30.88869 Y-56.66486
X30.86329 Y-56.66486
X30.86329 Y-56.63946
X30.83789 Y-56.63946
X30.83789 Y-56.61406
X30.81249 Y-56.61406
X30.81249 Y-56.58866
X30.78709 Y-56.58866
X30.78709 Y-56.56326
X30.76169 Y-56.56326
X30.76169 Y-56.53786
X30.73629 Y-56.53786
X30.73629 Y-56.51246
X30.71089 Y-56.51246
X30.71089 Y-56.48706
X30.68549 Y-56.48706
X30.68549 Y-56.46166
X30.66009 Y-56.46166
X30.66009 Y-56.43626
X30.63469 Y-56.43626
X30.63469 Y-56.41086
X30.60929 Y-56.41086
X30.60929 Y-56.38546
X30.58389 Y-56.38546
X30.58389 Y-56.36006
X30.55849 Y-56.36006
X30.55849 Y-56.33466
X30.53309 Y-56.33466
X30.53309 Y-56.30926
X30.50769 Y-56.30926
X30.50769 Y-56.28386
X30.48229 Y-56.28386
X30.48229 Y-56.25846
X30.45689 Y-56.25846
X30.45689 Y-56.23306
X30.43149 Y-56.23306
X30.43149 Y-56.20766
X30.40609 Y-56.20766
X30.40609 Y-56.18226
X30.38069 Y-56.18226
X30.38069 Y-56.15686
X30.35529 Y-56.15686
X30.35529 Y-56.13146
X30.32989 Y-56.13146
X30.32989 Y-48.48606
X30.30449 Y-48.48606
X30.30449 Y-48.38446
X30.27909 Y-48.38446
X30.27909 Y-48.33366
X30.25369 Y-48.33366
X30.25369 Y-48.28286
X30.22829 Y-48.28286
X30.22829 Y-48.25746
X30.20289 Y-48.25746
X30.20289 Y-48.23206
X30.17749 Y-48.23206
X30.17749 Y-48.20666
X30.15209 Y-48.20666
X30.15209 Y-48.18126
X30.12669 Y-48.18126
X30.12669 Y-48.15586
X30.07589 Y-48.15586
X30.07589 Y-48.13046
X30.02509 Y-48.13046
X30.02509 Y-48.10506
X29.92349 Y-48.10506
X29.92349 Y-48.07966
X22.40509 Y-48.07966
X22.40509 Y-48.05426
X22.37969 Y-48.05426
X22.37969 Y-48.02886
X22.35429 Y-48.02886
X22.35429 Y-48.00346
X22.32889 Y-48.00346
X22.32889 Y-47.97806
X22.30349 Y-47.97806
X22.30349 Y-47.95266
X22.27809 Y-47.95266
X22.27809 Y-47.92726
X22.25269 Y-47.92726
X22.25269 Y-47.90186
X22.22729 Y-47.90186
X22.22729 Y-47.87646
X22.20189 Y-47.87646
X22.20189 Y-47.85106
X22.17649 Y-47.85106
X22.17649 Y-47.82566
X22.15109 Y-47.82566
X22.15109 Y-47.80026
X22.12569 Y-47.80026
X22.12569 Y-47.77486
X22.10029 Y-47.77486
X22.10029 Y-47.74946
X22.07489 Y-47.74946
X22.07489 Y-47.72406
X22.04949 Y-47.72406
X22.04949 Y-47.69866
X22.02409 Y-47.69866
X22.02409 Y-47.67326
X21.99869 Y-47.67326
X21.99869 Y-47.64786
X21.97329 Y-47.64786
X21.97329 Y-47.62246
X21.94789 Y-47.62246
X21.94789 Y-47.59706
X21.92249 Y-47.59706
X21.92249 Y-47.57166
X21.89709 Y-47.57166
X21.89709 Y-47.54626
X21.87169 Y-47.54626
X21.87169 Y-47.52086
X21.84629 Y-47.52086
X21.84629 Y-47.49546
X21.82089 Y-47.49546
X21.82089 Y-47.47006
X21.79549 Y-47.47006
X21.79549 Y-47.44466
X21.77009 Y-47.44466
X21.77009 Y-47.41926
X21.74469 Y-47.41926
X21.74469 Y-47.39386
X21.71929 Y-47.39386
X21.71929 Y-47.36846
X21.69389 Y-47.36846
X21.69389 Y-47.34306
X21.66849 Y-47.34306
X21.66849 Y-47.31766
X21.64309 Y-47.31766
X21.64309 Y-47.29226
X21.61769 Y-47.29226
X21.61769 Y-47.26686
X21.59229 Y-47.26686
X21.59229 Y-47.24146
X21.56689 Y-47.24146
X21.56689 Y-47.21606
X21.54149 Y-47.21606
X21.54149 Y-47.19066
X21.51609 Y-47.19066
X21.51609 Y-47.16526
X21.49069 Y-47.16526
X21.49069 Y-47.13986
X21.46529 Y-47.13986
X21.46529 Y-47.11446
X21.43989 Y-47.11446
X21.43989 Y-47.08906
X21.41449 Y-47.08906
X21.41449 Y-47.06366
X21.38909 Y-47.06366
X21.38909 Y-47.03826
X21.36369 Y-47.03826
X21.36369 Y-47.01286
X21.33829 Y-47.01286
X21.33829 Y-46.98746
X21.31289 Y-46.98746
X21.31289 Y-46.96206
X21.28749 Y-46.96206
X21.28749 Y-46.93666
X21.26209 Y-46.93666
X21.26209 Y-46.91126
X21.23669 Y-46.91126
X21.23669 Y-46.88586
X21.21129 Y-46.88586
X21.21129 Y-46.86046
X21.18589 Y-46.86046
X21.18589 Y-46.83506
X21.16049 Y-46.83506
X21.16049 Y-46.80966
X21.13509 Y-46.80966
X21.13509 Y-46.78426
X21.10969 Y-46.78426
X21.10969 Y-46.75886
X21.08429 Y-46.75886
X21.08429 Y-46.73346
X21.05889 Y-46.73346
X21.05889 Y-46.70806
X21.03349 Y-46.70806
X21.03349 Y-46.68266
X21.00809 Y-46.68266
X21.00809 Y-46.65726
X20.98269 Y-46.65726
X20.98269 Y-46.63186
X20.95729 Y-46.63186
X20.95729 Y-46.60646
X20.93189 Y-46.60646
X20.93189 Y-46.58106
X20.90649 Y-46.58106
X20.90649 Y-46.55566
X20.88109 Y-46.55566
X20.88109 Y-46.53026
X20.85569 Y-46.53026
X20.85569 Y-46.50486
X20.83029 Y-46.50486
X20.83029 Y-46.47946
X20.80489 Y-46.47946
X20.80489 Y-46.45406
X20.77949 Y-46.45406
X20.77949 Y-46.42866
X20.75409 Y-46.42866
X20.75409 Y-46.40326
X20.72869 Y-46.40326
X20.72869 Y-46.37786
X20.70329 Y-46.37786
X20.70329 Y-46.35246
X20.67789 Y-46.35246
X20.67789 Y-46.32706
X20.65249 Y-46.32706
X20.65249 Y-46.30166
X20.62709 Y-46.30166
X20.62709 Y-46.27626
X20.60169 Y-46.27626
X20.60169 Y-46.25086
X20.57629 Y-46.25086
X20.57629 Y-46.22546
X20.55089 Y-46.22546
X20.55089 Y-46.20006
X20.52549 Y-46.20006
X20.52549 Y-46.17466
X20.50009 Y-46.17466
X20.50009 Y-46.14926
X20.47469 Y-46.14926
X20.47469 Y-46.12386
X20.44929 Y-46.12386
X20.44929 Y-46.09846
X20.42389 Y-46.09846
X20.42389 Y-46.07306
X20.39849 Y-46.07306
X20.39849 Y-46.04766
X20.37309 Y-46.04766
X20.37309 Y-46.02226
X20.34769 Y-46.02226
X20.34769 Y-45.99686
X20.32229 Y-45.99686
X20.32229 Y-45.97146
X20.29689 Y-45.97146
X20.29689 Y-45.94606
X20.27149 Y-45.94606
X20.27149 Y-45.92066
X20.24609 Y-45.92066
X20.24609 Y-45.89526
X20.22069 Y-45.89526
X20.22069 Y-45.86986
X20.19529 Y-45.86986
X20.19529 Y-45.84446
X20.16989 Y-45.84446
X20.16989 Y-45.81906
X20.14449 Y-45.81906
X20.14449 Y-45.79366
X20.11909 Y-45.79366
X20.11909 Y-45.76826
X20.09369 Y-45.76826
X20.09369 Y-45.74286
X20.06829 Y-45.74286
X20.06829 Y-45.71746
X20.04289 Y-45.71746
X20.04289 Y-45.69206
X20.01749 Y-45.69206
X20.01749 Y-45.66666
X19.99209 Y-45.66666
X19.99209 Y-45.64126
X19.96669 Y-45.64126
X19.96669 Y-45.61586
X19.94129 Y-45.61586
X19.94129 Y-45.59046
X19.91589 Y-45.59046
X19.91589 Y-45.56506
X19.89049 Y-45.56506
X19.89049 Y-45.53966
X19.86509 Y-45.53966
X19.86509 Y-45.51426
X19.83969 Y-45.51426
X19.83969 Y-45.48886
X19.81429 Y-45.48886
X19.81429 Y-45.46346
X19.78889 Y-45.46346
X19.78889 Y-45.43806
X19.76349 Y-45.43806
X19.76349 Y-45.41266
X19.73809 Y-45.41266
X19.73809 Y-45.38726
X19.71269 Y-45.38726
X19.71269 Y-45.36186
X19.68729 Y-45.36186
X19.68729 Y-45.33646
X19.66189 Y-45.33646
X19.66189 Y-40.00246
X19.68729 Y-40.00246
X19.68729 Y-39.97706
X19.71269 Y-39.97706
X19.71269 Y-39.95166
X19.73809 Y-39.95166
X19.73809 Y-39.92626
X19.76349 Y-39.92626
X19.76349 Y-39.90086
X19.78889 Y-39.90086
X19.78889 Y-39.87546
X19.81429 Y-39.87546
X19.81429 Y-39.85006
X19.83969 Y-39.85006
X19.83969 Y-39.82466
X19.86509 Y-39.82466
X19.86509 Y-39.79926
X19.89049 Y-39.79926
X19.89049 Y-39.77386
X19.91589 Y-39.77386
X19.91589 Y-39.74846
X19.94129 Y-39.74846
X19.94129 Y-39.72306
X19.96669 Y-39.72306
X19.96669 Y-39.69766
X19.99209 Y-39.69766
X19.99209 Y-39.67226
X20.01749 Y-39.67226
X20.01749 Y-39.64686
X20.04289 Y-39.64686
X20.04289 Y-39.62146
X20.06829 Y-39.62146
X20.06829 Y-39.59606
X20.09369 Y-39.59606
X20.09369 Y-39.57066
X20.11909 Y-39.57066
X20.11909 Y-39.54526
X20.14449 Y-39.54526
X20.14449 Y-39.51986
X20.16989 Y-39.51986
X20.16989 Y-39.49446
X20.19529 Y-39.49446
X20.19529 Y-39.46906
X20.22069 Y-39.46906
X20.22069 Y-39.44366
X20.24609 Y-39.44366
X20.24609 Y-39.41826
X20.27149 Y-39.41826
X20.27149 Y-39.39286
X20.29689 Y-39.39286
X20.29689 Y-39.36746
X20.32229 Y-39.36746
X20.32229 Y-39.34206
X20.34769 Y-39.34206
X20.34769 Y-39.31666
X20.37309 Y-39.31666
X20.37309 Y-39.29126
X25.60549 Y-39.29126
X25.60549 Y-39.31666
X25.63089 Y-39.31666
X25.63089 Y-39.36746
X25.68169 Y-39.36746
X25.68169 Y-39.39286
X25.73249 Y-39.39286
X25.73249 Y-39.41826
X25.75789 Y-39.41826
X25.75789 Y-39.44366
X25.80869 Y-39.44366
X25.80869 Y-39.46906
X25.85949 Y-39.46906
X25.85949 Y-39.49446
X25.93569 Y-39.49446
X25.93569 Y-39.51986
X26.08809 Y-39.51986
X26.08809 Y-39.54526
X26.62149 Y-39.54526
X26.62149 Y-39.51986
X26.77389 Y-39.51986
X26.77389 Y-39.49446
X26.85009 Y-39.49446
X26.85009 Y-39.46906
X26.90089 Y-39.46906
X26.90089 Y-39.44366
X26.95169 Y-39.44366
X26.95169 Y-39.41826
X26.97709 Y-39.41826
X26.97709 Y-39.39286
X27.02789 Y-39.39286
X27.02789 Y-39.36746
X27.05329 Y-39.36746
X27.05329 Y-39.34206
X27.07869 Y-39.34206
X27.07869 Y-39.31666
X27.10409 Y-39.31666
X27.10409 Y-39.29126
X27.12949 Y-39.29126
X27.12949 Y-39.26586
X27.15489 Y-39.26586
X27.15489 Y-39.21506
X27.18029 Y-39.21506
X27.18029 Y-39.18966
X27.20569 Y-39.18966
X27.20569 Y-39.13886
X27.23109 Y-39.13886
X27.23109 Y-39.11346
X27.25649 Y-39.11346
X27.25649 Y-38.98646
X27.28189 Y-38.98646
X27.28189 Y-38.85946
X27.30729 Y-38.85946
X27.30729 Y-38.32606
X27.28189 Y-38.32606
X27.28189 Y-38.19906
X27.25649 Y-38.19906
X27.25649 Y-38.07206
X27.23109 Y-38.07206
X27.23109 Y-38.04666
X27.20569 Y-38.04666
X27.20569 Y-37.99586
X27.18029 Y-37.99586
X27.18029 Y-37.97046
X27.15489 Y-37.97046
X27.15489 Y-37.91966
X27.12949 Y-37.91966
X27.12949 Y-37.89426
X27.10409 Y-37.89426
X27.10409 Y-37.86886
X27.07869 Y-37.86886
X27.07869 Y-37.81806
X27.02789 Y-37.81806
X27.02789 Y-37.79266
X26.97709 Y-37.79266
X26.97709 Y-37.76726
X26.92629 Y-37.76726
X26.92629 Y-37.74186
X26.90089 Y-37.74186
X26.90089 Y-37.71646
X26.85009 Y-37.71646
X26.85009 Y-37.69106
X26.77389 Y-37.69106
X26.77389 Y-37.66566
X26.62149 Y-37.66566
X26.62149 Y-37.64026
X26.08809 Y-37.64026
X26.08809 Y-37.66566
X25.93569 Y-37.66566
X25.93569 Y-37.69106
X25.85949 Y-37.69106
X25.85949 Y-37.71646
X25.80869 Y-37.71646
X25.80869 Y-37.74186
X25.78329 Y-37.74186
X25.78329 Y-37.76726
X25.73249 Y-37.76726
X25.73249 Y-37.79266
X25.68169 Y-37.79266
X25.68169 Y-37.81806
X25.63089 Y-37.81806
X25.63089 Y-37.84346
G04 P0 ( dwell for no time -- G64 should not smooth over this point )
G00 Z2.00000 ( retract )

G00 X27.28189 Y-39.06266 ( rapid move to begin. )
F50.00000
G01 Z-0.20000
G04 P0 ( dwell for no time -- G64 should not smooth over this point )
F100.00000
X27.28189 Y-39.06266
X27.25649 Y-39.06266
X27.25649 Y-39.11346
X27.23109 Y-39.11346
X27.23109 Y-39.13886
X27.20569 Y-39.13886
X27.20569 Y-39.18966
X27.18029 Y-39.18966
X27.18029 Y-39.21506
X27.15489 Y-39.21506
X27.15489 Y-39.26586
X27.12949 Y-39.26586
X27.12949 Y-39.29126
X27.10409 Y-39.29126
X27.10409 Y-39.31666
X27.07869 Y-39.31666
X27.07869 Y-39.34206
X27.05329 Y-39.34206
X27.05329 Y-39.36746
X27.02789 Y-39.36746
X27.02789 Y-39.39286
X26.97709 Y-39.39286
X26.97709 Y-39.41826
X26.95169 Y-39.41826
X26.95169 Y-39.44366
X26.90089 Y-39.44366
X26.90089 Y-39.46906
X26.85009 Y-39.46906
X26.85009 Y-39.49446
X26.79929 Y-39.49446
X26.79929 Y-39.51986
X26.74849 Y-39.51986
X26.74849 Y-39.54526
X26.69769 Y-39.54526
X26.69769 Y-39.57066
X26.67229 Y-39.57066
X26.67229 Y-39.59606
X26.64689 Y-39.59606
X26.64689 Y-39.62146
X26.62149 Y-39.62146
X26.62149 Y-40.10406
X26.64689 Y-40.10406
X26.64689 Y-40.12946
X26.67229 Y-40.12946
X26.67229 Y-40.15486
X26.69769 Y-40.15486
X26.69769 Y-40.18026
X26.74849 Y-40.18026
X26.74849 Y-40.20566
X26.82469 Y-40.20566
X26.82469 Y-40.23106
X26.87549 Y-40.23106
X26.87549 Y-40.25646
X26.90089 Y-40.25646
X26.90089 Y-40.28186
X26.92629 Y-40.28186
X26.92629 Y-40.30726
X26.95169 Y-40.30726
X26.95169 Y-40.33266
X26.97709 Y-40.33266
X26.97709 Y-40.35806
X27.00249 Y-40.35806
X27.00249 Y-40.38346
X27.05329 Y-40.38346
X27.05329 Y-40.43426
X27.07869 Y-40.43426
X27.07869 Y-40.45966
X27.10409 Y-40.45966
X27.10409 Y-40.48506
X27.12949 Y-40.48506
X27.12949 Y-40.51046
X27.15489 Y-40.51046
X27.15489 Y-40.53586
X27.18029 Y-40.53586
X27.18029 Y-40.56126
X27.20569 Y-40.56126
X27.20569 Y-40.58666
X27.23109 Y-40.58666
X27.23109 Y-40.61206
X27.25649 Y-40.61206
X27.25649 Y-40.66286
X27.28189 Y-40.66286
X27.28189 Y-40.71366
X27.30729 Y-40.71366
X27.30729 Y-40.76446
X27.33269 Y-40.76446
X27.33269 Y-40.78986
X27.35809 Y-40.78986
X27.35809 Y-40.81526
X27.38349 Y-40.81526
X27.38349 Y-40.84066
X27.86609 Y-40.84066
X27.86609 Y-40.84066
X27.89149 Y-40.84066
X27.89149 Y-40.86606
X27.91689 Y-40.86606
X27.91689 Y-40.89146
X27.94229 Y-40.89146
X27.94229 Y-41.34866
X27.91689 Y-41.34866
X27.91689 Y-41.37406
X27.89149 Y-41.37406
X27.89149 Y-41.39946
X27.86609 Y-41.39946
X27.86609 Y-41.39946
X27.38349 Y-41.39946
X27.38349 Y-41.42486
X27.35809 Y-41.42486
X27.35809 Y-41.45026
X27.33269 Y-41.45026
X27.33269 Y-41.47566
X27.30729 Y-41.47566
X27.30729 Y-41.52646
X27.28189 Y-41.52646
X27.28189 Y-41.60266
X27.25649 Y-41.60266
X27.25649 Y-41.65346
X27.23109 Y-41.65346
X27.23109 Y-41.67886
X27.20569 Y-41.67886
X27.20569 Y-41.70426
X27.18029 Y-41.70426
X27.18029 Y-41.72966
X27.15489 Y-41.72966
X27.15489 Y-41.75506
X27.12949 Y-41.75506
X27.12949 Y-41.78046
X27.10409 Y-41.78046
X27.10409 Y-41.80586
X27.07869 Y-41.80586
X27.07869 Y-41.83126
X27.05329 Y-41.83126
X27.05329 Y-41.88206
X27.00249 Y-41.88206
X27.00249 Y-41.90746
X26.97709 Y-41.90746
X26.97709 Y-41.93286
X26.95169 Y-41.93286
X26.95169 Y-41.95826
X26.92629 Y-41.95826
X26.92629 Y-41.98366
X26.90089 Y-41.98366
X26.90089 Y-42.03446
X26.87549 Y-42.03446
X26.87549 Y-42.51706
X26.90089 Y-42.51706
X26.90089 Y-42.54246
X26.92629 Y-42.54246
X26.92629 Y-42.56786
X26.95169 Y-42.56786
X26.95169 Y-42.59326
X27.05329 Y-42.59326
X27.05329 Y-42.61866
X27.10409 Y-42.61866
X27.10409 Y-42.64406
X27.18029 Y-42.64406
X27.18029 Y-42.66946
X27.20569 Y-42.66946
X27.20569 Y-42.69486
X27.23109 Y-42.69486
X27.23109 Y-42.72026
X27.25649 Y-42.72026
X27.25649 Y-42.74566
X27.28189 Y-42.74566
X27.28189 Y-42.77106
X27.30729 Y-42.77106
X27.30729 Y-42.79646
X27.33269 Y-42.79646
X27.33269 Y-42.82186
X27.35809 Y-42.82186
X27.35809 Y-42.84726
X27.38349 Y-42.84726
X27.38349 Y-42.92346
X27.40889 Y-42.92346
X27.40889 Y-42.97426
X27.43429 Y-42.97426
X27.43429 Y-43.07586
X27.45969 Y-43.07586
X27.45969 Y-43.10126
X27.48509 Y-43.10126
X27.48509 Y-43.12666
X27.51049 Y-43.12666
X27.51049 Y-43.15206
X27.99309 Y-43.15206
X27.99309 Y-43.12666
X28.04389 Y-43.12666
X28.04389 Y-43.10126
X28.06929 Y-43.10126
X28.06929 Y-43.07586
X28.09469 Y-43.07586
X28.09469 Y-43.05046
X28.12009 Y-43.05046
X28.12009 Y-43.02506
X28.14549 Y-43.02506
X28.14549 Y-42.99966
X28.17089 Y-42.99966
X28.17089 Y-42.97426
X28.19629 Y-42.97426
X28.19629 Y-42.92346
X28.24709 Y-42.92346
X28.24709 Y-42.89806
X28.27249 Y-42.89806
X28.27249 Y-42.87266
X28.29789 Y-42.87266
X28.29789 Y-42.84726
X28.32329 Y-42.84726
X28.32329 Y-42.82186
X28.34869 Y-42.82186
X28.34869 Y-42.79646
X28.37409 Y-42.79646
X28.37409 Y-42.77106
X28.42489 Y-42.77106
X28.42489 Y-42.74566
X28.47569 Y-42.74566
X28.47569 Y-42.72026
X28.52649 Y-42.72026
X28.52649 Y-42.69486
X28.55189 Y-42.69486
X28.55189 Y-42.66946
X28.57729 Y-42.66946
X28.57729 Y-42.64406
X28.60269 Y-42.64406
X28.60269 Y-42.16146
X28.62809 Y-42.16146
X28.62809 Y-42.13606
X28.65349 Y-42.13606
X28.65349 Y-42.11066
X28.67889 Y-42.11066
X28.67889 Y-42.08526
X29.13609 Y-42.08526
X29.13609 Y-42.11066
X29.16149 Y-42.11066
X29.16149 Y-42.13606
X29.18689 Y-42.13606
X29.18689 Y-42.16146
X29.16149 Y-42.16146
X29.16149 Y-42.64406
X29.18689 Y-42.64406
X29.18689 Y-42.66946
X29.21229 Y-42.66946
X29.21229 Y-42.69486
X29.23769 Y-42.69486
X29.23769 Y-42.72026
X29.28849 Y-42.72026
X29.28849 Y-42.74566
X29.36469 Y-42.74566
X29.36469 Y-42.77106
X29.41549 Y-42.77106
X29.41549 Y-42.79646
X29.44089 Y-42.79646
X29.44089 Y-42.82186
X29.46629 Y-42.82186
X29.46629 Y-42.84726
X29.49169 Y-42.84726
X29.49169 Y-42.87266
X29.51709 Y-42.87266
X29.51709 Y-42.89806
X29.54249 Y-42.89806
X29.54249 Y-42.92346
X29.59329 Y-42.92346
X29.59329 Y-42.97426
X29.61869 Y-42.97426
X29.61869 Y-42.99966
X29.64409 Y-42.99966
X29.64409 Y-43.02506
X29.66949 Y-43.02506
X29.66949 Y-43.05046
X29.69489 Y-43.05046
X29.69489 Y-43.07586
X29.72029 Y-43.07586
X29.72029 Y-43.10126
X29.74569 Y-43.10126
X29.74569 Y-43.12666
X29.77109 Y-43.12666
X29.77109 Y-43.15206
X29.79649 Y-43.15206
X29.79649 Y-43.20286
X29.82189 Y-43.20286
X29.82189 Y-43.25366
X29.84729 Y-43.25366
X29.84729 Y-43.32986
X29.87269 Y-43.32986
X29.87269 Y-43.38066
X29.89809 Y-43.38066
X29.89809 Y-43.45686
X29.92349 Y-43.45686
X29.92349 Y-43.50766
X29.94889 Y-43.50766
X29.94889 Y-43.58386
X29.97429 Y-43.58386
X29.97429 Y-43.76166
X29.94889 Y-43.76166
X29.94889 Y-43.83786
X29.92349 Y-43.83786
X29.92349 Y-43.88866
X29.89809 Y-43.88866
X29.89809 Y-43.96486
X29.87269 Y-43.96486
X29.87269 Y-44.01566
X29.84729 Y-44.01566
X29.84729 Y-44.09186
X29.82189 Y-44.09186
X29.82189 Y-44.14266
X29.79649 Y-44.14266
X29.79649 Y-44.19346
X29.77109 Y-44.19346
X29.77109 Y-44.21886
X29.74569 Y-44.21886
X29.74569 Y-44.26966
X29.72029 Y-44.26966
X29.72029 Y-44.82846
X29.69489 Y-44.82846
X29.69489 Y-45.33646
X29.72029 Y-45.33646
X29.72029 Y-45.36186
X29.74569 Y-45.36186
X29.74569 Y-45.38726
X29.77109 Y-45.38726
X29.77109 Y-45.41266
X30.43149 Y-45.41266
X30.43149 Y-45.38726
X30.48229 Y-45.38726
X30.48229 Y-45.36186
X30.50769 Y-45.36186
X30.50769 Y-45.33646
X30.53309 Y-45.33646
X30.53309 Y-45.31106
X30.55849 Y-45.31106
X30.55849 Y-45.28566
X30.58389 Y-45.28566
X30.58389 Y-45.26026
X30.60929 Y-45.26026
X30.60929 Y-45.23486
X30.63469 Y-45.23486
X30.63469 Y-45.20946
X30.66009 Y-45.20946
X30.66009 Y-45.18406
X30.68549 Y-45.18406
X30.68549 Y-45.15866
X30.71089 Y-45.15866
X30.71089 Y-45.13326
X30.73629 Y-45.13326
X30.73629 Y-45.10786
X30.76169 Y-45.10786
X30.76169 Y-45.08246
X30.78709 Y-45.08246
X30.78709 Y-45.05706
X30.81249 Y-45.05706
X30.81249 Y-45.03166
X30.83789 Y-45.03166
X30.83789 Y-45.00626
X30.86329 Y-45.00626
X30.86329 Y-44.98086
X30.88869 Y-44.98086
X30.88869 Y-44.95546
X30.91409 Y-44.95546
X30.91409 Y-44.90466
X30.93949 Y-44.90466
X30.93949 Y-44.62526
X30.96489 Y-44.62526
X30.96489 Y-44.54906
X30.99029 Y-44.54906
X30.99029 Y-44.49826
X31.01569 Y-44.49826
X31.01569 Y-44.42206
X31.04109 Y-44.42206
X31.04109 Y-44.37126
X31.06649 Y-44.37126
X31.06649 Y-44.29506
X31.09189 Y-44.29506
X31.09189 Y-44.24426
X31.11729 Y-44.24426
X31.11729 Y-44.19346
X31.14269 Y-44.19346
X31.14269 Y-44.14266
X31.16809 Y-44.14266
X31.16809 Y-44.11726
X31.19349 Y-44.11726
X31.19349 Y-44.09186
X31.21889 Y-44.09186
X31.21889 Y-44.06646
X31.24429 Y-44.06646
X31.24429 Y-44.04106
X31.26969 Y-44.04106
X31.26969 Y-44.01566
X31.29509 Y-44.01566
X31.29509 Y-43.99026
X31.32049 Y-43.99026
X31.32049 Y-43.96486
X31.34589 Y-43.96486
X31.34589 Y-43.93946
X31.37129 Y-43.93946
X31.37129 Y-43.91406
X31.39669 Y-43.91406
X31.39669 Y-43.88866
X31.42209 Y-43.88866
X31.42209 Y-43.86326
X31.44749 Y-43.86326
X31.44749 Y-43.83786
X31.49829 Y-43.83786
X31.49829 Y-43.81246
X31.54909 Y-43.81246
X31.54909 Y-43.78706
X31.62529 Y-43.78706
X31.62529 Y-43.76166
X31.67609 Y-43.76166
X31.67609 Y-43.73626
X31.75229 Y-43.73626
X31.75229 Y-43.71086
X31.80309 Y-43.71086
X31.80309 Y-43.68546
X31.87929 Y-43.68546
X31.87929 Y-43.66006
X32.00629 Y-43.66006
X32.00629 Y-43.68546
X32.05709 Y-43.68546
X32.05709 Y-43.71086
X32.10789 Y-43.71086
X32.10789 Y-43.73626
X32.15869 Y-43.73626
X32.15869 Y-43.76166
X32.23489 Y-43.76166
X32.23489 Y-43.78706
X32.28569 Y-43.78706
X32.28569 Y-43.81246
X32.33649 Y-43.81246
X32.33649 Y-43.83786
X32.81909 Y-43.83786
X32.81909 Y-43.81246
X32.84449 Y-43.81246
X32.84449 Y-43.78706
X32.86989 Y-43.78706
X32.86989 Y-43.76166
X32.89529 Y-43.76166
X32.89529 Y-40.89146
X32.86989 Y-40.89146
X32.86989 Y-40.86606
X32.84449 Y-40.86606
X32.84449 Y-40.81526
X32.81909 Y-40.81526
X32.81909 Y-40.78986
X32.79369 Y-40.78986
X32.79369 Y-40.76446
X32.76829 Y-40.76446
X32.76829 Y-40.73906
X32.74289 Y-40.73906
X32.74289 Y-40.71366
X32.71749 Y-40.71366
X32.71749 Y-40.68826
X32.69209 Y-40.68826
X32.69209 Y-40.66286
X32.66669 Y-40.66286
X32.66669 Y-40.63746
X32.64129 Y-40.63746
X32.64129 Y-40.61206
X32.61589 Y-40.61206
X32.61589 Y-40.58666
X32.59049 Y-40.58666
X32.59049 Y-40.56126
X32.56509 Y-40.56126
X32.56509 Y-40.53586
X32.53969 Y-40.53586
X32.53969 Y-40.51046
X32.51429 Y-40.51046
X32.51429 Y-40.48506
X32.48889 Y-40.48506
X32.48889 Y-40.45966
X32.46349 Y-40.45966
X32.46349 Y-40.43426
X32.43809 Y-40.43426
X32.43809 Y-40.40886
X32.41269 Y-40.40886
X32.41269 Y-40.38346
X32.38729 Y-40.38346
X32.38729 Y-40.35806
X32.36189 Y-40.35806
X32.36189 Y-40.33266
X32.33649 Y-40.33266
X32.33649 Y-40.30726
X32.31109 Y-40.30726
X32.31109 Y-40.28186
X32.28569 Y-40.28186
X32.28569 Y-40.25646
X32.26029 Y-40.25646
X32.26029 Y-40.23106
X32.23489 Y-40.23106
X32.23489 Y-40.20566
X32.20949 Y-40.20566
X32.20949 Y-40.18026
X32.18409 Y-40.18026
X32.18409 Y-40.15486
X32.15869 Y-40.15486
X32.15869 Y-40.12946
X32.13329 Y-40.12946
X32.13329 Y-40.10406
X32.10789 Y-40.10406
X32.10789 Y-40.07866
X32.08249 Y-40.07866
X32.08249 Y-40.05326
X32.05709 Y-40.05326
X32.05709 Y-40.02786
X32.03169 Y-40.02786
X32.03169 Y-40.00246
X32.00629 Y-40.00246
X32.00629 Y-39.97706
X31.98089 Y-39.97706
X31.98089 Y-39.95166
X31.95549 Y-39.95166
X31.95549 Y-39.92626
X31.93009 Y-39.92626
X31.93009 Y-39.90086
X31.90469 Y-39.90086
X31.90469 Y-39.87546
X31.87929 Y-39.87546
X31.87929 Y-39.85006
X31.85389 Y-39.85006
X31.85389 Y-39.82466
X31.82849 Y-39.82466
X31.82849 Y-39.79926
X31.80309 Y-39.79926
X31.80309 Y-39.77386
X31.77769 Y-39.77386
X31.77769 Y-39.74846
X31.75229 Y-39.74846
X31.75229 Y-39.72306
X31.72689 Y-39.72306
X31.72689 Y-39.69766
X31.70149 Y-39.69766
X31.70149 Y-39.67226
X31.67609 Y-39.67226
X31.67609 Y-39.64686
X31.65069 Y-39.64686
X31.65069 Y-39.62146
X31.62529 Y-39.62146
X31.62529 Y-39.59606
X31.59989 Y-39.59606
X31.59989 Y-39.57066
X31.57449 Y-39.57066
X31.57449 Y-39.54526
X31.54909 Y-39.54526
X31.54909 Y-39.51986
X31.52369 Y-39.51986
X31.52369 Y-39.49446
X31.49829 Y-39.49446
X31.49829 Y-39.46906
X31.44749 Y-39.46906
X31.44749 Y-39.44366
X31.42209 Y-39.44366
X31.42209 Y-39.41826
X29.49169 Y-39.41826
X29.49169 Y-39.44366
X29.44089 Y-39.44366
X29.44089 Y-39.46906
X29.39009 Y-39.46906
X29.39009 Y-39.49446
X29.33929 Y-39.49446
X29.33929 Y-39.51986
X29.31389 Y-39.51986
X29.31389 Y-39.54526
X29.26309 Y-39.54526
X29.26309 Y-39.57066
X29.23769 Y-39.57066
X29.23769 Y-39.59606
X29.21229 Y-39.59606
X29.21229 Y-39.62146
X29.18689 Y-39.62146
X29.18689 Y-40.10406
X29.16149 Y-40.10406
X29.16149 Y-40.12946
X29.13609 Y-40.12946
X29.13609 Y-40.15486
X29.11069 Y-40.15486
X29.11069 Y-40.18026
X28.67889 Y-40.18026
X28.67889 Y-40.15486
X28.65349 Y-40.15486
X28.65349 Y-40.12946
X28.62809 Y-40.12946
X28.62809 Y-40.10406
X28.62809 Y-40.10406
X28.62809 Y-39.62146
X28.60269 Y-39.62146
X28.60269 Y-39.59606
X28.57729 Y-39.59606
X28.57729 Y-39.57066
X28.55189 Y-39.57066
X28.55189 Y-39.54526
X28.50109 Y-39.54526
X28.50109 Y-39.51986
X28.42489 Y-39.51986
X28.42489 Y-39.49446
X28.37409 Y-39.49446
X28.37409 Y-39.46906
X28.34869 Y-39.46906
X28.34869 Y-39.44366
X28.29789 Y-39.44366
X28.29789 Y-39.41826
X28.27249 Y-39.41826
X28.27249 Y-39.39286
X28.22169 Y-39.39286
X28.22169 Y-39.36746
X28.19629 Y-39.36746
X28.19629 Y-39.34206
X28.17089 Y-39.34206
X28.17089 Y-39.31666
X28.14549 Y-39.31666
X28.14549 Y-39.29126
X28.12009 Y-39.29126
X28.12009 Y-39.26586
X28.09469 Y-39.26586
X28.09469 Y-39.21506
X28.06929 Y-39.21506
X28.06929 Y-39.18966
X28.04389 Y-39.18966
X28.04389 Y-39.13886
X28.01849 Y-39.13886
X28.01849 Y-39.11346
X27.99309 Y-39.11346
X27.99309 Y-39.03726
X27.96769 Y-39.03726
X27.96769 Y-38.98646
X27.94229 Y-38.98646
X27.94229 Y-38.93566
X27.91689 Y-38.93566
X27.91689 Y-38.91026
X27.89149 Y-38.91026
X27.89149 Y-38.88486
X27.86609 Y-38.88486
X27.86609 Y-38.85946
X27.38349 Y-38.85946
X27.38349 Y-38.88486
X27.35809 Y-38.88486
X27.35809 Y-38.91026
X27.33269 Y-38.91026
X27.33269 Y-38.93566
X27.30729 Y-38.93566
X27.30729 Y-38.98646
X27.28189 Y-38.98646
X27.28189 Y-39.06266
G04 P0 ( dwell for no time -- G64 should not smooth over this point )
G00 Z2.00000 ( retract )

G00 X28.17089 Y-37.84346 ( rapid move to begin. )
F50.00000
G01 Z-0.20000
G04 P0 ( dwell for no time -- G64 should not smooth over this point )
F100.00000
X28.17089 Y-37.84346
X28.17089 Y-37.86886
X28.14549 Y-37.86886
X28.14549 Y-37.89426
X28.12009 Y-37.89426
X28.12009 Y-37.91966
X28.09469 Y-37.91966
X28.09469 Y-37.97046
X28.06929 Y-37.97046
X28.06929 Y-37.99586
X28.04389 Y-37.99586
X28.04389 Y-38.04666
X28.01849 Y-38.04666
X28.01849 Y-38.07206
X27.99309 Y-38.07206
X27.99309 Y-38.19906
X27.96769 Y-38.19906
X27.96769 Y-38.32606
X27.94229 Y-38.32606
X27.94229 Y-38.85946
X27.96769 Y-38.85946
X27.96769 Y-38.98646
X27.99309 Y-38.98646
X27.99309 Y-39.11346
X28.01849 Y-39.11346
X28.01849 Y-39.13886
X28.04389 Y-39.13886
X28.04389 Y-39.18966
X28.06929 Y-39.18966
X28.06929 Y-39.21506
X28.09469 Y-39.21506
X28.09469 Y-39.26586
X28.12009 Y-39.26586
X28.12009 Y-39.29126
X28.14549 Y-39.29126
X28.14549 Y-39.31666
X28.17089 Y-39.31666
X28.17089 Y-39.34206
X28.19629 Y-39.34206
X28.19629 Y-39.36746
X28.22169 Y-39.36746
X28.22169 Y-39.39286
X28.27249 Y-39.39286
X28.27249 Y-39.41826
X28.29789 Y-39.41826
X28.29789 Y-39.44366
X28.34869 Y-39.44366
X28.34869 Y-39.46906
X28.39949 Y-39.46906
X28.39949 Y-39.49446
X28.47569 Y-39.49446
X28.47569 Y-39.51986
X28.62809 Y-39.51986
X28.62809 Y-39.54526
X29.16149 Y-39.54526
X29.16149 Y-39.51986
X29.31389 Y-39.51986
X29.31389 Y-39.49446
X29.39009 Y-39.49446
X29.39009 Y-39.46906
X29.44089 Y-39.46906
X29.44089 Y-39.44366
X29.49169 Y-39.44366
X29.49169 Y-39.41826
X29.51709 Y-39.41826
X29.51709 Y-39.39286
X29.56789 Y-39.39286
X29.56789 Y-39.36746
X29.61869 Y-39.36746
X29.61869 Y-39.31666
X29.64409 Y-39.31666
X29.64409 Y-39.29126
X31.29509 Y-39.29126
X31.29509 Y-39.31666
X31.32049 Y-39.31666
X31.32049 Y-39.34206
X31.34589 Y-39.34206
X31.34589 Y-39.36746
X31.37129 Y-39.36746
X31.37129 Y-39.39286
X31.39669 Y-39.39286
X31.39669 Y-39.41826
X31.42209 Y-39.41826
X31.42209 Y-39.44366
X31.44749 Y-39.44366
X31.44749 Y-39.46906
X31.49829 Y-39.46906
X31.49829 Y-39.49446
X31.52369 Y-39.49446
X31.52369 Y-39.51986
X31.54909 Y-39.51986
X31.54909 Y-39.54526
X31.57449 Y-39.54526
X31.57449 Y-39.57066
X31.59989 Y-39.57066
X31.59989 Y-39.59606
X31.62529 Y-39.59606
X31.62529 Y-39.62146
X31.65069 Y-39.62146
X31.65069 Y-39.64686
X31.67609 Y-39.64686
X31.67609 Y-39.67226
X31.70149 Y-39.67226
X31.70149 Y-39.69766
X31.72689 Y-39.69766
X31.72689 Y-39.72306
X31.75229 Y-39.72306
X31.75229 Y-39.74846
X31.77769 Y-39.74846
X31.77769 Y-39.77386
X31.80309 Y-39.77386
X31.80309 Y-39.79926
X31.82849 Y-39.79926
X31.82849 Y-39.82466
X31.85389 Y-39.82466
X31.85389 Y-39.85006
X31.87929 Y-39.85006
X31.87929 Y-39.87546
X31.90469 Y-39.87546
X31.90469 Y-39.90086
X31.93009 Y-39.90086
X31.93009 Y-39.92626
X31.95549 Y-39.92626
X31.95549 Y-39.95166
X31.98089 Y-39.95166
X31.98089 Y-39.97706
X32.00629 Y-39.97706
X32.00629 Y-40.00246
X32.03169 Y-40.00246
X32.03169 Y-40.02786
X32.05709 Y-40.02786
X32.05709 Y-40.05326
X32.08249 Y-40.05326
X32.08249 Y-40.07866
X32.10789 Y-40.07866
X32.10789 Y-40.10406
X32.13329 Y-40.10406
X32.13329 Y-40.12946
X32.15869 Y-40.12946
X32.15869 Y-40.15486
X32.18409 Y-40.15486
X32.18409 Y-40.18026
X32.20949 Y-40.18026
X32.20949 Y-40.20566
X32.23489 Y-40.20566
X32.23489 Y-40.23106
X32.26029 Y-40.23106
X32.26029 Y-40.25646
X32.28569 Y-40.25646
X32.28569 Y-40.28186
X32.31109 Y-40.28186
X32.31109 Y-40.30726
X32.33649 Y-40.30726
X32.33649 Y-40.33266
X32.36189 Y-40.33266
X32.36189 Y-40.35806
X32.38729 Y-40.35806
X32.38729 Y-40.38346
X32.41269 Y-40.38346
X32.41269 Y-40.40886
X32.43809 Y-40.40886
X32.43809 Y-40.43426
X32.46349 Y-40.43426
X32.46349 Y-40.45966
X32.48889 Y-40.45966
X32.48889 Y-40.48506
X32.51429 Y-40.48506
X32.51429 Y-40.51046
X32.53969 Y-40.51046
X32.53969 Y-40.53586
X32.56509 Y-40.53586
X32.56509 Y-40.56126
X32.59049 Y-40.56126
X32.59049 Y-40.58666
X32.61589 Y-40.58666
X32.61589 Y-40.61206
X32.64129 Y-40.61206
X32.64129 Y-40.63746
X32.66669 Y-40.63746
X32.66669 Y-40.66286
X32.69209 Y-40.66286
X32.69209 Y-40.68826
X32.71749 Y-40.68826
X32.71749 Y-40.71366
X32.74289 Y-40.71366
X32.74289 Y-40.73906
X32.76829 Y-40.73906
X32.76829 Y-40.76446
X32.79369 Y-40.76446
X32.79369 Y-40.78986
X32.81909 Y-40.78986
X32.81909 Y-40.81526
X32.84449 Y-40.81526
X32.84449 Y-40.86606
X32.86989 Y-40.86606
X32.86989 Y-40.89146
X32.89529 Y-40.89146
X32.89529 Y-40.91686
X32.92069 Y-40.91686
X32.92069 Y-40.94226
X32.94609 Y-40.94226
X32.94609 Y-40.96766
X32.97149 Y-40.96766
X32.97149 Y-40.99306
X32.99689 Y-40.99306
X32.99689 Y-41.01846
X33.02229 Y-41.01846
X33.02229 Y-46.35246
X32.99689 Y-46.35246
X32.99689 Y-46.37786
X32.97149 Y-46.37786
X32.97149 Y-46.40326
X32.94609 Y-46.40326
X32.94609 Y-46.42866
X32.92069 Y-46.42866
X32.92069 Y-46.45406
X32.89529 Y-46.45406
X32.89529 Y-46.47946
X32.86989 Y-46.47946
X32.86989 Y-46.50486
X32.84449 Y-46.50486
X32.84449 Y-46.53026
X32.81909 Y-46.53026
X32.81909 Y-46.55566
X32.79369 Y-46.55566
X32.79369 Y-46.58106
X32.76829 Y-46.58106
X32.76829 Y-46.60646
X32.74289 Y-46.60646
X32.74289 Y-46.63186
X32.71749 Y-46.63186
X32.71749 Y-46.65726
X32.69209 Y-46.65726
X32.69209 Y-46.68266
X32.66669 Y-46.68266
X32.66669 Y-46.70806
X32.64129 Y-46.70806
X32.64129 Y-46.73346
X32.61589 Y-46.73346
X32.61589 Y-46.75886
X32.59049 Y-46.75886
X32.59049 Y-46.78426
X32.56509 Y-46.78426
X32.56509 Y-46.80966
X32.53969 Y-46.80966
X32.53969 Y-46.83506
X32.51429 Y-46.83506
X32.51429 Y-46.86046
X32.48889 Y-46.86046
X32.48889 Y-46.88586
X32.46349 Y-46.88586
X32.46349 Y-46.91126
X32.43809 Y-46.91126
X32.43809 Y-46.93666
X32.41269 Y-46.93666
X32.41269 Y-46.96206
X32.38729 Y-46.96206
X32.38729 Y-46.98746
X32.36189 Y-46.98746
X32.36189 Y-47.01286
X32.33649 Y-47.01286
X32.33649 Y-47.03826
X32.31109 Y-47.03826
X32.31109 Y-47.06366
X32.28569 Y-47.06366
X32.28569 Y-47.08906
X32.26029 Y-47.08906
X32.26029 Y-47.11446
X32.23489 Y-47.11446
X32.23489 Y-47.13986
X32.20949 Y-47.13986
X32.20949 Y-47.16526
X32.18409 Y-47.16526
X32.18409 Y-47.19066
X32.15869 Y-47.19066
X32.15869 Y-47.21606
X32.13329 Y-47.21606
X32.13329 Y-47.24146
X32.10789 Y-47.24146
X32.10789 Y-47.26686
X32.08249 Y-47.26686
X32.08249 Y-47.29226
X32.05709 Y-47.29226
X32.05709 Y-47.31766
X32.03169 Y-47.31766
X32.03169 Y-47.34306
X32.00629 Y-47.34306
X32.00629 Y-47.36846
X31.98089 Y-47.36846
X31.98089 Y-47.39386
X31.95549 Y-47.39386
X31.95549 Y-47.41926
X31.93009 Y-47.41926
X31.93009 Y-47.44466
X31.90469 Y-47.44466
X31.90469 Y-47.47006
X31.87929 Y-47.47006
X31.87929 Y-47.49546
X31.85389 Y-47.49546
X31.85389 Y-47.52086
X31.82849 Y-47.52086
X31.82849 Y-47.54626
X31.80309 Y-47.54626
X31.80309 Y-47.57166
X31.77769 Y-47.57166
X31.77769 Y-47.59706
X31.75229 Y-47.59706
X31.75229 Y-47.62246
X31.72689 Y-47.62246
X31.72689 Y-47.64786
X31.70149 Y-47.64786
X31.70149 Y-47.67326
X31.67609 Y-47.67326
X31.67609 Y-47.69866
X31.65069 Y-47.69866
X31.65069 Y-47.72406
X31.62529 Y-47.72406
X31.62529 Y-47.74946
X31.59989 Y-47.74946
X31.59989 Y-47.77486
X31.57449 Y-47.77486
X31.57449 Y-47.80026
X31.54909 Y-47.80026
X31.54909 Y-47.82566
X31.52369 Y-47.82566
X31.52369 Y-47.85106
X31.49829 Y-47.85106
X31.49829 Y-47.87646
X31.47289 Y-47.87646
X31.47289 Y-47.90186
X31.44749 Y-47.90186
X31.44749 Y-47.92726
X31.42209 Y-47.92726
X31.42209 Y-47.95266
X31.39669 Y-47.95266
X31.39669 Y-47.97806
X31.37129 Y-47.97806
X31.37129 Y-48.00346
X31.34589 Y-48.00346
X31.34589 Y-48.02886
X31.32049 Y-48.02886
X31.32049 Y-48.05426
X31.29509 Y-48.05426
X31.29509 Y-48.07966
X31.26969 Y-48.07966
X31.26969 Y-48.10506
X31.24429 Y-48.10506
X31.24429 Y-48.13046
X31.21889 Y-48.13046
X31.21889 Y-48.15586
X31.19349 Y-48.15586
X31.19349 Y-48.18126
X31.16809 Y-48.18126
X31.16809 Y-48.20666
X31.14269 Y-48.20666
X31.14269 Y-48.23206
X31.11729 Y-48.23206
X31.11729 Y-48.25746
X31.09189 Y-48.25746
X31.09189 Y-48.28286
X31.06649 Y-48.28286
X31.06649 Y-48.33366
X31.04109 Y-48.33366
X31.04109 Y-48.38446
X31.01569 Y-48.38446
X31.01569 Y-48.48606
X30.99029 Y-48.48606
X30.99029 Y-56.66486
X31.01569 Y-56.66486
X31.01569 Y-56.76646
X31.04109 Y-56.76646
X31.04109 Y-56.81726
X31.06649 Y-56.81726
X31.06649 Y-56.86806
X31.09189 Y-56.86806
X31.09189 Y-56.89346
X31.11729 Y-56.89346
X31.11729 Y-56.91886
X31.14269 Y-56.91886
X31.14269 Y-56.94426
X31.16809 Y-56.94426
X31.16809 Y-56.96966
X31.19349 Y-56.96966
X31.19349 Y-56.99506
X31.21889 Y-56.99506
X31.21889 Y-57.02046
X31.24429 Y-57.02046
X31.24429 Y-57.04586
X31.26969 Y-57.04586
X31.26969 Y-57.07126
X31.29509 Y-57.07126
X31.29509 Y-57.09666
X31.32049 Y-57.09666
X31.32049 Y-57.12206
X31.34589 Y-57.12206
X31.34589 Y-57.14746
X31.37129 Y-57.14746
X31.37129 Y-57.17286
X31.39669 Y-57.17286
X31.39669 Y-57.19826
X31.42209 Y-57.19826
X31.42209 Y-57.22366
X31.44749 Y-57.22366
X31.44749 Y-57.24906
X31.47289 Y-57.24906
X31.47289 Y-57.27446
X31.49829 Y-57.27446
X31.49829 Y-57.29986
X31.52369 Y-57.29986
X31.52369 Y-57.32526
X31.54909 Y-57.32526
X31.54909 Y-57.35066
X31.57449 Y-57.35066
X31.57449 Y-57.37606
X31.59989 Y-57.37606
X31.59989 Y-57.40146
X31.62529 Y-57.40146
X31.62529 Y-57.42686
X31.65069 Y-57.42686
X31.65069 Y-57.45226
X31.67609 Y-57.45226
X31.67609 Y-57.47766
X31.70149 Y-57.47766
X31.70149 Y-57.50306
X31.72689 Y-57.50306
X31.72689 Y-57.52846
X31.75229 Y-57.52846
X31.75229 Y-57.55386
X31.80309 Y-57.55386
X31.80309 Y-57.57926
X31.82849 Y-57.57926
X31.82849 Y-57.60466
X31.85389 Y-57.60466
X31.85389 Y-57.63006
X31.87929 Y-57.63006
X31.87929 Y-57.65546
X31.90469 Y-57.65546
X31.90469 Y-57.68086
X31.93009 Y-57.68086
X31.93009 Y-57.70626
X31.95549 Y-57.70626
X31.95549 Y-57.73166
X31.98089 Y-57.73166
X31.98089 Y-57.75706
X32.00629 Y-57.75706
X32.00629 Y-57.78246
X32.03169 Y-57.78246
X32.03169 Y-57.80786
X32.05709 Y-57.80786
X32.05709 Y-57.83326
X32.08249 Y-57.83326
X32.08249 Y-57.90946
X32.10789 Y-57.90946
X32.10789 Y-57.98566
X32.13329 Y-57.98566
X32.13329 Y-58.06186
X32.15869 Y-58.06186
X32.15869 Y-58.08726
X32.18409 Y-58.08726
X32.18409 Y-58.13806
X32.20949 Y-58.13806
X32.20949 Y-58.18886
X32.23489 Y-58.18886
X32.23489 Y-58.21426
X32.26029 Y-58.21426
X32.26029 Y-58.23966
X32.28569 Y-58.23966
X32.28569 Y-58.26506
X32.31109 Y-58.26506
X32.31109 Y-58.29046
X32.33649 Y-58.29046
X32.33649 Y-58.31586
X32.36189 Y-58.31586
X32.36189 Y-58.34126
X32.38729 Y-58.34126
X32.38729 Y-58.36666
X32.41269 Y-58.36666
X32.41269 Y-58.39206
X32.43809 Y-58.39206
X32.43809 Y-58.41746
X32.46349 Y-58.41746
X32.46349 Y-58.44286
X32.48889 Y-58.44286
X32.48889 Y-58.46826
X32.51429 Y-58.46826
X32.51429 Y-58.49366
X32.53969 Y-58.49366
X32.53969 Y-58.51906
X32.56509 Y-58.51906
X32.56509 Y-58.54446
X32.59049 Y-58.54446
X32.59049 Y-58.56986
X32.61589 Y-58.56986
X32.61589 Y-58.59526
X32.64129 Y-58.59526
X32.64129 Y-58.62066
X32.66669 Y-58.62066
X32.66669 Y-58.64606
X32.69209 Y-58.64606
X32.69209 Y-58.67146
X32.71749 Y-58.67146
X32.71749 Y-58.69686
X32.74289 Y-58.69686
X32.74289 Y-58.72226
X32.76829 Y-58.72226
X32.76829 Y-58.74766
X32.79369 Y-58.74766
X32.79369 Y-58.77306
X32.81909 Y-58.77306
X32.81909 Y-58.79846
X32.84449 Y-58.79846
X32.84449 Y-58.82386
X32.86989 Y-58.82386
X32.86989 Y-58.84926
X32.89529 Y-58.84926
X32.89529 Y-58.87466
X32.92069 Y-58.87466
X32.92069 Y-58.90006
X32.94609 Y-58.90006
X32.94609 Y-58.92546
X32.97149 Y-58.92546
X32.97149 Y-58.95086
X32.99689 Y-58.95086
X32.99689 Y-58.97626
X33.02229 Y-58.97626
X33.02229 Y-59.00166
X33.04769 Y-59.00166
X33.04769 Y-59.02706
X33.07309 Y-59.02706
X33.07309 Y-59.05246
X33.09849 Y-59.05246
X33.09849 Y-59.07786
X33.12389 Y-59.07786
X33.12389 Y-59.10326
X33.14929 Y-59.10326
X33.14929 Y-59.12866
X33.17469 Y-59.12866
X33.17469 Y-59.15406
X33.20009 Y-59.15406
X33.20009 Y-59.17946
X33.22549 Y-59.17946
X33.22549 Y-59.20486
X33.25089 Y-59.20486
X33.25089 Y-59.23026
X33.27629 Y-59.23026
X33.27629 Y-59.25566
X33.30169 Y-59.25566
X33.30169 Y-59.28106
X33.32709 Y-59.28106
X33.32709 Y-59.30646
X33.35249 Y-59.30646
X33.35249 Y-59.33186
X33.37789 Y-59.33186
X33.37789 Y-59.35726
X33.40329 Y-59.35726
X33.40329 Y-59.38266
X33.42869 Y-59.38266
X33.42869 Y-59.40806
X33.45409 Y-59.40806
X33.45409 Y-59.43346
X33.47949 Y-59.43346
X33.47949 Y-59.45886
X33.50489 Y-59.45886
X33.50489 Y-59.48426
X33.53029 Y-59.48426
X33.53029 Y-59.50966
X33.55569 Y-59.50966
X33.55569 Y-59.53506
X33.58109 Y-59.53506
X33.58109 Y-59.56046
X33.60649 Y-59.56046
X33.60649 Y-59.58586
X33.63189 Y-59.58586
X33.63189 Y-59.61126
X33.65729 Y-59.61126
X33.65729 Y-59.63666
X33.68269 Y-59.63666
X33.68269 Y-59.66206
X33.70809 Y-59.66206
X33.70809 Y-59.68746
X33.73349 Y-59.68746
X33.73349 Y-59.71286
X33.75889 Y-59.71286
X33.75889 Y-59.73826
X33.78429 Y-59.73826
X33.78429 Y-59.76366
X33.80969 Y-59.76366
X33.80969 Y-59.78906
X33.83509 Y-59.78906
X33.83509 Y-59.81446
X33.86049 Y-59.81446
X33.86049 Y-59.83986
X33.93669 Y-59.83986
X33.93669 Y-59.86526
X33.96209 Y-59.86526
X33.96209 Y-59.89066
X37.16249 Y-59.89066
X37.16249 Y-59.86526
X37.34029 Y-59.86526
X37.34029 Y-59.83986
X37.44189 Y-59.83986
X37.44189 Y-59.81446
X37.46729 Y-59.81446
X37.46729 Y-59.78906
X37.49269 Y-59.78906
X37.49269 Y-59.76366
X37.51809 Y-59.76366
X37.51809 Y-59.73826
X37.54349 Y-59.73826
X37.54349 Y-59.71286
X37.56889 Y-59.71286
X37.56889 Y-59.68746
X37.59429 Y-59.68746
X37.59429 Y-59.66206
X37.61969 Y-59.66206
X37.61969 Y-59.63666
X37.64509 Y-59.63666
X37.64509 Y-59.61126
X37.67049 Y-59.61126
X37.67049 Y-59.58586
X37.69589 Y-59.58586
X37.69589 Y-59.56046
X37.72129 Y-59.56046
X37.72129 Y-59.53506
X37.74669 Y-59.53506
X37.74669 Y-59.50966
X37.77209 Y-59.50966
X37.77209 Y-59.48426
X37.79749 Y-59.48426
X37.79749 Y-59.45886
X37.82289 Y-59.45886
X37.82289 Y-59.43346
X37.84829 Y-59.43346
X37.84829 Y-59.40806
X37.87369 Y-59.40806
X37.87369 Y-59.38266
X37.89909 Y-59.38266
X37.89909 Y-59.35726
X37.92449 Y-59.35726
X37.92449 Y-59.33186
X37.94989 Y-59.33186
X37.94989 Y-59.30646
X37.97529 Y-59.30646
X37.97529 Y-59.28106
X38.00069 Y-59.28106
X38.00069 Y-59.25566
X38.02609 Y-59.25566
X38.02609 Y-59.23026
X38.05149 Y-59.23026
X38.05149 Y-59.20486
X38.07689 Y-59.20486
X38.07689 Y-59.17946
X38.10229 Y-59.17946
X38.10229 Y-59.15406
X38.12769 Y-59.15406
X38.12769 Y-59.12866
X38.15309 Y-59.12866
X38.15309 Y-59.10326
X38.17849 Y-59.10326
X38.17849 Y-59.07786
X38.20389 Y-59.07786
X38.20389 Y-59.05246
X38.22929 Y-59.05246
X38.22929 Y-59.02706
X38.25469 Y-59.02706
X38.25469 Y-59.00166
X38.28009 Y-59.00166
X38.28009 Y-58.97626
X38.30549 Y-58.97626
X38.30549 Y-58.95086
X38.33089 Y-58.95086
X38.33089 Y-58.92546
X38.35629 Y-58.92546
X38.35629 Y-58.90006
X38.38169 Y-58.90006
X38.38169 Y-58.84926
X38.40709 Y-58.84926
X38.40709 Y-58.79846
X38.43249 Y-58.79846
X38.43249 Y-58.69686
X38.45789 Y-58.69686
X38.45789 Y-58.64606
X43.41089 Y-58.64606
X43.41089 Y-58.67146
X43.46169 Y-58.67146
X43.46169 Y-58.69686
X43.48709 Y-58.69686
X43.48709 Y-58.72226
X43.53789 Y-58.72226
X43.53789 Y-58.74766
X43.58869 Y-58.74766
X43.58869 Y-58.77306
X43.61409 Y-58.77306
X43.61409 Y-58.79846
X43.74109 Y-58.79846
X43.74109 Y-58.82386
X44.42689 Y-58.82386
X44.42689 Y-58.79846
X44.55389 Y-58.79846
X44.55389 Y-58.77306
X44.57929 Y-58.77306
X44.57929 Y-58.74766
X44.63009 Y-58.74766
X44.63009 Y-58.72226
X44.68089 Y-58.72226
X44.68089 Y-58.69686
X44.70629 Y-58.69686
X44.70629 Y-58.67146
X44.75709 Y-58.67146
X44.75709 Y-58.64606
X44.78249 Y-58.64606
X44.78249 Y-58.59526
X44.80789 Y-58.59526
X44.80789 Y-58.56986
X44.83329 Y-58.56986
X44.83329 Y-58.54446
X44.85869 Y-58.54446
X44.85869 Y-58.49366
X44.88409 Y-58.49366
X44.88409 Y-58.46826
X44.90949 Y-58.46826
X44.90949 Y-58.39206
X44.93489 Y-58.39206
X44.93489 Y-58.26506
X44.96029 Y-58.26506
X44.96029 Y-57.63006
X44.93489 Y-57.63006
X44.93489 Y-57.50306
X44.90949 Y-57.50306
X44.90949 Y-57.42686
X44.88409 Y-57.42686
X44.88409 Y-57.40146
X44.85869 Y-57.40146
X44.85869 Y-57.35066
X44.83329 Y-57.35066
X44.83329 Y-57.32526
X44.80789 Y-57.32526
X44.80789 Y-57.29986
X44.78249 Y-57.29986
X44.78249 Y-57.24906
X44.75709 Y-57.24906
X44.75709 Y-57.22366
X44.70629 Y-57.22366
X44.70629 Y-57.19826
X44.68089 Y-57.19826
X44.68089 Y-57.17286
X44.63009 Y-57.17286
X44.63009 Y-57.14746
X44.57929 Y-57.14746
X44.57929 Y-57.12206
X44.55389 Y-57.12206
X44.55389 Y-57.09666
X44.42689 Y-57.09666
X44.42689 Y-57.07126
X43.74109 Y-57.07126
X43.74109 Y-57.09666
X43.61409 Y-57.09666
X43.61409 Y-57.12206
X43.58869 Y-57.12206
X43.58869 Y-57.14746
X43.53789 Y-57.14746
X43.53789 Y-57.17286
X43.48709 Y-57.17286
X43.48709 Y-57.19826
X43.46169 Y-57.19826
X43.46169 Y-57.22366
X43.41089 Y-57.22366
X43.41089 Y-57.24906
X43.38549 Y-57.24906
X43.38549 Y-57.27446
X37.49269 Y-57.27446
X37.49269 Y-57.29986
X37.39109 Y-57.29986
X37.39109 Y-57.32526
X37.34029 Y-57.32526
X37.34029 Y-57.35066
X37.28949 Y-57.35066
X37.28949 Y-57.37606
X37.26409 Y-57.37606
X37.26409 Y-57.40146
X37.23869 Y-57.40146
X37.23869 Y-57.42686
X37.21329 Y-57.42686
X37.21329 Y-57.45226
X37.18789 Y-57.45226
X37.18789 Y-57.47766
X37.16249 Y-57.47766
X37.16249 Y-57.52846
X37.13709 Y-57.52846
X37.13709 Y-57.57926
X37.11169 Y-57.57926
X37.11169 Y-57.68086
X37.08629 Y-57.68086
X37.08629 Y-58.03646
X37.06089 Y-58.03646
X37.06089 Y-58.06186
X37.03549 Y-58.06186
X37.03549 Y-58.08726
X37.01009 Y-58.08726
X37.01009 Y-58.11266
X36.98469 Y-58.11266
X36.98469 Y-58.13806
X36.95929 Y-58.13806
X36.95929 Y-58.16346
X36.93389 Y-58.16346
X36.93389 Y-58.18886
X36.90849 Y-58.18886
X36.90849 Y-58.21426
X36.88309 Y-58.21426
X36.88309 Y-58.23966
X36.85769 Y-58.23966
X36.85769 Y-58.26506
X36.83229 Y-58.26506
X36.83229 Y-58.29046
X36.80689 Y-58.29046
X36.80689 Y-58.31586
X36.78149 Y-58.31586
X36.78149 Y-58.34126
X36.75609 Y-58.34126
X36.75609 Y-58.36666
X36.73069 Y-58.36666
X36.73069 Y-58.39206
X36.70529 Y-58.39206
X36.70529 Y-58.41746
X36.67989 Y-58.41746
X36.67989 Y-58.44286
X36.65449 Y-58.44286
X36.65449 Y-58.46826
X36.62909 Y-58.46826
X36.62909 Y-58.49366
X36.60369 Y-58.49366
X36.60369 Y-58.51906
X36.57829 Y-58.51906
X36.57829 Y-58.54446
X36.55289 Y-58.54446
X36.55289 Y-58.56986
X34.54629 Y-58.56986
X34.54629 Y-58.54446
X34.52089 Y-58.54446
X34.52089 Y-58.51906
X34.49549 Y-58.51906
X34.49549 Y-58.49366
X34.47009 Y-58.49366
X34.47009 Y-58.46826
X34.44469 Y-58.46826
X34.44469 Y-58.44286
X34.41929 Y-58.44286
X34.41929 Y-58.41746
X34.39389 Y-58.41746
X34.39389 Y-58.39206
X34.36849 Y-58.39206
X34.36849 Y-58.36666
X34.34309 Y-58.36666
X34.34309 Y-58.34126
X34.31769 Y-58.34126
X34.31769 Y-58.31586
X34.29229 Y-58.31586
X34.29229 Y-58.29046
X34.26689 Y-58.29046
X34.26689 Y-58.26506
X34.24149 Y-58.26506
X34.24149 Y-58.23966
X34.21609 Y-58.23966
X34.21609 Y-58.21426
X34.19069 Y-58.21426
X34.19069 Y-58.18886
X34.16529 Y-58.18886
X34.16529 Y-58.16346
X34.13989 Y-58.16346
X34.13989 Y-58.13806
X34.11449 Y-58.13806
X34.11449 Y-58.11266
X34.08909 Y-58.11266
X34.08909 Y-58.08726
X34.06369 Y-58.08726
X34.06369 Y-58.06186
X34.03829 Y-58.06186
X34.03829 Y-58.03646
X34.01289 Y-58.03646
X34.01289 Y-58.01106
X33.98749 Y-58.01106
X33.98749 Y-57.98566
X33.96209 Y-57.98566
X33.96209 Y-57.96026
X33.93669 Y-57.96026
X33.93669 Y-57.93486
X33.91129 Y-57.93486
X33.91129 Y-57.90946
X33.88589 Y-57.90946
X33.88589 Y-57.88406
X33.86049 Y-57.88406
X33.86049 Y-57.85866
X33.83509 Y-57.85866
X33.83509 Y-57.83326
X33.80969 Y-57.83326
X33.80969 Y-57.80786
X33.78429 Y-57.80786
X33.78429 Y-57.78246
X33.75889 Y-57.78246
X33.75889 Y-57.75706
X33.73349 Y-57.75706
X33.73349 Y-57.73166
X33.70809 Y-57.73166
X33.70809 Y-57.70626
X33.68269 Y-57.70626
X33.68269 Y-57.68086
X33.63189 Y-57.68086
X33.63189 Y-57.65546
X33.60649 Y-57.65546
X33.60649 Y-57.63006
X33.58109 Y-57.63006
X33.58109 Y-57.57926
X33.55569 Y-57.57926
X33.55569 Y-57.52846
X33.53029 Y-57.52846
X33.53029 Y-57.50306
X33.50489 Y-57.50306
X33.50489 Y-57.47766
X33.47949 Y-57.47766
X33.47949 Y-57.45226
X33.45409 Y-57.45226
X33.45409 Y-57.17286
X33.42869 Y-57.17286
X33.42869 Y-57.12206
X33.40329 Y-57.12206
X33.40329 Y-57.07126
X33.37789 Y-57.07126
X33.37789 Y-57.04586
X33.35249 Y-57.04586
X33.35249 Y-56.99506
X33.32709 Y-56.99506
X33.32709 Y-56.96966
X33.30169 Y-56.96966
X33.30169 Y-56.94426
X33.27629 Y-56.94426
X33.27629 Y-56.91886
X33.25089 Y-56.91886
X33.25089 Y-56.89346
X33.22549 Y-56.89346
X33.22549 Y-56.84266
X33.20009 Y-56.84266
X33.20009 Y-56.81726
X33.17469 Y-56.81726
X33.17469 Y-56.79186
X33.14929 Y-56.79186
X33.14929 Y-56.76646
X33.12389 Y-56.76646
X33.12389 Y-56.74106
X33.09849 Y-56.74106
X33.09849 Y-56.71566
X33.07309 Y-56.71566
X33.07309 Y-56.69026
X33.04769 Y-56.69026
X33.04769 Y-56.66486
X33.02229 Y-56.66486
X33.02229 Y-56.63946
X32.99689 Y-56.63946
X32.99689 Y-56.61406
X32.97149 Y-56.61406
X32.97149 Y-56.58866
X32.94609 Y-56.58866
X32.94609 Y-56.56326
X32.92069 Y-56.56326
X32.92069 Y-56.53786
X32.89529 Y-56.53786
X32.89529 Y-56.51246
X32.86989 Y-56.51246
X32.86989 Y-56.48706
X32.84449 Y-56.48706
X32.84449 Y-56.46166
X32.81909 Y-56.46166
X32.81909 Y-56.43626
X32.79369 Y-56.43626
X32.79369 Y-56.41086
X32.76829 Y-56.41086
X32.76829 Y-56.38546
X32.74289 Y-56.38546
X32.74289 Y-56.36006
X32.71749 Y-56.36006
X32.71749 Y-56.33466
X32.69209 Y-56.33466
X32.69209 Y-56.30926
X32.66669 Y-56.30926
X32.66669 Y-56.28386
X32.64129 Y-56.28386
X32.64129 Y-56.25846
X32.61589 Y-56.25846
X32.61589 Y-56.23306
X32.59049 Y-56.23306
X32.59049 Y-56.20766
X32.56509 Y-56.20766
X32.56509 Y-56.18226
X32.53969 Y-56.18226
X32.53969 Y-56.15686
X32.51429 Y-56.15686
X32.51429 Y-56.13146
X32.48889 Y-56.13146
X32.48889 Y-56.10606
X32.46349 Y-56.10606
X32.46349 Y-56.08066
X32.43809 Y-56.08066
X32.43809 Y-56.05526
X32.41269 Y-56.05526
X32.41269 Y-56.02986
X32.38729 Y-56.02986
X32.38729 Y-56.00446
X32.36189 Y-56.00446
X32.36189 Y-49.14646
X32.38729 Y-49.14646
X32.38729 Y-49.12106
X32.41269 Y-49.12106
X32.41269 Y-49.09566
X32.43809 Y-49.09566
X32.43809 Y-49.07026
X32.46349 Y-49.07026
X32.46349 Y-49.04486
X32.48889 Y-49.04486
X32.48889 Y-49.01946
X32.51429 Y-49.01946
X32.51429 Y-48.99406
X32.53969 Y-48.99406
X32.53969 Y-48.96866
X32.56509 Y-48.96866
X32.56509 Y-48.94326
X32.59049 Y-48.94326
X32.59049 Y-48.91786
X32.61589 Y-48.91786
X32.61589 Y-48.89246
X32.64129 Y-48.89246
X32.64129 Y-48.86706
X32.66669 Y-48.86706
X32.66669 Y-48.84166
X32.69209 Y-48.84166
X32.69209 Y-48.81626
X32.71749 Y-48.81626
X32.71749 Y-48.79086
X32.74289 Y-48.79086
X32.74289 Y-48.76546
X32.76829 Y-48.76546
X32.76829 Y-48.74006
X32.79369 Y-48.74006
X32.79369 Y-48.71466
X32.81909 Y-48.71466
X32.81909 Y-48.68926
X32.84449 Y-48.68926
X32.84449 Y-48.66386
X32.86989 Y-48.66386
X32.86989 Y-48.63846
X32.89529 Y-48.63846
X32.89529 Y-48.61306
X32.92069 Y-48.61306
X32.92069 Y-48.58766
X32.94609 Y-48.58766
X32.94609 Y-48.56226
X32.97149 Y-48.56226
X32.97149 Y-48.53686
X32.99689 Y-48.53686
X32.99689 Y-48.51146
X33.02229 Y-48.51146
X33.02229 Y-48.48606
X33.04769 Y-48.48606
X33.04769 Y-48.46066
X33.07309 Y-48.46066
X33.07309 Y-48.43526
X33.09849 Y-48.43526
X33.09849 Y-48.40986
X33.12389 Y-48.40986
X33.12389 Y-48.38446
X33.14929 Y-48.38446
X33.14929 Y-48.35906
X33.17469 Y-48.35906
X33.17469 Y-48.33366
X33.20009 Y-48.33366
X33.20009 Y-48.30826
X33.22549 Y-48.30826
X33.22549 Y-48.28286
X33.25089 Y-48.28286
X33.25089 Y-48.25746
X33.27629 Y-48.25746
X33.27629 Y-48.23206
X33.30169 Y-48.23206
X33.30169 Y-48.20666
X33.32709 Y-48.20666
X33.32709 Y-48.18126
X33.35249 Y-48.18126
X33.35249 Y-48.15586
X33.37789 Y-48.15586
X33.37789 Y-48.13046
X33.40329 Y-48.13046
X33.40329 Y-48.10506
X33.42869 Y-48.10506
X33.42869 Y-48.07966
X33.45409 Y-48.07966
X33.45409 Y-48.05426
X33.47949 Y-48.05426
X33.47949 Y-48.02886
X33.50489 Y-48.02886
X33.50489 Y-48.00346
X33.53029 Y-48.00346
X33.53029 Y-47.97806
X33.55569 Y-47.97806
X33.55569 Y-47.95266
X33.58109 Y-47.95266
X33.58109 Y-47.92726
X33.60649 Y-47.92726
X33.60649 Y-47.90186
X33.63189 Y-47.90186
X33.63189 Y-47.87646
X33.65729 Y-47.87646
X33.65729 Y-47.85106
X33.68269 Y-47.85106
X33.68269 Y-47.82566
X33.70809 Y-47.82566
X33.70809 Y-47.80026
X33.73349 Y-47.80026
X33.73349 Y-47.77486
X33.75889 Y-47.77486
X33.75889 Y-47.74946
X33.78429 Y-47.74946
X33.78429 Y-47.72406
X33.80969 Y-47.72406
X33.80969 Y-47.69866
X33.83509 Y-47.69866
X33.83509 Y-47.67326
X33.86049 Y-47.67326
X33.86049 Y-47.64786
X33.88589 Y-47.64786
X33.88589 Y-47.62246
X33.91129 Y-47.62246
X33.91129 Y-47.59706
X33.93669 Y-47.59706
X33.93669 Y-47.57166
X33.96209 Y-47.57166
X33.96209 Y-47.54626
X33.98749 Y-47.54626
X33.98749 Y-47.52086
X34.01289 Y-47.52086
X34.01289 Y-47.49546
X34.03829 Y-47.49546
X34.03829 Y-47.47006
X34.06369 Y-47.47006
X34.06369 Y-47.44466
X34.08909 Y-47.44466
X34.08909 Y-47.41926
X34.11449 Y-47.41926
X34.11449 Y-47.39386
X34.13989 Y-47.39386
X34.13989 Y-47.36846
X34.16529 Y-47.36846
X34.16529 Y-47.34306
X34.19069 Y-47.34306
X34.19069 Y-47.31766
X34.21609 Y-47.31766
X34.21609 Y-47.29226
X34.24149 Y-47.29226
X34.24149 Y-47.26686
X34.26689 Y-47.26686
X34.26689 Y-47.24146
X34.29229 Y-47.24146
X34.29229 Y-47.21606
X34.31769 Y-47.21606
X34.31769 Y-47.16526
X34.34309 Y-47.16526
X34.34309 Y-47.11446
X34.36849 Y-47.11446
X34.36849 Y-47.01286
X34.39389 Y-47.01286
X34.39389 Y-40.35806
X34.36849 Y-40.35806
X34.36849 Y-40.25646
X34.34309 Y-40.25646
X34.34309 Y-40.20566
X34.31769 Y-40.20566
X34.31769 Y-40.15486
X34.29229 Y-40.15486
X34.29229 Y-40.12946
X34.26689 Y-40.12946
X34.26689 Y-40.10406
X34.24149 Y-40.10406
X34.24149 Y-40.07866
X34.21609 Y-40.07866
X34.21609 Y-40.05326
X34.19069 Y-40.05326
X34.19069 Y-40.02786
X34.16529 Y-40.02786
X34.16529 Y-40.00246
X34.13989 Y-40.00246
X34.13989 Y-39.97706
X34.11449 Y-39.97706
X34.11449 Y-39.95166
X34.08909 Y-39.95166
X34.08909 Y-39.92626
X34.06369 Y-39.92626
X34.06369 Y-39.90086
X34.03829 Y-39.90086
X34.03829 Y-39.87546
X34.01289 Y-39.87546
X34.01289 Y-39.85006
X33.98749 Y-39.85006
X33.98749 Y-39.82466
X33.96209 Y-39.82466
X33.96209 Y-39.79926
X33.93669 Y-39.79926
X33.93669 Y-39.77386
X33.91129 Y-39.77386
X33.91129 Y-39.74846
X33.88589 Y-39.74846
X33.88589 Y-39.72306
X33.86049 Y-39.72306
X33.86049 Y-39.69766
X33.83509 Y-39.69766
X33.83509 Y-39.67226
X33.80969 Y-39.67226
X33.80969 Y-39.64686
X33.78429 Y-39.64686
X33.78429 Y-39.62146
X33.75889 Y-39.62146
X33.75889 Y-39.59606
X33.73349 Y-39.59606
X33.73349 Y-39.57066
X33.70809 Y-39.57066
X33.70809 Y-39.54526
X33.68269 Y-39.54526
X33.68269 Y-39.51986
X33.65729 Y-39.51986
X33.65729 Y-39.49446
X33.63189 Y-39.49446
X33.63189 Y-39.46906
X33.60649 Y-39.46906
X33.60649 Y-39.44366
X33.58109 Y-39.44366
X33.58109 Y-39.41826
X33.55569 Y-39.41826
X33.55569 Y-39.39286
X33.53029 Y-39.39286
X33.53029 Y-39.36746
X33.50489 Y-39.36746
X33.50489 Y-39.34206
X33.47949 Y-39.34206
X33.47949 Y-39.31666
X33.45409 Y-39.31666
X33.45409 Y-39.29126
X33.42869 Y-39.29126
X33.42869 Y-39.26586
X33.40329 Y-39.26586
X33.40329 Y-39.24046
X33.37789 Y-39.24046
X33.37789 Y-39.21506
X33.35249 Y-39.21506
X33.35249 Y-39.18966
X33.32709 Y-39.18966
X33.32709 Y-39.16426
X33.30169 Y-39.16426
X33.30169 Y-39.13886
X33.27629 Y-39.13886
X33.27629 Y-39.11346
X33.25089 Y-39.11346
X33.25089 Y-39.08806
X33.22549 Y-39.08806
X33.22549 Y-39.06266
X33.20009 Y-39.06266
X33.20009 Y-39.03726
X33.17469 Y-39.03726
X33.17469 Y-39.01186
X33.14929 Y-39.01186
X33.14929 Y-38.98646
X33.12389 Y-38.98646
X33.12389 Y-38.96106
X33.09849 Y-38.96106
X33.09849 Y-38.93566
X33.07309 Y-38.93566
X33.07309 Y-38.91026
X33.04769 Y-38.91026
X33.04769 Y-38.88486
X33.02229 Y-38.88486
X33.02229 Y-38.85946
X32.99689 Y-38.85946
X32.99689 Y-38.83406
X32.97149 Y-38.83406
X32.97149 Y-38.80866
X32.94609 Y-38.80866
X32.94609 Y-38.78326
X32.92069 Y-38.78326
X32.92069 Y-38.75786
X32.89529 Y-38.75786
X32.89529 Y-38.73246
X32.86989 Y-38.73246
X32.86989 Y-38.70706
X32.84449 Y-38.70706
X32.84449 Y-38.68166
X32.81909 Y-38.68166
X32.81909 Y-38.65626
X32.79369 Y-38.65626
X32.79369 Y-38.63086
X32.76829 Y-38.63086
X32.76829 Y-38.60546
X32.74289 Y-38.60546
X32.74289 Y-38.58006
X32.71749 Y-38.58006
X32.71749 Y-38.55466
X32.69209 Y-38.55466
X32.69209 Y-38.52926
X32.66669 Y-38.52926
X32.66669 Y-38.50386
X32.64129 Y-38.50386
X32.64129 Y-38.47846
X32.61589 Y-38.47846
X32.61589 Y-38.45306
X32.59049 Y-38.45306
X32.59049 Y-38.42766
X32.56509 Y-38.42766
X32.56509 Y-38.40226
X32.53969 Y-38.40226
X32.53969 Y-38.37686
X32.51429 Y-38.37686
X32.51429 Y-38.35146
X32.48889 Y-38.35146
X32.48889 Y-38.32606
X32.46349 Y-38.32606
X32.46349 Y-38.30066
X32.43809 Y-38.30066
X32.43809 Y-38.27526
X32.41269 Y-38.27526
X32.41269 Y-38.24986
X32.38729 Y-38.24986
X32.38729 Y-38.22446
X32.36189 Y-38.22446
X32.36189 Y-38.19906
X32.33649 Y-38.19906
X32.33649 Y-38.17366
X32.31109 Y-38.17366
X32.31109 Y-38.14826
X32.28569 Y-38.14826
X32.28569 Y-38.12286
X32.26029 Y-38.12286
X32.26029 Y-38.09746
X32.23489 Y-38.09746
X32.23489 Y-38.07206
X32.20949 Y-38.07206
X32.20949 Y-38.04666
X32.18409 Y-38.04666
X32.18409 Y-38.02126
X32.15869 Y-38.02126
X32.15869 Y-37.99586
X32.10789 Y-37.99586
X32.10789 Y-37.97046
X32.05709 Y-37.97046
X32.05709 Y-37.94506
X31.95549 Y-37.94506
X31.95549 Y-37.91966
X29.66949 Y-37.91966
X29.66949 Y-37.89426
X29.64409 Y-37.89426
X29.64409 Y-37.86886
X29.61869 Y-37.86886
X29.61869 Y-37.81806
X29.56789 Y-37.81806
X29.56789 Y-37.79266
X29.51709 Y-37.79266
X29.51709 Y-37.76726
X29.46629 Y-37.76726
X29.46629 Y-37.74186
X29.44089 Y-37.74186
X29.44089 Y-37.71646
X29.39009 Y-37.71646
X29.39009 Y-37.69106
X29.31389 Y-37.69106
X29.31389 Y-37.66566
X29.16149 Y-37.66566
X29.16149 Y-37.64026
X28.62809 Y-37.64026
X28.62809 Y-37.66566
X28.47569 Y-37.66566
X28.47569 Y-37.69106
X28.39949 Y-37.69106
X28.39949 Y-37.71646
X28.34869 Y-37.71646
X28.34869 Y-37.74186
X28.32329 Y-37.74186
X28.32329 Y-37.76726
X28.27249 Y-37.76726
X28.27249 Y-37.79266
X28.22169 Y-37.79266
X28.22169 Y-37.81806
X28.17089 Y-37.81806
X28.17089 Y-37.84346
G04 P0 ( dwell for no time -- G64 should not smooth over this point )
G00 Z2.00000 ( retract )

G00 X25.63089 Y-40.38346 ( rapid move to begin. )
F50.00000
G01 Z-0.20000
G04 P0 ( dwell for no time -- G64 should not smooth over this point )
F100.00000
X25.63089 Y-40.38346
X25.63089 Y-40.40886
X25.60549 Y-40.40886
X25.60549 Y-40.43426
X25.58009 Y-40.43426
X25.58009 Y-40.45966
X21.99869 Y-40.45966
X21.99869 Y-40.48506
X21.89709 Y-40.48506
X21.89709 Y-40.51046
X21.69389 Y-40.51046
X21.69389 Y-40.53586
X21.56689 Y-40.53586
X21.56689 Y-40.56126
X21.54149 Y-40.56126
X21.54149 Y-40.58666
X21.49069 Y-40.58666
X21.49069 Y-40.61206
X21.46529 Y-40.61206
X21.46529 Y-40.63746
X21.43989 Y-40.63746
X21.43989 Y-40.66286
X21.41449 Y-40.66286
X21.41449 Y-40.68826
X21.38909 Y-40.68826
X21.38909 Y-40.71366
X21.36369 Y-40.71366
X21.36369 Y-40.73906
X21.33829 Y-40.73906
X21.33829 Y-40.76446
X21.31289 Y-40.76446
X21.31289 Y-40.78986
X21.28749 Y-40.78986
X21.28749 Y-40.81526
X21.26209 Y-40.81526
X21.26209 Y-40.84066
X21.23669 Y-40.84066
X21.23669 Y-40.89146
X21.21129 Y-40.89146
X21.21129 Y-40.94226
X21.18589 Y-40.94226
X21.18589 Y-41.06926
X21.16049 Y-41.06926
X21.16049 Y-41.70426
X21.18589 Y-41.70426
X21.18589 Y-41.83126
X21.21129 Y-41.83126
X21.21129 Y-41.88206
X21.23669 Y-41.88206
X21.23669 Y-41.90746
X21.26209 Y-41.90746
X21.26209 Y-41.93286
X21.28749 Y-41.93286
X21.28749 Y-41.95826
X21.31289 Y-41.95826
X21.31289 Y-41.98366
X21.33829 Y-41.98366
X21.33829 Y-42.00906
X21.36369 Y-42.00906
X21.36369 Y-42.05986
X21.38909 Y-42.05986
X21.38909 Y-42.08526
X21.43989 Y-42.08526
X21.43989 Y-42.11066
X21.46529 Y-42.11066
X21.46529 Y-42.13606
X21.49069 Y-42.13606
X21.49069 Y-42.16146
X21.51609 Y-42.16146
X21.51609 Y-42.18686
X21.54149 Y-42.18686
X21.54149 Y-42.21226
X21.59229 Y-42.21226
X21.59229 Y-42.23766
X21.69389 Y-42.23766
X21.69389 Y-42.26306
X22.37969 Y-42.26306
X22.37969 Y-42.23766
X22.48129 Y-42.23766
X22.48129 Y-42.21226
X22.53209 Y-42.21226
X22.53209 Y-42.18686
X22.58289 Y-42.18686
X22.58289 Y-42.16146
X22.60829 Y-42.16146
X22.60829 Y-42.13606
