( pcb2gcode 1.2.2 )

( This file uses 6 drill bit sizes. )
( Bit sizes: [0.02inch] [0.031inch] [0.032inch] [0.04inch] [0.055inch] [0.12inch] )

       G94       (Millimeters per minute feed rate.)
G21       (Units == Millimeters.)
G90       (Absolute coordinates.)
S14000     (RPM spindle speed.)

G00 Z10.00000 (Retract)
T1
M5      (Spindle stop.)
(MSG, Change tool bit to drill size 0.02000 inch)
M6      (Tool change.)
M0      (Temporary machine stop.)
M3      (Spindle on clockwise.)

F100.00000
G0 X22.02409 Y-27.94000
G1 Z-2.00000
G1 Z2.00000
G0 X28.62809 Y-27.94000
G1 Z-2.00000
G1 Z2.00000
G0 X32.18409 Y-22.35200
G1 Z-2.00000
G1 Z2.00000
G0 X36.24809 Y-25.40000
G1 Z-2.00000
G1 Z2.00000
G0 X38.28009 Y-25.40000
G1 Z-2.00000
G1 Z2.00000
G0 X40.31209 Y-25.40000
G1 Z-2.00000
G1 Z2.00000
G0 X42.85209 Y-28.44800
G1 Z-2.00000
G1 Z2.00000
G0 X39.80409 Y-29.97200
G1 Z-2.00000
G1 Z2.00000
G0 X39.80409 Y-35.05200
G1 Z-2.00000
G1 Z2.00000
G0 X32.18409 Y-36.06800
G1 Z-2.00000
G1 Z2.00000
G0 X31.67609 Y-41.65600
G1 Z-2.00000
G1 Z2.00000
G0 X30.15209 Y-46.73600
G1 Z-2.00000
G1 Z2.00000
G0 X34.21609 Y-50.80000
G1 Z-2.00000
G1 Z2.00000
G0 X34.21609 Y-54.35600
G1 Z-2.00000
G1 Z2.00000
G0 X30.15209 Y-61.97600
G1 Z-2.00000
G1 Z2.00000
G0 X26.59609 Y-61.46800
G1 Z-2.00000
G1 Z2.00000
G0 X26.08809 Y-51.30800
G1 Z-2.00000
G1 Z2.00000
G0 X23.04009 Y-46.73600
G1 Z-2.00000
G1 Z2.00000
G0 X22.53209 Y-44.19600
G1 Z-2.00000
G1 Z2.00000
G0 X16.43609 Y-44.19600
G1 Z-2.00000
G1 Z2.00000
G0 X19.99209 Y-70.61200
G1 Z-2.00000
G1 Z2.00000
G0 X41.32809 Y-67.05600
G1 Z-2.00000
G1 Z2.00000
G0 X68.76009 Y-65.02400
G1 Z-2.00000
G1 Z2.00000
G0 X73.26859 Y-68.13550
G1 Z-2.00000
G1 Z2.00000
G0 X78.41209 Y-59.43600
G1 Z-2.00000
G1 Z2.00000
G0 X71.80809 Y-49.78400
G1 Z-2.00000
G1 Z2.00000
G0 X62.66409 Y-49.78400
G1 Z-2.00000
G1 Z2.00000
G0 X50.98009 Y-27.94000
G1 Z-2.00000
G1 Z2.00000
G0 X50.47209 Y-25.27300
G1 Z-2.00000
G1 Z2.00000
G0 X38.28009 Y-17.27200
G1 Z-2.00000
G1 Z2.00000
G0 X71.36359 Y-81.47050
G1 Z-2.00000
G1 Z2.00000
G0 X102.28809 Y-61.46800
G1 Z-2.00000
G1 Z2.00000

G00 Z10.00000 (Retract)
T2
M5      (Spindle stop.)
(MSG, Change tool bit to drill size 0.03100 inch)
M6      (Tool change.)
M0      (Temporary machine stop.)
M3      (Spindle on clockwise.)

F100.00000
G0 X55.17109 Y-52.57800
G1 Z-2.00000
G1 Z2.00000
G0 X57.71109 Y-52.57800
G1 Z-2.00000
G1 Z2.00000
G0 X60.25109 Y-52.57800
G1 Z-2.00000
G1 Z2.00000

G00 Z10.00000 (Retract)
T3
M5      (Spindle stop.)
(MSG, Change tool bit to drill size 0.03200 inch)
M6      (Tool change.)
M0      (Temporary machine stop.)
M3      (Spindle on clockwise.)

F100.00000
G0 X22.02409 Y-33.78200
G1 Z-2.00000
G1 Z2.00000
G0 X22.02409 Y-41.40200
G1 Z-2.00000
G1 Z2.00000
G0 X31.93009 Y-44.70400
G1 Z-2.00000
G1 Z2.00000
G0 X37.26409 Y-42.41800
G1 Z-2.00000
G1 Z2.00000
G0 X39.55009 Y-44.70400
G1 Z-2.00000
G1 Z2.00000
G0 X40.82009 Y-47.49800
G1 Z-2.00000
G1 Z2.00000
G0 X40.82009 Y-50.03800
G1 Z-2.00000
G1 Z2.00000
G0 X44.05859 Y-50.35550
G1 Z-2.00000
G1 Z2.00000
G0 X44.05859 Y-47.81550
G1 Z-2.00000
G1 Z2.00000
G0 X44.05859 Y-45.27550
G1 Z-2.00000
G1 Z2.00000
G0 X44.05859 Y-42.73550
G1 Z-2.00000
G1 Z2.00000
G0 X44.05859 Y-40.19550
G1 Z-2.00000
G1 Z2.00000
G0 X44.05859 Y-37.65550
G1 Z-2.00000
G1 Z2.00000
G0 X44.05859 Y-35.11550
G1 Z-2.00000
G1 Z2.00000
G0 X44.05859 Y-32.57550
G1 Z-2.00000
G1 Z2.00000
G0 X37.26409 Y-34.79800
G1 Z-2.00000
G1 Z2.00000
G0 X37.26409 Y-46.99000
G1 Z-2.00000
G1 Z2.00000
G0 X37.26409 Y-54.61000
G1 Z-2.00000
G1 Z2.00000
G0 X35.48609 Y-56.89600
G1 Z-2.00000
G1 Z2.00000
G0 X40.31209 Y-55.11800
G1 Z-2.00000
G1 Z2.00000
G0 X44.05859 Y-55.43550
G1 Z-2.00000
G1 Z2.00000
G0 X44.05859 Y-52.89550
G1 Z-2.00000
G1 Z2.00000
G0 X44.05859 Y-57.97550
G1 Z-2.00000
G1 Z2.00000
G0 X44.05859 Y-60.51550
G1 Z-2.00000
G1 Z2.00000
G0 X44.05859 Y-63.05550
G1 Z-2.00000
G1 Z2.00000
G0 X44.05859 Y-65.59550
G1 Z-2.00000
G1 Z2.00000
G0 X40.31209 Y-62.73800
G1 Z-2.00000
G1 Z2.00000
G0 X37.01009 Y-62.99200
G1 Z-2.00000
G1 Z2.00000
G0 X34.47009 Y-62.99200
G1 Z-2.00000
G1 Z2.00000
G0 X27.86609 Y-56.89600
G1 Z-2.00000
G1 Z2.00000
G0 X23.04009 Y-57.15000
G1 Z-2.00000
G1 Z2.00000
G0 X23.04009 Y-59.69000
G1 Z-2.00000
G1 Z2.00000
G0 X23.04009 Y-63.75400
G1 Z-2.00000
G1 Z2.00000
G0 X23.04009 Y-66.29400
G1 Z-2.00000
G1 Z2.00000
G0 X26.34209 Y-72.64400
G1 Z-2.00000
G1 Z2.00000
G0 X33.96209 Y-72.64400
G1 Z-2.00000
G1 Z2.00000
G0 X38.97859 Y-74.48550
G1 Z-2.00000
G1 Z2.00000
G0 X38.97859 Y-78.29550
G1 Z-2.00000
G1 Z2.00000
G0 X51.67859 Y-78.29550
G1 Z-2.00000
G1 Z2.00000
G0 X51.67859 Y-74.48550
G1 Z-2.00000
G1 Z2.00000
G0 X58.02859 Y-77.66050
G1 Z-2.00000
G1 Z2.00000
G0 X58.02859 Y-80.20050
G1 Z-2.00000
G1 Z2.00000
G0 X58.02859 Y-82.74050
G1 Z-2.00000
G1 Z2.00000
G0 X58.02859 Y-70.04050
G1 Z-2.00000
G1 Z2.00000
G0 X51.67859 Y-65.59550
G1 Z-2.00000
G1 Z2.00000
G0 X51.67859 Y-63.05550
G1 Z-2.00000
G1 Z2.00000
G0 X51.67859 Y-60.51550
G1 Z-2.00000
G1 Z2.00000
G0 X51.67859 Y-57.97550
G1 Z-2.00000
G1 Z2.00000
G0 X51.67859 Y-55.43550
G1 Z-2.00000
G1 Z2.00000
G0 X51.67859 Y-52.89550
G1 Z-2.00000
G1 Z2.00000
G0 X51.67859 Y-50.35550
G1 Z-2.00000
G1 Z2.00000
G0 X51.67859 Y-47.81550
G1 Z-2.00000
G1 Z2.00000
G0 X51.67859 Y-45.27550
G1 Z-2.00000
G1 Z2.00000
G0 X51.67859 Y-42.73550
G1 Z-2.00000
G1 Z2.00000
G0 X51.67859 Y-40.19550
G1 Z-2.00000
G1 Z2.00000
G0 X51.67859 Y-37.65550
G1 Z-2.00000
G1 Z2.00000
G0 X51.67859 Y-35.11550
G1 Z-2.00000
G1 Z2.00000
G0 X51.67859 Y-32.57550
G1 Z-2.00000
G1 Z2.00000
G0 X54.79009 Y-31.49600
G1 Z-2.00000
G1 Z2.00000
G0 X53.26609 Y-28.44800
G1 Z-2.00000
G1 Z2.00000
G0 X52.25009 Y-22.86000
G1 Z-2.00000
G1 Z2.00000
G0 X49.71009 Y-22.86000
G1 Z-2.00000
G1 Z2.00000
G0 X60.88609 Y-28.44800
G1 Z-2.00000
G1 Z2.00000
G0 X62.41009 Y-31.49600
G1 Z-2.00000
G1 Z2.00000
G0 X62.15609 Y-44.19600
G1 Z-2.00000
G1 Z2.00000
G0 X62.15609 Y-46.73600
G1 Z-2.00000
G1 Z2.00000
G0 X58.34609 Y-46.86300
G1 Z-2.00000
G1 Z2.00000
G0 X55.80609 Y-46.86300
G1 Z-2.00000
G1 Z2.00000
G0 X79.36459 Y-45.40250
G1 Z-2.00000
G1 Z2.00000
G0 X79.36459 Y-42.86250
G1 Z-2.00000
G1 Z2.00000
G0 X79.36459 Y-40.32250
G1 Z-2.00000
G1 Z2.00000
G0 X79.36459 Y-37.78250
G1 Z-2.00000
G1 Z2.00000
G0 X79.36459 Y-35.24250
G1 Z-2.00000
G1 Z2.00000
G0 X79.36459 Y-32.70250
G1 Z-2.00000
G1 Z2.00000
G0 X79.36459 Y-30.16250
G1 Z-2.00000
G1 Z2.00000
G0 X79.42809 Y-25.40000
G1 Z-2.00000
G1 Z2.00000
G0 X83.49209 Y-21.59000
G1 Z-2.00000
G1 Z2.00000
G0 X87.04809 Y-25.40000
G1 Z-2.00000
G1 Z2.00000
G0 X91.11209 Y-21.59000
G1 Z-2.00000
G1 Z2.00000
G0 X96.19209 Y-21.59000
G1 Z-2.00000
G1 Z2.00000
G0 X96.19209 Y-24.13000
G1 Z-2.00000
G1 Z2.00000
G0 X92.06459 Y-30.16250
G1 Z-2.00000
G1 Z2.00000
G0 X92.06459 Y-32.70250
G1 Z-2.00000
G1 Z2.00000
G0 X92.06459 Y-35.24250
G1 Z-2.00000
G1 Z2.00000
G0 X92.06459 Y-37.78250
G1 Z-2.00000
G1 Z2.00000
G0 X92.06459 Y-40.32250
G1 Z-2.00000
G1 Z2.00000
G0 X92.06459 Y-42.86250
G1 Z-2.00000
G1 Z2.00000
G0 X92.06459 Y-45.40250
G1 Z-2.00000
G1 Z2.00000
G0 X92.06459 Y-47.94250
G1 Z-2.00000
G1 Z2.00000
G0 X95.87459 Y-47.94250
G1 Z-2.00000
G1 Z2.00000
G0 X95.87459 Y-45.40250
G1 Z-2.00000
G1 Z2.00000
G0 X99.74809 Y-44.45000
G1 Z-2.00000
G1 Z2.00000
G0 X102.28809 Y-44.45000
G1 Z-2.00000
G1 Z2.00000
G0 X102.28809 Y-40.89400
G1 Z-2.00000
G1 Z2.00000
G0 X99.74809 Y-40.89400
G1 Z-2.00000
G1 Z2.00000
G0 X99.74809 Y-37.33800
G1 Z-2.00000
G1 Z2.00000
G0 X102.28809 Y-37.33800
G1 Z-2.00000
G1 Z2.00000
G0 X102.28809 Y-33.78200
G1 Z-2.00000
G1 Z2.00000
G0 X99.74809 Y-33.78200
G1 Z-2.00000
G1 Z2.00000
G0 X93.14409 Y-54.48300
G1 Z-2.00000
G1 Z2.00000
G0 X93.14409 Y-58.29300
G1 Z-2.00000
G1 Z2.00000
G0 X94.22359 Y-64.96050
G1 Z-2.00000
G1 Z2.00000
G0 X94.22359 Y-72.58050
G1 Z-2.00000
G1 Z2.00000
G0 X83.42859 Y-70.04050
G1 Z-2.00000
G1 Z2.00000
G0 X83.42859 Y-77.66050
G1 Z-2.00000
G1 Z2.00000
G0 X83.42859 Y-80.20050
G1 Z-2.00000
G1 Z2.00000
G0 X83.42859 Y-82.74050
G1 Z-2.00000
G1 Z2.00000
G0 X77.07859 Y-78.29550
G1 Z-2.00000
G1 Z2.00000
G0 X77.07859 Y-74.48550
G1 Z-2.00000
G1 Z2.00000
G0 X84.44459 Y-53.02250
G1 Z-2.00000
G1 Z2.00000
G0 X86.98459 Y-53.02250
G1 Z-2.00000
G1 Z2.00000
G0 X79.36459 Y-47.94250
G1 Z-2.00000
G1 Z2.00000

G00 Z10.00000 (Retract)
T4
M5      (Spindle stop.)
(MSG, Change tool bit to drill size 0.04000 inch)
M6      (Tool change.)
M0      (Temporary machine stop.)
M3      (Spindle on clockwise.)

F100.00000
G0 X26.34209 Y-33.52800
G1 Z-2.00000
G1 Z2.00000
G0 X28.88209 Y-33.52800
G1 Z-2.00000
G1 Z2.00000
G0 X28.88209 Y-36.06800
G1 Z-2.00000
G1 Z2.00000
G0 X28.88209 Y-38.60800
G1 Z-2.00000
G1 Z2.00000
G0 X28.88209 Y-41.14800
G1 Z-2.00000
G1 Z2.00000
G0 X28.88209 Y-43.68800
G1 Z-2.00000
G1 Z2.00000
G0 X26.34209 Y-43.68800
G1 Z-2.00000
G1 Z2.00000
G0 X26.34209 Y-41.14800
G1 Z-2.00000
G1 Z2.00000
G0 X26.34209 Y-38.60800
G1 Z-2.00000
G1 Z2.00000
G0 X26.34209 Y-36.06800
G1 Z-2.00000
G1 Z2.00000
G0 X44.12209 Y-25.40000
G1 Z-2.00000
G1 Z2.00000
G0 X46.66209 Y-25.40000
G1 Z-2.00000
G1 Z2.00000
G0 X55.80609 Y-25.27300
G1 Z-2.00000
G1 Z2.00000
G0 X58.34609 Y-25.27300
G1 Z-2.00000
G1 Z2.00000
G0 X60.88609 Y-25.27300
G1 Z-2.00000
G1 Z2.00000
G0 X63.42609 Y-25.27300
G1 Z-2.00000
G1 Z2.00000
G0 X65.96609 Y-25.27300
G1 Z-2.00000
G1 Z2.00000
G0 X68.50609 Y-25.27300
G1 Z-2.00000
G1 Z2.00000
G0 X96.19209 Y-27.94000
G1 Z-2.00000
G1 Z2.00000
G0 X96.19209 Y-30.48000
G1 Z-2.00000
G1 Z2.00000
G0 X95.87459 Y-35.24250
G1 Z-2.00000
G1 Z2.00000
G0 X95.87459 Y-37.78250
G1 Z-2.00000
G1 Z2.00000
G0 X95.87459 Y-40.32250
G1 Z-2.00000
G1 Z2.00000
G0 X95.87459 Y-42.86250
G1 Z-2.00000
G1 Z2.00000
G0 X89.77859 Y-72.58050
G1 Z-2.00000
G1 Z2.00000
G0 X89.77859 Y-75.12050
G1 Z-2.00000
G1 Z2.00000
G0 X89.77859 Y-77.66050
G1 Z-2.00000
G1 Z2.00000
G0 X87.22589 Y-89.36990
G1 Z-2.00000
G1 Z2.00000
G0 X84.68589 Y-89.36990
G1 Z-2.00000
G1 Z2.00000
G0 X82.14589 Y-89.36990
G1 Z-2.00000
G1 Z2.00000
G0 X79.60589 Y-89.36990
G1 Z-2.00000
G1 Z2.00000
G0 X61.87669 Y-89.36990
G1 Z-2.00000
G1 Z2.00000
G0 X59.33669 Y-89.36990
G1 Z-2.00000
G1 Z2.00000
G0 X56.79669 Y-89.36990
G1 Z-2.00000
G1 Z2.00000
G0 X54.25669 Y-89.36990
G1 Z-2.00000
G1 Z2.00000
G0 X64.37859 Y-77.66050
G1 Z-2.00000
G1 Z2.00000
G0 X64.37859 Y-75.12050
G1 Z-2.00000
G1 Z2.00000
G0 X64.37859 Y-72.58050
G1 Z-2.00000
G1 Z2.00000
G0 X67.99809 Y-59.69000
G1 Z-2.00000
G1 Z2.00000
G0 X70.53809 Y-59.69000
G1 Z-2.00000
G1 Z2.00000
G0 X18.65859 Y-63.69050
G1 Z-2.00000
G1 Z2.00000
G0 X18.65859 Y-66.23050
G1 Z-2.00000
G1 Z2.00000
G0 X18.46809 Y-59.69000
G1 Z-2.00000
G1 Z2.00000
G0 X18.46809 Y-57.15000
G1 Z-2.00000
G1 Z2.00000
G0 X18.46809 Y-73.91400
G1 Z-2.00000
G1 Z2.00000
G0 X18.46809 Y-76.45400
G1 Z-2.00000
G1 Z2.00000

G00 Z10.00000 (Retract)
T5
M5      (Spindle stop.)
(MSG, Change tool bit to drill size 0.05500 inch)
M6      (Tool change.)
M0      (Temporary machine stop.)
M3      (Spindle on clockwise.)

F100.00000
G0 X26.27859 Y-84.26450
G1 Z-2.00000
G1 Z2.00000
G0 X28.81859 Y-89.34450
G1 Z-2.00000
G1 Z2.00000
G0 X23.73859 Y-89.34450
G1 Z-2.00000
G1 Z2.00000
G0 X36.43859 Y-89.34450
G1 Z-2.00000
G1 Z2.00000
G0 X41.51859 Y-89.34450
G1 Z-2.00000
G1 Z2.00000
G0 X38.97859 Y-84.26450
G1 Z-2.00000
G1 Z2.00000
G0 X49.13859 Y-89.34450
G1 Z-2.00000
G1 Z2.00000
G0 X54.21859 Y-89.34450
G1 Z-2.00000
G1 Z2.00000
G0 X51.67859 Y-84.26450
G1 Z-2.00000
G1 Z2.00000
G0 X61.83859 Y-89.34450
G1 Z-2.00000
G1 Z2.00000
G0 X66.91859 Y-89.34450
G1 Z-2.00000
G1 Z2.00000
G0 X64.37859 Y-84.26450
G1 Z-2.00000
G1 Z2.00000
G0 X74.53859 Y-89.34450
G1 Z-2.00000
G1 Z2.00000
G0 X79.61859 Y-89.34450
G1 Z-2.00000
G1 Z2.00000
G0 X77.07859 Y-84.26450
G1 Z-2.00000
G1 Z2.00000
G0 X87.23859 Y-89.34450
G1 Z-2.00000
G1 Z2.00000
G0 X92.31859 Y-89.34450
G1 Z-2.00000
G1 Z2.00000
G0 X89.77859 Y-84.26450
G1 Z-2.00000
G1 Z2.00000

G00 Z10.00000 (Retract)
T6
M5      (Spindle stop.)
(MSG, Change tool bit to drill size 0.12000 inch)
M6      (Tool change.)
M0      (Temporary machine stop.)
M3      (Spindle on clockwise.)

F100.00000
G0 X16.59611 Y-17.88922
G1 Z-2.00000
G1 Z2.00000
G0 X16.59611 Y-83.88858
G1 Z-2.00000
G1 Z2.00000
G0 X101.59721 Y-83.88858
G1 Z-2.00000
G1 Z2.00000
G0 X101.59721 Y-17.88922
G1 Z-2.00000
G1 Z2.00000

G00 Z10.00000 (All done -- retract)

M5      (Spindle off.)
M9      (Coolant off.)
M2      (Program end.)

